(G-CODE GENERATED BY FLATCAM v8.994 - www.flatcam.org - Version Date: 2020/11/7)

(Name: Watchdog - CADCAM Bottom Copper.GBR_iso_combined_1_cnc)
(Type: G-code from Geometry)
(Units: MM)

(Created on Wednesday, 30 July 2025 at 00:39)

(This preprocessor is the default preprocessor used by FlatCAM.)
(It is made to work with MACH3 compatible motion controllers.)

(TOOL DIAMETER: 0.2188 mm)
(Feedrate_XY: 120.0 mm/min)
(Feedrate_Z: 60.0 mm/min)
(Feedrate rapids 1500.0 mm/min)

(Z_Cut: -0.035 mm)
(Z_Move: 5.0 mm)
(Z Start: None mm)
(Z End: 15.0 mm)
(X,Y End: 0.0000, 0.0000 mm)
(Steps per circle: 64)
(Preprocessor Geometry: default)

(X range:    1.0016 ...   25.9124  mm)
(Y range:    0.9140 ...   23.4984  mm)

(Spindle Speed: 13000.0 RPM)
G21
G90
G94

G01 F120.00

M5
G00 Z15.0000
G00 X0.0000 Y0.0000
T1
M6    
(MSG, Change to Tool Dia = 0.2188)
M0
G00 Z15.0000

M03 S13000.0
G01 F120.00
G00 X4.2268 Y4.0403
G01 F60.00
G01 Z-2.4000
G01 F120.00
G01 X7.0997 Y1.1674
G01 X7.1612 Y1.1119
G01 X7.2255 Y1.0640
G01 X7.2344 Y1.0580
G01 X7.3033 Y1.0169
G01 X7.3757 Y0.9825
G01 X7.3856 Y0.9784
G01 X7.4612 Y0.9515
G01 X7.5415 Y0.9313
G01 X7.5495 Y0.9298
G01 X7.6288 Y0.9182
G01 X7.7142 Y0.9140
G01 X17.0161 Y0.9140
G01 X17.0962 Y0.9178
G01 X17.1069 Y0.9188
G01 X17.1862 Y0.9307
G01 X17.2640 Y0.9501
G01 X17.2743 Y0.9532
G01 X17.3498 Y0.9803
G01 X17.4223 Y1.0145
G01 X17.4295 Y1.0182
G01 X17.5005 Y1.0609
G01 X17.5650 Y1.1086
G01 X17.5733 Y1.1154
G01 X17.6326 Y1.1693
G01 X23.0844 Y6.6212
G01 X23.1384 Y6.6805
G01 X23.1452 Y6.6888
G01 X23.1929 Y6.7533
G01 X23.2368 Y6.8267
G01 X23.2734 Y6.9040
G01 X23.3006 Y6.9794
G01 X23.3037 Y6.9897
G01 X23.3230 Y7.0675
G01 X23.3349 Y7.1468
G01 X23.3360 Y7.1575
G01 X23.3397 Y7.2349
G01 X23.3398 Y13.4557
G01 X23.6786 Y13.7946
G01 X25.5187 Y13.7946
G01 X25.5294 Y13.7954
G01 X25.5426 Y13.7979
G01 X25.5529 Y13.8010
G01 X25.5628 Y13.8051
G01 X25.5722 Y13.8102
G01 X25.5812 Y13.8161
G01 X25.5895 Y13.8229
G01 X25.5971 Y13.8305
G01 X25.6039 Y13.8388
G01 X25.6098 Y13.8478
G01 X25.6149 Y13.8572
G01 X25.6181 Y13.8646
G01 X25.6207 Y13.8722
G01 X25.6233 Y13.8827
G01 X25.6249 Y13.8933
G01 X25.6254 Y13.9040
G01 X25.6254 Y15.9360
G01 X25.6246 Y15.9494
G01 X25.6221 Y15.9626
G01 X25.6181 Y15.9754
G01 X25.6149 Y15.9828
G01 X25.6112 Y15.9899
G01 X25.6070 Y15.9968
G01 X25.6022 Y16.0033
G01 X25.5934 Y16.0134
G01 X25.5833 Y16.0222
G01 X25.5722 Y16.0298
G01 X25.5652 Y16.0337
G01 X25.5579 Y16.0371
G01 X25.5452 Y16.0414
G01 X25.5321 Y16.0442
G01 X25.5187 Y16.0454
G01 X23.4840 Y16.0454
G01 X23.4733 Y16.0449
G01 X23.4627 Y16.0433
G01 X23.4522 Y16.0407
G01 X23.4397 Y16.0360
G01 X23.4278 Y16.0298
G01 X23.4188 Y16.0239
G01 X23.4086 Y16.0152
G01 X23.3994 Y16.0054
G01 X23.3930 Y15.9968
G01 X23.3863 Y15.9852
G01 X23.3819 Y15.9754
G01 X23.3779 Y15.9626
G01 X23.3754 Y15.9494
G01 X23.3746 Y15.9387
G01 X23.3746 Y15.7685
G01 X23.3181 Y15.7542
G01 X23.2426 Y15.7274
G01 X23.2326 Y15.7232
G01 X23.1626 Y15.6901
G01 X23.1555 Y15.6862
G01 X23.0868 Y15.6449
G01 X23.0223 Y15.5972
G01 X23.0140 Y15.5904
G01 X22.9547 Y15.5364
G01 X21.8516 Y14.4333
G01 X21.7941 Y14.3699
G01 X21.7431 Y14.3012
G01 X21.6992 Y14.2278
G01 X21.6648 Y14.1554
G01 X21.6606 Y14.1454
G01 X21.6338 Y14.0699
G01 X21.6141 Y13.9922
G01 X21.6121 Y13.9816
G01 X21.6004 Y13.9023
G01 X21.5963 Y13.8195
G01 X21.5962 Y7.5987
G01 X16.6550 Y2.6575
G01 X8.0753 Y2.6575
G01 X5.4597 Y5.2732
G01 X5.4546 Y5.2924
G01 X5.4224 Y5.3821
G01 X5.3829 Y5.4658
G01 X5.3779 Y5.4753
G01 X5.3301 Y5.5547
G01 X5.2751 Y5.6291
G01 X5.2683 Y5.6374
G01 X5.2097 Y5.7021
G01 X5.2041 Y5.7079
G01 X5.1334 Y5.7718
G01 X5.0547 Y5.8301
G01 X4.9706 Y5.8805
G01 X4.8870 Y5.9202
G01 X4.8771 Y5.9243
G01 X4.7949 Y5.9537
G01 X4.7846 Y5.9568
G01 X4.6948 Y5.9792
G01 X4.6005 Y5.9933
G01 X4.5925 Y5.9940
G01 X4.5000 Y5.9984
G01 X4.4021 Y5.9936
G01 X4.3052 Y5.9792
G01 X4.2154 Y5.9568
G01 X4.2051 Y5.9537
G01 X4.1179 Y5.9224
G01 X4.0342 Y5.8829
G01 X4.0247 Y5.8779
G01 X3.9499 Y5.8330
G01 X3.9409 Y5.8270
G01 X3.8666 Y5.7718
G01 X3.7940 Y5.7060
G01 X3.7282 Y5.6334
G01 X3.6699 Y5.5547
G01 X3.6195 Y5.4706
G01 X3.5776 Y5.3821
G01 X3.5446 Y5.2898
G01 X3.5208 Y5.1948
G01 X3.5064 Y5.0979
G01 X3.5016 Y5.0000
G01 X3.5064 Y4.9021
G01 X3.5208 Y4.8052
G01 X3.5446 Y4.7102
G01 X3.5776 Y4.6179
G01 X3.6195 Y4.5294
G01 X3.6670 Y4.4499
G01 X3.6730 Y4.4409
G01 X3.7282 Y4.3666
G01 X3.7940 Y4.2940
G01 X3.8666 Y4.2282
G01 X3.9409 Y4.1730
G01 X3.9499 Y4.1670
G01 X4.0294 Y4.1195
G01 X4.1130 Y4.0798
G01 X4.1229 Y4.0757
G01 X4.2051 Y4.0463
G01 X4.2128 Y4.0438
G01 X4.2268 Y4.0403
G00 Z5.0000
G00 X2.4855 Y11.5882
G01 F60.00
G01 Z-2.4000
G01 F120.00
G01 X3.6282 Y11.5882
G01 X3.6282 Y8.0255
G01 X3.6183 Y8.0083
G01 X3.5776 Y7.9221
G01 X3.5446 Y7.8298
G01 X3.5208 Y7.7348
G01 X3.5064 Y7.6379
G01 X3.5016 Y7.5400
G01 X3.5064 Y7.4421
G01 X3.5208 Y7.3452
G01 X3.5438 Y7.2528
G01 X3.5463 Y7.2451
G01 X3.5776 Y7.1579
G01 X3.6195 Y7.0694
G01 X3.6699 Y6.9853
G01 X3.7249 Y6.9109
G01 X3.7317 Y6.9026
G01 X3.7903 Y6.8379
G01 X3.7979 Y6.8303
G01 X3.8666 Y6.7682
G01 X3.9409 Y6.7130
G01 X3.9499 Y6.7070
G01 X4.0294 Y6.6595
G01 X4.1179 Y6.6176
G01 X4.2102 Y6.5846
G01 X4.3052 Y6.5608
G01 X4.4021 Y6.5464
G01 X4.4946 Y6.5417
G01 X4.5054 Y6.5417
G01 X4.5979 Y6.5464
G01 X4.6895 Y6.5599
G01 X4.7000 Y6.5620
G01 X4.7846 Y6.5832
G01 X4.7949 Y6.5863
G01 X4.8821 Y6.6176
G01 X4.9683 Y6.6583
G01 X4.9753 Y6.6621
G01 X5.0547 Y6.7099
G01 X5.1291 Y6.7649
G01 X5.1374 Y6.7717
G01 X5.2060 Y6.8340
G01 X5.2683 Y6.9026
G01 X5.2751 Y6.9109
G01 X5.3301 Y6.9853
G01 X5.3779 Y7.0647
G01 X5.3829 Y7.0742
G01 X5.4224 Y7.1579
G01 X5.4537 Y7.2451
G01 X5.4568 Y7.2554
G01 X5.4792 Y7.3452
G01 X5.4936 Y7.4421
G01 X5.4983 Y7.5346
G01 X5.4983 Y7.5454
G01 X5.4936 Y7.6379
G01 X5.4792 Y7.7348
G01 X5.4554 Y7.8298
G01 X5.4243 Y7.9171
G01 X5.4202 Y7.9270
G01 X5.3829 Y8.0058
G01 X5.3792 Y8.0130
G01 X5.3718 Y8.0255
G01 X5.3718 Y11.8002
G01 X5.4318 Y11.8666
G01 X5.4901 Y11.9453
G01 X5.5405 Y12.0294
G01 X5.5802 Y12.1130
G01 X5.5843 Y12.1229
G01 X5.6137 Y12.2051
G01 X5.6168 Y12.2154
G01 X5.6392 Y12.3052
G01 X5.6529 Y12.3968
G01 X5.6540 Y12.4075
G01 X5.6583 Y12.4946
G01 X5.6583 Y12.5054
G01 X5.6536 Y12.5979
G01 X5.6392 Y12.6948
G01 X5.6168 Y12.7846
G01 X5.6137 Y12.7949
G01 X5.5824 Y12.8821
G01 X5.5417 Y12.9683
G01 X5.5379 Y12.9753
G01 X5.4901 Y13.0547
G01 X5.4351 Y13.1291
G01 X5.4283 Y13.1374
G01 X5.3660 Y13.2060
G01 X5.2974 Y13.2683
G01 X5.2891 Y13.2751
G01 X5.2147 Y13.3301
G01 X5.1353 Y13.3779
G01 X5.1258 Y13.3829
G01 X5.0421 Y13.4224
G01 X4.9549 Y13.4537
G01 X4.9446 Y13.4568
G01 X4.8548 Y13.4792
G01 X4.7579 Y13.4936
G01 X4.6600 Y13.4984
G01 X4.5675 Y13.4940
G01 X4.5568 Y13.4929
G01 X4.4705 Y13.4801
G01 X4.4600 Y13.4780
G01 X4.3702 Y13.4554
G01 X4.2779 Y13.4224
G01 X4.1894 Y13.3805
G01 X4.1079 Y13.3318
G01 X2.4855 Y13.3318
G01 X2.4683 Y13.3417
G01 X2.3821 Y13.3824
G01 X2.2949 Y13.4137
G01 X2.2846 Y13.4168
G01 X2.1948 Y13.4392
G01 X2.1032 Y13.4529
G01 X2.0925 Y13.4540
G01 X2.0000 Y13.4584
G01 X1.9075 Y13.4540
G01 X1.8968 Y13.4529
G01 X1.8052 Y13.4392
G01 X1.7154 Y13.4168
G01 X1.7051 Y13.4137
G01 X1.6179 Y13.3824
G01 X1.5294 Y13.3405
G01 X1.4453 Y13.2901
G01 X1.3666 Y13.2318
G01 X1.2940 Y13.1660
G01 X1.2282 Y13.0934
G01 X1.1699 Y13.0147
G01 X1.1195 Y12.9306
G01 X1.0776 Y12.8421
G01 X1.0446 Y12.7498
G01 X1.0208 Y12.6548
G01 X1.0064 Y12.5579
G01 X1.0016 Y12.4600
G01 X1.0064 Y12.3621
G01 X1.0208 Y12.2652
G01 X1.0446 Y12.1702
G01 X1.0776 Y12.0779
G01 X1.1195 Y11.9894
G01 X1.1699 Y11.9053
G01 X1.2282 Y11.8266
G01 X1.2940 Y11.7540
G01 X1.3666 Y11.6882
G01 X1.4453 Y11.6299
G01 X1.5294 Y11.5795
G01 X1.6179 Y11.5376
G01 X1.7102 Y11.5046
G01 X1.8052 Y11.4808
G01 X1.9021 Y11.4664
G01 X2.0000 Y11.4616
G01 X2.0979 Y11.4664
G01 X2.1948 Y11.4808
G01 X2.2898 Y11.5046
G01 X2.3821 Y11.5376
G01 X2.4683 Y11.5783
G01 X2.4855 Y11.5882
G00 Z5.0000
G00 X1.1282 Y15.4855
G01 F60.00
G01 Z-2.4000
G01 F120.00
G01 X1.1183 Y15.4683
G01 X1.0776 Y15.3821
G01 X1.0446 Y15.2898
G01 X1.0208 Y15.1948
G01 X1.0064 Y15.0979
G01 X1.0016 Y15.0000
G01 X1.0064 Y14.9021
G01 X1.0208 Y14.8052
G01 X1.0446 Y14.7102
G01 X1.0776 Y14.6179
G01 X1.1195 Y14.5294
G01 X1.1699 Y14.4453
G01 X1.2282 Y14.3666
G01 X1.2940 Y14.2940
G01 X1.3666 Y14.2282
G01 X1.4453 Y14.1699
G01 X1.5294 Y14.1195
G01 X1.6179 Y14.0776
G01 X1.7102 Y14.0446
G01 X1.8052 Y14.0208
G01 X1.9021 Y14.0064
G01 X2.0000 Y14.0016
G01 X2.0979 Y14.0064
G01 X2.1948 Y14.0208
G01 X2.2898 Y14.0446
G01 X2.3821 Y14.0776
G01 X2.4706 Y14.1195
G01 X2.5547 Y14.1699
G01 X2.6334 Y14.2282
G01 X2.7060 Y14.2940
G01 X2.7718 Y14.3666
G01 X2.8301 Y14.4453
G01 X2.8805 Y14.5294
G01 X2.9224 Y14.6179
G01 X2.9537 Y14.7051
G01 X2.9568 Y14.7154
G01 X2.9792 Y14.8052
G01 X2.9929 Y14.8968
G01 X2.9940 Y14.9075
G01 X2.9984 Y15.0000
G01 X2.9940 Y15.0925
G01 X2.9929 Y15.1032
G01 X2.9792 Y15.1948
G01 X2.9568 Y15.2846
G01 X2.9537 Y15.2949
G01 X2.9224 Y15.3821
G01 X2.8817 Y15.4683
G01 X2.8718 Y15.4855
G01 X2.8718 Y18.8801
G01 X3.1199 Y19.1282
G01 X3.2327 Y19.1283
G01 X3.3154 Y19.1324
G01 X3.4001 Y19.1450
G01 X3.4831 Y19.1658
G01 X3.5636 Y19.1946
G01 X3.6410 Y19.2312
G01 X3.7143 Y19.2751
G01 X3.7788 Y19.3228
G01 X3.7851 Y19.3278
G01 X3.8464 Y19.3836
G01 X3.9039 Y19.4469
G01 X3.9549 Y19.5157
G01 X3.9988 Y19.5890
G01 X4.0354 Y19.6664
G01 X4.0642 Y19.7469
G01 X4.0850 Y19.8299
G01 X4.0976 Y19.9146
G01 X4.1018 Y20.0000
G01 X4.0980 Y20.0801
G01 X4.0969 Y20.0908
G01 X4.0850 Y20.1701
G01 X4.0642 Y20.2531
G01 X4.0374 Y20.3286
G01 X4.0332 Y20.3385
G01 X4.0013 Y20.4062
G01 X3.9962 Y20.4156
G01 X3.9549 Y20.4843
G01 X3.9039 Y20.5531
G01 X3.8464 Y20.6164
G01 X3.7871 Y20.6704
G01 X3.7788 Y20.6772
G01 X3.7187 Y20.7218
G01 X3.7098 Y20.7277
G01 X3.6410 Y20.7688
G01 X3.5685 Y20.8032
G01 X3.5586 Y20.8074
G01 X3.4882 Y20.8326
G01 X3.4779 Y20.8357
G01 X3.4001 Y20.8550
G01 X3.3208 Y20.8669
G01 X3.3128 Y20.8678
G01 X3.2300 Y20.8718
G01 X2.7561 Y20.8717
G01 X2.6734 Y20.8676
G01 X2.5940 Y20.8559
G01 X2.5835 Y20.8539
G01 X2.5058 Y20.8342
G01 X2.4302 Y20.8074
G01 X2.4203 Y20.8032
G01 X2.3502 Y20.7701
G01 X2.3432 Y20.7662
G01 X2.2790 Y20.7277
G01 X2.2701 Y20.7218
G01 X2.2058 Y20.6739
G01 X2.1443 Y20.6183
G01 X1.3817 Y19.8557
G01 X1.3261 Y19.7942
G01 X1.2751 Y19.7255
G01 X1.2312 Y19.6521
G01 X1.1968 Y19.5797
G01 X1.1926 Y19.5698
G01 X1.1658 Y19.4942
G01 X1.1450 Y19.4113
G01 X1.1324 Y19.3266
G01 X1.1283 Y19.2439
G01 X1.1282 Y15.4855
G00 Z5.0000
G00 X3.8836 Y18.1136
G01 F60.00
G01 Z-2.4000
G01 F120.00
G01 X5.1136 Y16.8836
G01 X5.1769 Y16.8261
G01 X5.2413 Y16.7782
G01 X5.2502 Y16.7723
G01 X5.3190 Y16.7312
G01 X5.3915 Y16.6968
G01 X5.4014 Y16.6926
G01 X5.4718 Y16.6674
G01 X5.4821 Y16.6643
G01 X5.5599 Y16.6450
G01 X5.6419 Y16.6327
G01 X5.6499 Y16.6320
G01 X5.7300 Y16.6282
G01 X6.3282 Y16.6282
G01 X6.3282 Y12.9855
G01 X6.3183 Y12.9683
G01 X6.2776 Y12.8821
G01 X6.2463 Y12.7949
G01 X6.2432 Y12.7846
G01 X6.2208 Y12.6948
G01 X6.2071 Y12.6032
G01 X6.2060 Y12.5925
G01 X6.2017 Y12.5054
G01 X6.2016 Y12.4973
G01 X6.2060 Y12.4075
G01 X6.2071 Y12.3968
G01 X6.2208 Y12.3052
G01 X6.2432 Y12.2154
G01 X6.2463 Y12.2051
G01 X6.2776 Y12.1179
G01 X6.3183 Y12.0317
G01 X6.3282 Y12.0145
G01 X6.3284 Y9.7546
G01 X6.3320 Y9.6799
G01 X6.3331 Y9.6692
G01 X6.3450 Y9.5899
G01 X6.3643 Y9.5121
G01 X6.3674 Y9.5018
G01 X6.3946 Y9.4264
G01 X6.4287 Y9.3538
G01 X6.4325 Y9.3467
G01 X6.4751 Y9.2757
G01 X6.5228 Y9.2112
G01 X6.5296 Y9.2029
G01 X6.5817 Y9.1455
G01 X8.3404 Y7.3868
G01 X8.3562 Y7.2804
G01 X8.3831 Y7.1733
G01 X8.4203 Y7.0693
G01 X8.4651 Y6.9743
G01 X8.4701 Y6.9648
G01 X8.5214 Y6.8793
G01 X8.5258 Y6.8725
G01 X8.5884 Y6.7882
G01 X8.6161 Y6.7571
G01 X8.6266 Y6.7166
G01 X8.6526 Y6.6436
G01 X8.6556 Y6.6362
G01 X8.6912 Y6.5613
G01 X8.7323 Y6.4925
G01 X8.7382 Y6.4835
G01 X8.7861 Y6.4192
G01 X8.8417 Y6.3577
G01 X12.2567 Y2.9429
G01 X12.3162 Y2.8891
G01 X12.3849 Y2.8381
G01 X12.4583 Y2.7942
G01 X12.5307 Y2.7598
G01 X12.5406 Y2.7556
G01 X12.6111 Y2.7304
G01 X12.6214 Y2.7273
G01 X12.6992 Y2.7080
G01 X12.7785 Y2.6961
G01 X12.7865 Y2.6952
G01 X12.8693 Y2.6912
G01 X16.1334 Y2.6913
G01 X16.2162 Y2.6954
G01 X16.2955 Y2.7071
G01 X16.3061 Y2.7091
G01 X16.3838 Y2.7288
G01 X16.4594 Y2.7556
G01 X16.4693 Y2.7598
G01 X16.5393 Y2.7929
G01 X16.5464 Y2.7968
G01 X16.6105 Y2.8353
G01 X16.6195 Y2.8412
G01 X16.6838 Y2.8891
G01 X16.7472 Y2.9466
G01 X20.1183 Y6.3177
G01 X20.1739 Y6.3792
G01 X20.2249 Y6.4479
G01 X20.2688 Y6.5213
G01 X20.3054 Y6.5986
G01 X20.3342 Y6.6792
G01 X20.3550 Y6.7622
G01 X20.3676 Y6.8468
G01 X20.3716 Y6.9269
G01 X20.3718 Y13.0902
G01 X23.6162 Y16.3346
G01 X25.5214 Y16.3347
G01 X25.5294 Y16.3354
G01 X25.5400 Y16.3373
G01 X25.5478 Y16.3393
G01 X25.5579 Y16.3429
G01 X25.5652 Y16.3463
G01 X25.5745 Y16.3516
G01 X25.5833 Y16.3578
G01 X25.5914 Y16.3648
G01 X25.5988 Y16.3725
G01 X25.6039 Y16.3788
G01 X25.6098 Y16.3878
G01 X25.6149 Y16.3972
G01 X25.6190 Y16.4071
G01 X25.6221 Y16.4174
G01 X25.6238 Y16.4253
G01 X25.6251 Y16.4360
G01 X25.6254 Y16.4440
G01 X25.6254 Y18.4787
G01 X25.6242 Y18.4921
G01 X25.6214 Y18.5052
G01 X25.6190 Y18.5129
G01 X25.6160 Y18.5203
G01 X25.6098 Y18.5322
G01 X25.6022 Y18.5433
G01 X25.5934 Y18.5534
G01 X25.5833 Y18.5622
G01 X25.5722 Y18.5698
G01 X25.5652 Y18.5737
G01 X25.5579 Y18.5771
G01 X25.5452 Y18.5814
G01 X25.5373 Y18.5833
G01 X25.5294 Y18.5846
G01 X25.5160 Y18.5854
G01 X23.4840 Y18.5854
G01 X23.4760 Y18.5851
G01 X23.4653 Y18.5838
G01 X23.4574 Y18.5821
G01 X23.4497 Y18.5799
G01 X23.4372 Y18.5749
G01 X23.4301 Y18.5712
G01 X23.4232 Y18.5670
G01 X23.4125 Y18.5588
G01 X23.4029 Y18.5495
G01 X23.3946 Y18.5390
G01 X23.3875 Y18.5276
G01 X23.3840 Y18.5203
G01 X23.3810 Y18.5129
G01 X23.3786 Y18.5052
G01 X23.3767 Y18.4973
G01 X23.3754 Y18.4894
G01 X23.3746 Y18.4787
G01 X23.3746 Y18.3205
G01 X23.3360 Y18.3145
G01 X23.2608 Y18.2957
G01 X23.2530 Y18.2934
G01 X23.1751 Y18.2654
G01 X23.1001 Y18.2301
G01 X23.0930 Y18.2262
G01 X23.0289 Y18.1877
G01 X23.0199 Y18.1818
G01 X22.9556 Y18.1339
G01 X22.8941 Y18.0783
G01 X18.8836 Y14.0678
G01 X18.8261 Y14.0044
G01 X18.7751 Y13.9357
G01 X18.7312 Y13.8623
G01 X18.6968 Y13.7899
G01 X18.6936 Y13.7825
G01 X18.6658 Y13.7044
G01 X18.6450 Y13.6214
G01 X18.6324 Y13.5368
G01 X18.6282 Y13.4513
G01 X18.6282 Y7.2934
G01 X15.7696 Y4.4348
G01 X13.2304 Y4.4348
G01 X10.5252 Y7.1400
G01 X10.5377 Y7.1759
G01 X10.5632 Y7.2778
G01 X10.5647 Y7.2857
G01 X10.5793 Y7.3844
G01 X10.5802 Y7.3924
G01 X10.5854 Y7.5000
G01 X10.5804 Y7.6050
G01 X10.5793 Y7.6156
G01 X10.5647 Y7.7143
G01 X10.5632 Y7.7222
G01 X10.5369 Y7.8267
G01 X10.5017 Y7.9257
G01 X10.4976 Y7.9356
G01 X10.4525 Y8.0305
G01 X10.3986 Y8.1207
G01 X10.3926 Y8.1296
G01 X10.3299 Y8.2139
G01 X10.2595 Y8.2919
G01 X10.2519 Y8.2995
G01 X10.1780 Y8.3664
G01 X10.1697 Y8.3732
G01 X10.0852 Y8.4357
G01 X9.9952 Y8.4899
G01 X9.9857 Y8.4949
G01 X9.8907 Y8.5397
G01 X9.7867 Y8.5769
G01 X9.6796 Y8.6038
G01 X9.5732 Y8.6196
G01 X8.0718 Y10.1211
G01 X8.0718 Y12.0145
G01 X8.0817 Y12.0317
G01 X8.1224 Y12.1179
G01 X8.1537 Y12.2051
G01 X8.1568 Y12.2154
G01 X8.1792 Y12.3052
G01 X8.1929 Y12.3968
G01 X8.1940 Y12.4075
G01 X8.1984 Y12.5000
G01 X8.1940 Y12.5925
G01 X8.1929 Y12.6032
G01 X8.1792 Y12.6948
G01 X8.1568 Y12.7846
G01 X8.1537 Y12.7949
G01 X8.1224 Y12.8821
G01 X8.0817 Y12.9683
G01 X8.0718 Y12.9855
G01 X8.0717 Y17.3027
G01 X8.0676 Y17.3854
G01 X8.0559 Y17.4648
G01 X8.0539 Y17.4753
G01 X8.0357 Y17.5479
G01 X8.0334 Y17.5556
G01 X8.0054 Y17.6336
G01 X7.9806 Y17.6864
G01 X7.9780 Y17.7000
G01 X7.9554 Y17.7898
G01 X7.9224 Y17.8821
G01 X7.8805 Y17.9706
G01 X7.8301 Y18.0547
G01 X7.7718 Y18.1334
G01 X7.7060 Y18.2060
G01 X7.6334 Y18.2718
G01 X7.5547 Y18.3301
G01 X7.4706 Y18.3805
G01 X7.3821 Y18.4224
G01 X7.2898 Y18.4554
G01 X7.2000 Y18.4780
G01 X7.1921 Y18.4797
G01 X7.0979 Y18.4936
G01 X7.0054 Y18.4983
G01 X6.9946 Y18.4983
G01 X6.9021 Y18.4936
G01 X6.8052 Y18.4792
G01 X6.7102 Y18.4554
G01 X6.6179 Y18.4224
G01 X6.5317 Y18.3817
G01 X6.5145 Y18.3718
G01 X6.0911 Y18.3718
G01 X5.1164 Y19.3464
G01 X5.0571 Y19.4004
G01 X5.0510 Y19.4056
G01 X4.9843 Y19.4549
G01 X4.9156 Y19.4962
G01 X4.9062 Y19.5013
G01 X4.8385 Y19.5332
G01 X4.8286 Y19.5374
G01 X4.7531 Y19.5642
G01 X4.6701 Y19.5850
G01 X4.5854 Y19.5976
G01 X4.5027 Y19.6017
G01 X4.4946 Y19.6016
G01 X4.4199 Y19.5980
G01 X4.4092 Y19.5969
G01 X4.3299 Y19.5850
G01 X4.2469 Y19.5642
G01 X4.1714 Y19.5374
G01 X4.1615 Y19.5332
G01 X4.0890 Y19.4988
G01 X4.0157 Y19.4549
G01 X3.9512 Y19.4072
G01 X3.9429 Y19.4004
G01 X3.8836 Y19.3464
G01 X3.8261 Y19.2831
G01 X3.7782 Y19.2187
G01 X3.7723 Y19.2098
G01 X3.7312 Y19.1410
G01 X3.6946 Y19.0636
G01 X3.6658 Y18.9831
G01 X3.6461 Y18.9053
G01 X3.6441 Y18.8948
G01 X3.6324 Y18.8154
G01 X3.6282 Y18.7300
G01 X3.6320 Y18.6499
G01 X3.6331 Y18.6392
G01 X3.6450 Y18.5599
G01 X3.6658 Y18.4769
G01 X3.6926 Y18.4014
G01 X3.6968 Y18.3915
G01 X3.7312 Y18.3190
G01 X3.7751 Y18.2457
G01 X3.8228 Y18.1812
G01 X3.8296 Y18.1729
G01 X3.8836 Y18.1136
G00 Z5.0000
G00 X3.8799 Y21.9208
G01 F60.00
G01 Z-2.4000
G01 F120.00
G01 X3.8261 Y21.8613
G01 X3.7782 Y21.7969
G01 X3.7723 Y21.7880
G01 X3.7312 Y21.7192
G01 X3.6968 Y21.6467
G01 X3.6926 Y21.6368
G01 X3.6658 Y21.5613
G01 X3.6450 Y21.4783
G01 X3.6324 Y21.3937
G01 X3.6284 Y21.3136
G01 X3.6283 Y21.2673
G01 X3.6324 Y21.1846
G01 X3.6450 Y21.0999
G01 X3.6643 Y21.0221
G01 X3.6674 Y21.0118
G01 X3.6946 Y20.9364
G01 X3.7312 Y20.8590
G01 X3.7723 Y20.7902
G01 X3.7782 Y20.7813
G01 X3.8261 Y20.7169
G01 X3.8836 Y20.6536
G01 X3.9429 Y20.5996
G01 X3.9512 Y20.5928
G01 X4.0157 Y20.5451
G01 X4.0890 Y20.5012
G01 X4.1615 Y20.4668
G01 X4.1714 Y20.4626
G01 X4.2469 Y20.4358
G01 X4.3247 Y20.4161
G01 X4.3352 Y20.4141
G01 X4.4146 Y20.4024
G01 X4.4973 Y20.3983
G01 X4.5054 Y20.3984
G01 X4.5854 Y20.4024
G01 X4.6648 Y20.4141
G01 X4.6753 Y20.4161
G01 X4.7479 Y20.4343
G01 X4.7582 Y20.4374
G01 X4.8336 Y20.4646
G01 X4.9110 Y20.5012
G01 X4.9843 Y20.5451
G01 X5.0510 Y20.5944
G01 X5.0571 Y20.5996
G01 X5.1164 Y20.6536
G01 X5.1722 Y20.7149
G01 X5.1772 Y20.7212
G01 X5.2233 Y20.7835
G01 X5.2470 Y20.8223
G01 X6.0129 Y21.5882
G01 X13.6282 Y21.5882
G01 X13.6282 Y20.5611
G01 X9.4856 Y16.4184
G01 X9.4281 Y16.3551
G01 X9.3771 Y16.2863
G01 X9.3332 Y16.2130
G01 X9.2976 Y16.1381
G01 X9.2946 Y16.1306
G01 X9.2678 Y16.0551
G01 X9.2470 Y15.9721
G01 X9.2344 Y15.8874
G01 X9.2303 Y15.8047
G01 X9.2302 Y11.7635
G01 X9.2340 Y11.6834
G01 X9.2347 Y11.6754
G01 X9.2470 Y11.5935
G01 X9.2663 Y11.5156
G01 X9.2694 Y11.5054
G01 X9.2966 Y11.4299
G01 X9.3332 Y11.3526
G01 X9.3743 Y11.2837
G01 X9.3802 Y11.2748
G01 X9.4248 Y11.2147
G01 X9.4298 Y11.2084
G01 X9.4856 Y11.1471
G01 X11.1282 Y9.5044
G01 X11.1282 Y8.2116
G01 X11.0643 Y8.1252
G01 X11.0075 Y8.0305
G01 X10.9603 Y7.9307
G01 X10.9231 Y7.8267
G01 X10.8962 Y7.7196
G01 X10.8800 Y7.6103
G01 X10.8746 Y7.5000
G01 X10.8798 Y7.3924
G01 X10.8807 Y7.3844
G01 X10.8962 Y7.2804
G01 X10.9231 Y7.1733
G01 X10.9603 Y7.0693
G01 X11.0051 Y6.9743
G01 X11.0101 Y6.9648
G01 X11.0643 Y6.8748
G01 X11.1284 Y6.7882
G01 X11.1473 Y6.7668
G01 X11.1658 Y6.6937
G01 X11.1926 Y6.6181
G01 X11.1968 Y6.6082
G01 X11.2287 Y6.5406
G01 X11.2338 Y6.5311
G01 X11.2751 Y6.4624
G01 X11.3228 Y6.3979
G01 X11.3296 Y6.3896
G01 X11.3817 Y6.3322
G01 X12.9912 Y4.7227
G01 X13.0527 Y4.6671
G01 X13.1214 Y4.6161
G01 X13.1948 Y4.5722
G01 X13.2672 Y4.5378
G01 X13.2746 Y4.5346
G01 X13.3527 Y4.5068
G01 X13.4356 Y4.4860
G01 X13.5203 Y4.4734
G01 X13.6030 Y4.4693
G01 X15.3970 Y4.4693
G01 X15.4797 Y4.4734
G01 X15.5591 Y4.4851
G01 X15.5696 Y4.4871
G01 X15.6473 Y4.5068
G01 X15.7279 Y4.5356
G01 X15.8004 Y4.5697
G01 X15.8099 Y4.5748
G01 X15.8741 Y4.6133
G01 X15.8808 Y4.6177
G01 X15.9473 Y4.6671
G01 X16.0107 Y4.7246
G01 X17.6201 Y6.3342
G01 X17.6739 Y6.3937
G01 X17.7218 Y6.4580
G01 X17.7277 Y6.4669
G01 X17.7688 Y6.5358
G01 X17.8032 Y6.6082
G01 X17.8074 Y6.6181
G01 X17.8342 Y6.6937
G01 X17.8545 Y6.7740
G01 X17.8559 Y6.7819
G01 X17.8676 Y6.8613
G01 X17.8717 Y6.9440
G01 X17.8718 Y7.5000
G01 X17.8676 Y7.5854
G01 X17.8559 Y7.6648
G01 X17.8539 Y7.6753
G01 X17.8357 Y7.7479
G01 X17.8318 Y7.7603
G01 X17.8317 Y12.5027
G01 X17.8276 Y12.5854
G01 X17.8159 Y12.6648
G01 X17.8139 Y12.6753
G01 X17.7942 Y12.7531
G01 X17.7674 Y12.8286
G01 X17.7632 Y12.8385
G01 X17.7288 Y12.9110
G01 X17.6849 Y12.9843
G01 X17.6372 Y13.0488
G01 X17.6304 Y13.0571
G01 X17.5764 Y13.1164
G01 X17.5131 Y13.1739
G01 X17.4487 Y13.2218
G01 X17.4398 Y13.2277
G01 X17.3710 Y13.2688
G01 X17.2985 Y13.3032
G01 X17.2886 Y13.3074
G01 X17.2131 Y13.3342
G01 X17.1353 Y13.3539
G01 X17.1248 Y13.3559
G01 X17.0454 Y13.3676
G01 X16.9654 Y13.3716
G01 X16.9546 Y13.3716
G01 X16.8746 Y13.3676
G01 X16.7899 Y13.3550
G01 X16.7121 Y13.3357
G01 X16.7018 Y13.3326
G01 X16.6264 Y13.3054
G01 X16.5538 Y13.2713
G01 X16.5444 Y13.2662
G01 X16.4757 Y13.2249
G01 X16.4112 Y13.1772
G01 X16.4029 Y13.1704
G01 X16.3436 Y13.1164
G01 X16.2896 Y13.0571
G01 X16.2828 Y13.0488
G01 X16.2351 Y12.9843
G01 X16.1938 Y12.9156
G01 X16.1887 Y12.9062
G01 X16.1568 Y12.8385
G01 X16.1536 Y12.8311
G01 X16.1258 Y12.7531
G01 X16.1050 Y12.6701
G01 X16.0924 Y12.5854
G01 X16.0882 Y12.5000
G01 X16.0882 Y7.5400
G01 X16.0920 Y7.4599
G01 X16.0931 Y7.4492
G01 X16.1050 Y7.3699
G01 X16.1220 Y7.3016
G01 X15.0332 Y6.2128
G01 X13.9668 Y6.2128
G01 X13.0584 Y7.1212
G01 X13.0753 Y7.1682
G01 X13.0777 Y7.1759
G01 X13.1032 Y7.2778
G01 X13.1047 Y7.2857
G01 X13.1197 Y7.3870
G01 X13.1204 Y7.3950
G01 X13.1254 Y7.5000
G01 X13.1202 Y7.6076
G01 X13.1193 Y7.6156
G01 X13.1047 Y7.7143
G01 X13.1026 Y7.7248
G01 X13.0769 Y7.8267
G01 X13.0397 Y7.9307
G01 X12.9949 Y8.0257
G01 X12.9899 Y8.0352
G01 X12.9357 Y8.1252
G01 X12.8718 Y8.2116
G01 X12.8717 Y9.8682
G01 X12.8676 Y9.9510
G01 X12.8550 Y10.0356
G01 X12.8342 Y10.1186
G01 X12.8054 Y10.1991
G01 X12.7688 Y10.2765
G01 X12.7249 Y10.3499
G01 X12.6739 Y10.4186
G01 X12.6183 Y10.4801
G01 X10.9738 Y12.1246
G01 X10.9738 Y15.4409
G01 X15.1164 Y19.5836
G01 X15.1704 Y19.6429
G01 X15.1772 Y19.6512
G01 X15.2249 Y19.7157
G01 X15.2675 Y19.7867
G01 X15.2713 Y19.7938
G01 X15.3054 Y19.8664
G01 X15.3342 Y19.9469
G01 X15.3550 Y20.0299
G01 X15.3669 Y20.1092
G01 X15.3678 Y20.1172
G01 X15.3718 Y20.2000
G01 X15.3718 Y22.0952
G01 X15.3834 Y22.1204
G01 X15.4146 Y22.2076
G01 X15.4168 Y22.2154
G01 X15.4387 Y22.3026
G01 X15.4401 Y22.3105
G01 X15.4536 Y22.4021
G01 X15.4584 Y22.5000
G01 X15.4536 Y22.5979
G01 X15.4401 Y22.6895
G01 X15.4380 Y22.7000
G01 X15.4154 Y22.7898
G01 X15.3824 Y22.8821
G01 X15.3429 Y22.9658
G01 X15.3379 Y22.9753
G01 X15.2930 Y23.0501
G01 X15.2886 Y23.0569
G01 X15.2351 Y23.1291
G01 X15.2283 Y23.1374
G01 X15.1660 Y23.2060
G01 X15.0974 Y23.2683
G01 X15.0891 Y23.2751
G01 X15.0147 Y23.3301
G01 X14.9306 Y23.3805
G01 X14.8421 Y23.4224
G01 X14.7549 Y23.4537
G01 X14.7446 Y23.4568
G01 X14.6548 Y23.4792
G01 X14.5632 Y23.4929
G01 X14.5525 Y23.4940
G01 X14.4627 Y23.4984
G01 X14.4546 Y23.4983
G01 X14.3675 Y23.4940
G01 X14.3568 Y23.4929
G01 X14.2652 Y23.4792
G01 X14.1702 Y23.4554
G01 X14.0829 Y23.4243
G01 X14.0730 Y23.4202
G01 X13.9894 Y23.3805
G01 X13.9079 Y23.3318
G01 X5.6518 Y23.3318
G01 X5.5663 Y23.3276
G01 X5.4817 Y23.3150
G01 X5.4039 Y23.2957
G01 X5.3936 Y23.2926
G01 X5.3182 Y23.2654
G01 X5.2408 Y23.2288
G01 X5.1720 Y23.1877
G01 X5.1631 Y23.1818
G01 X5.0987 Y23.1339
G01 X5.0353 Y23.0764
G01 X3.8799 Y21.9208
G00 Z5.0000
G00 X7.3004 Y20.9918
G01 F60.00
G01 Z-2.4000
G01 F120.00
G01 X7.2846 Y20.9968
G01 X7.1948 Y21.0192
G01 X7.0979 Y21.0336
G01 X7.0000 Y21.0384
G01 X6.9021 Y21.0336
G01 X6.8052 Y21.0192
G01 X6.7102 Y20.9954
G01 X6.6179 Y20.9624
G01 X6.5294 Y20.9205
G01 X6.4453 Y20.8701
G01 X6.3666 Y20.8118
G01 X6.2940 Y20.7460
G01 X6.2282 Y20.6734
G01 X6.1699 Y20.5947
G01 X6.1195 Y20.5106
G01 X6.0776 Y20.4221
G01 X6.0446 Y20.3298
G01 X6.0208 Y20.2348
G01 X6.0064 Y20.1379
G01 X6.0016 Y20.0400
G01 X6.0064 Y19.9421
G01 X6.0208 Y19.8452
G01 X6.0446 Y19.7502
G01 X6.0776 Y19.6579
G01 X6.1195 Y19.5694
G01 X6.1699 Y19.4853
G01 X6.2282 Y19.4066
G01 X6.2940 Y19.3340
G01 X6.3666 Y19.2682
G01 X6.4453 Y19.2099
G01 X6.5294 Y19.1595
G01 X6.6179 Y19.1176
G01 X6.7102 Y19.0846
G01 X6.8052 Y19.0608
G01 X6.8968 Y19.0471
G01 X6.9075 Y19.0460
G01 X7.0000 Y19.0416
G01 X7.0925 Y19.0460
G01 X7.1032 Y19.0471
G01 X7.1921 Y19.0603
G01 X7.2000 Y19.0620
G01 X7.2898 Y19.0846
G01 X7.3771 Y19.1157
G01 X7.3845 Y19.1187
G01 X7.4658 Y19.1571
G01 X7.4753 Y19.1621
G01 X7.5547 Y19.2099
G01 X7.6066 Y19.2482
G01 X11.8800 Y19.2482
G01 X11.9601 Y19.2520
G01 X11.9708 Y19.2531
G01 X12.0501 Y19.2650
G01 X12.1279 Y19.2843
G01 X12.1382 Y19.2874
G01 X12.2086 Y19.3126
G01 X12.2185 Y19.3168
G01 X12.2910 Y19.3512
G01 X12.3643 Y19.3951
G01 X12.4331 Y19.4461
G01 X12.4926 Y19.4999
G01 X12.5001 Y19.5074
G01 X12.5504 Y19.5629
G01 X12.5572 Y19.5712
G01 X12.6049 Y19.6357
G01 X12.6488 Y19.7090
G01 X12.6832 Y19.7815
G01 X12.6874 Y19.7914
G01 X12.7142 Y19.8669
G01 X12.7350 Y19.9499
G01 X12.7476 Y20.0346
G01 X12.7518 Y20.1200
G01 X12.7476 Y20.2054
G01 X12.7350 Y20.2901
G01 X12.7142 Y20.3731
G01 X12.6854 Y20.4536
G01 X12.6488 Y20.5310
G01 X12.6049 Y20.6043
G01 X12.5539 Y20.6731
G01 X12.4964 Y20.7364
G01 X12.4331 Y20.7939
G01 X12.3643 Y20.8449
G01 X12.2910 Y20.8888
G01 X12.2136 Y20.9254
G01 X12.1331 Y20.9542
G01 X12.0501 Y20.9750
G01 X11.9654 Y20.9876
G01 X11.8800 Y20.9918
G01 X7.3004 Y20.9918
G00 Z5.0000
G00 X11.0082 Y14.0080
G01 F60.00
G01 Z-2.4000
G01 F120.00
G01 X11.0082 Y12.5000
G01 X11.0120 Y12.4199
G01 X11.0131 Y12.4092
G01 X11.0250 Y12.3299
G01 X11.0458 Y12.2469
G01 X11.0746 Y12.1664
G01 X11.1087 Y12.0938
G01 X11.1125 Y12.0867
G01 X11.1551 Y12.0157
G01 X11.2061 Y11.9469
G01 X11.2636 Y11.8836
G01 X11.3269 Y11.8261
G01 X11.3957 Y11.7751
G01 X11.4690 Y11.7312
G01 X11.5464 Y11.6946
G01 X11.6269 Y11.6658
G01 X11.7099 Y11.6450
G01 X11.7946 Y11.6324
G01 X11.8800 Y11.6282
G01 X11.9654 Y11.6324
G01 X12.0501 Y11.6450
G01 X12.1331 Y11.6658
G01 X12.2136 Y11.6946
G01 X12.2862 Y11.7287
G01 X12.2956 Y11.7338
G01 X12.3643 Y11.7751
G01 X12.4331 Y11.8261
G01 X12.4964 Y11.8836
G01 X12.5504 Y11.9429
G01 X12.5572 Y11.9512
G01 X12.6018 Y12.0113
G01 X12.6077 Y12.0202
G01 X12.6488 Y12.0890
G01 X12.6832 Y12.1615
G01 X12.6874 Y12.1714
G01 X12.7142 Y12.2469
G01 X12.7339 Y12.3247
G01 X12.7359 Y12.3352
G01 X12.7476 Y12.4146
G01 X12.7517 Y12.4973
G01 X12.7518 Y13.6469
G01 X13.6916 Y14.5867
G01 X17.4585 Y14.5867
G01 X17.5386 Y14.5905
G01 X17.5493 Y14.5916
G01 X17.6286 Y14.6035
G01 X17.7064 Y14.6228
G01 X17.7167 Y14.6260
G01 X17.7871 Y14.6512
G01 X17.7970 Y14.6553
G01 X17.8695 Y14.6897
G01 X17.9429 Y14.7337
G01 X18.0116 Y14.7846
G01 X18.0730 Y14.8402
G01 X20.1164 Y16.8836
G01 X20.1704 Y16.9429
G01 X20.1772 Y16.9512
G01 X20.2249 Y17.0157
G01 X20.2688 Y17.0890
G01 X20.3054 Y17.1664
G01 X20.3326 Y17.2418
G01 X20.3357 Y17.2521
G01 X20.3550 Y17.3299
G01 X20.3669 Y17.4092
G01 X20.3680 Y17.4199
G01 X20.3716 Y17.4946
G01 X20.3718 Y19.2482
G01 X23.3746 Y19.2482
G01 X23.3746 Y18.9840
G01 X23.3754 Y18.9706
G01 X23.3779 Y18.9574
G01 X23.3801 Y18.9497
G01 X23.3829 Y18.9421
G01 X23.3863 Y18.9348
G01 X23.3902 Y18.9278
G01 X23.3946 Y18.9210
G01 X23.3994 Y18.9146
G01 X23.4048 Y18.9086
G01 X23.4105 Y18.9029
G01 X23.4167 Y18.8978
G01 X23.4232 Y18.8930
G01 X23.4301 Y18.8888
G01 X23.4372 Y18.8851
G01 X23.4446 Y18.8819
G01 X23.4522 Y18.8793
G01 X23.4600 Y18.8773
G01 X23.4679 Y18.8758
G01 X23.4760 Y18.8749
G01 X23.4840 Y18.8746
G01 X25.5160 Y18.8746
G01 X25.5240 Y18.8749
G01 X25.5321 Y18.8758
G01 X25.5426 Y18.8779
G01 X25.5503 Y18.8801
G01 X25.5579 Y18.8829
G01 X25.5652 Y18.8863
G01 X25.5722 Y18.8902
G01 X25.5790 Y18.8946
G01 X25.5895 Y18.9029
G01 X25.5971 Y18.9105
G01 X25.6054 Y18.9210
G01 X25.6125 Y18.9324
G01 X25.6171 Y18.9421
G01 X25.6214 Y18.9548
G01 X25.6242 Y18.9679
G01 X25.6254 Y18.9813
G01 X25.6254 Y21.0160
G01 X25.6249 Y21.0267
G01 X25.6227 Y21.0400
G01 X25.6190 Y21.0529
G01 X25.6149 Y21.0628
G01 X25.6084 Y21.0745
G01 X25.6039 Y21.0812
G01 X25.5988 Y21.0875
G01 X25.5895 Y21.0971
G01 X25.5833 Y21.1022
G01 X25.5768 Y21.1070
G01 X25.5699 Y21.1112
G01 X25.5628 Y21.1149
G01 X25.5554 Y21.1181
G01 X25.5478 Y21.1207
G01 X25.5400 Y21.1227
G01 X25.5321 Y21.1242
G01 X25.5187 Y21.1254
G01 X23.4813 Y21.1254
G01 X23.4679 Y21.1242
G01 X23.4574 Y21.1221
G01 X23.4471 Y21.1190
G01 X23.4348 Y21.1137
G01 X23.4255 Y21.1084
G01 X23.4146 Y21.1006
G01 X23.4066 Y21.0934
G01 X23.3978 Y21.0833
G01 X23.3916 Y21.0745
G01 X23.3863 Y21.0652
G01 X23.3819 Y21.0554
G01 X23.3779 Y21.0426
G01 X23.3758 Y21.0321
G01 X23.3749 Y21.0240
G01 X23.3746 Y20.9918
G01 X23.1214 Y20.9918
G01 X23.1213 Y21.5258
G01 X23.1172 Y21.6086
G01 X23.1051 Y21.6906
G01 X23.1034 Y21.6985
G01 X23.0838 Y21.7762
G01 X23.0569 Y21.8518
G01 X23.0528 Y21.8617
G01 X23.0208 Y21.9293
G01 X23.0158 Y21.9388
G01 X22.9744 Y22.0075
G01 X22.9354 Y22.0604
G01 X22.9624 Y22.1179
G01 X22.9946 Y22.2076
G01 X22.9968 Y22.2154
G01 X23.0180 Y22.3000
G01 X23.0197 Y22.3079
G01 X23.0336 Y22.4021
G01 X23.0383 Y22.4946
G01 X23.0383 Y22.5054
G01 X23.0340 Y22.5925
G01 X23.0333 Y22.6005
G01 X23.0192 Y22.6948
G01 X22.9968 Y22.7846
G01 X22.9937 Y22.7949
G01 X22.9624 Y22.8821
G01 X22.9229 Y22.9658
G01 X22.9179 Y22.9753
G01 X22.8716 Y23.0524
G01 X22.8670 Y23.0591
G01 X22.8118 Y23.1334
G01 X22.7460 Y23.2060
G01 X22.6734 Y23.2718
G01 X22.5991 Y23.3270
G01 X22.5901 Y23.3330
G01 X22.5106 Y23.3805
G01 X22.4270 Y23.4202
G01 X22.4171 Y23.4243
G01 X22.3349 Y23.4537
G01 X22.3246 Y23.4568
G01 X22.2348 Y23.4792
G01 X22.1379 Y23.4936
G01 X22.0400 Y23.4984
G01 X21.9421 Y23.4936
G01 X21.8452 Y23.4792
G01 X21.7502 Y23.4554
G01 X21.6579 Y23.4224
G01 X21.5742 Y23.3829
G01 X21.5647 Y23.3779
G01 X21.4853 Y23.3301
G01 X21.4109 Y23.2751
G01 X21.4026 Y23.2683
G01 X21.3340 Y23.2060
G01 X21.2717 Y23.1374
G01 X21.2649 Y23.1291
G01 X21.2099 Y23.0547
G01 X21.1621 Y22.9753
G01 X21.1571 Y22.9658
G01 X21.1176 Y22.8821
G01 X21.0863 Y22.7949
G01 X21.0832 Y22.7846
G01 X21.0608 Y22.6948
G01 X21.0471 Y22.6032
G01 X21.0462 Y22.5952
G01 X21.0416 Y22.5000
G01 X21.0460 Y22.4075
G01 X21.0471 Y22.3968
G01 X21.0608 Y22.3052
G01 X21.0846 Y22.2102
G01 X21.1157 Y22.1229
G01 X21.1198 Y22.1130
G01 X21.1571 Y22.0342
G01 X21.1608 Y22.0270
G01 X21.1682 Y22.0145
G01 X21.1684 Y21.7274
G01 X21.1724 Y21.6473
G01 X21.1850 Y21.5627
G01 X21.2043 Y21.4849
G01 X21.2074 Y21.4746
G01 X21.2346 Y21.3991
G01 X21.2687 Y21.3266
G01 X21.2738 Y21.3171
G01 X21.3151 Y21.2484
G01 X21.3644 Y21.1818
G01 X21.3778 Y21.1666
G01 X21.3778 Y20.9918
G01 X19.5000 Y20.9918
G01 X19.4146 Y20.9876
G01 X19.3299 Y20.9750
G01 X19.2469 Y20.9542
G01 X19.1664 Y20.9254
G01 X19.0938 Y20.8913
G01 X19.0844 Y20.8862
G01 X19.0157 Y20.8449
G01 X18.9512 Y20.7972
G01 X18.9429 Y20.7904
G01 X18.8874 Y20.7401
G01 X18.8799 Y20.7326
G01 X18.8261 Y20.6731
G01 X18.7751 Y20.6043
G01 X18.7312 Y20.5310
G01 X18.6968 Y20.4585
G01 X18.6926 Y20.4486
G01 X18.6674 Y20.3782
G01 X18.6643 Y20.3679
G01 X18.6450 Y20.2901
G01 X18.6324 Y20.2054
G01 X18.6282 Y20.1200
G01 X18.6282 Y17.8611
G01 X17.0974 Y16.3303
G01 X13.3278 Y16.3303
G01 X13.2450 Y16.3261
G01 X13.1604 Y16.3136
G01 X13.0774 Y16.2928
G01 X12.9994 Y16.2649
G01 X12.9920 Y16.2618
G01 X12.9195 Y16.2274
G01 X12.8462 Y16.1834
G01 X12.7774 Y16.1324
G01 X12.7160 Y16.0768
G01 X11.2636 Y14.6245
G01 X11.2078 Y14.5631
G01 X11.2028 Y14.5568
G01 X11.1551 Y14.4924
G01 X11.1138 Y14.4237
G01 X11.1087 Y14.4142
G01 X11.0768 Y14.3466
G01 X11.0726 Y14.3366
G01 X11.0458 Y14.2611
G01 X11.0250 Y14.1781
G01 X11.0124 Y14.0935
G01 X11.0082 Y14.0080
G00 Z5.0000
G00 X13.5482 Y8.3127
G01 F60.00
G01 Z-2.4000
G01 F120.00
G01 X13.5302 Y8.2924
G01 X13.4602 Y8.1980
G01 X13.4558 Y8.1913
G01 X13.3955 Y8.0904
G01 X13.3429 Y7.9793
G01 X13.3015 Y7.8636
G01 X13.2717 Y7.7443
G01 X13.2536 Y7.6228
G01 X13.2476 Y7.5000
G01 X13.2536 Y7.3772
G01 X13.2717 Y7.2557
G01 X13.3015 Y7.1364
G01 X13.3429 Y7.0207
G01 X13.3955 Y6.9096
G01 X13.4587 Y6.8042
G01 X13.5319 Y6.7055
G01 X13.6144 Y6.6144
G01 X13.7055 Y6.5319
G01 X13.8042 Y6.4587
G01 X13.9096 Y6.3955
G01 X14.0207 Y6.3429
G01 X14.1364 Y6.3015
G01 X14.2557 Y6.2717
G01 X14.3772 Y6.2536
G01 X14.5000 Y6.2476
G01 X14.6228 Y6.2536
G01 X14.7443 Y6.2717
G01 X14.8636 Y6.3015
G01 X14.9793 Y6.3429
G01 X15.0904 Y6.3955
G01 X15.1958 Y6.4587
G01 X15.2945 Y6.5319
G01 X15.3856 Y6.6144
G01 X15.4681 Y6.7055
G01 X15.5413 Y6.8042
G01 X15.6045 Y6.9096
G01 X15.6571 Y7.0207
G01 X15.6968 Y7.1313
G01 X15.6999 Y7.1416
G01 X15.7272 Y7.2504
G01 X15.7293 Y7.2610
G01 X15.7464 Y7.3772
G01 X15.7523 Y7.4946
G01 X15.7524 Y7.5027
G01 X15.7464 Y7.6228
G01 X15.7293 Y7.7390
G01 X15.7272 Y7.7496
G01 X15.6985 Y7.8636
G01 X15.6590 Y7.9743
G01 X15.6549 Y7.9842
G01 X15.6069 Y8.0856
G01 X15.6019 Y8.0950
G01 X15.5413 Y8.1958
G01 X15.4681 Y8.2945
G01 X15.3856 Y8.3856
G01 X15.2986 Y8.4646
G01 X15.2918 Y8.4703
G01 X15.2918 Y12.5000
G01 X15.2880 Y12.5801
G01 X15.2873 Y12.5881
G01 X15.2750 Y12.6701
G01 X15.2557 Y12.7479
G01 X15.2526 Y12.7582
G01 X15.2274 Y12.8286
G01 X15.2232 Y12.8385
G01 X15.1888 Y12.9110
G01 X15.1449 Y12.9843
G01 X15.0939 Y13.0531
G01 X15.0401 Y13.1126
G01 X15.0326 Y13.1201
G01 X14.9771 Y13.1704
G01 X14.9688 Y13.1772
G01 X14.9043 Y13.2249
G01 X14.8310 Y13.2688
G01 X14.7585 Y13.3032
G01 X14.7486 Y13.3074
G01 X14.6731 Y13.3342
G01 X14.5901 Y13.3550
G01 X14.5054 Y13.3676
G01 X14.4200 Y13.3718
G01 X14.3346 Y13.3676
G01 X14.2499 Y13.3550
G01 X14.1669 Y13.3342
G01 X14.0864 Y13.3054
G01 X14.0090 Y13.2688
G01 X13.9357 Y13.2249
G01 X13.8669 Y13.1739
G01 X13.8036 Y13.1164
G01 X13.7461 Y13.0531
G01 X13.6951 Y12.9843
G01 X13.6512 Y12.9110
G01 X13.6146 Y12.8336
G01 X13.5858 Y12.7531
G01 X13.5650 Y12.6701
G01 X13.5524 Y12.5854
G01 X13.5482 Y12.5000
G01 X13.5482 Y8.3127
G00 Z5.0000
G00 X23.4840 Y11.2546
G01 F60.00
G01 Z-2.4000
G01 F120.00
G01 X23.7882 Y11.2546
G01 X23.7882 Y8.3983
G01 X23.7763 Y8.3875
G01 X23.7707 Y8.3817
G01 X23.6919 Y8.2945
G01 X23.6218 Y8.2002
G01 X23.6158 Y8.1913
G01 X23.5555 Y8.0904
G01 X23.5051 Y7.9842
G01 X23.5010 Y7.9743
G01 X23.4632 Y7.8687
G01 X23.4601 Y7.8584
G01 X23.4317 Y7.7443
G01 X23.4143 Y7.6281
G01 X23.4132 Y7.6174
G01 X23.4076 Y7.5000
G01 X23.4136 Y7.3772
G01 X23.4307 Y7.2610
G01 X23.4328 Y7.2504
G01 X23.4615 Y7.1364
G01 X23.5029 Y7.0207
G01 X23.5555 Y6.9096
G01 X23.6187 Y6.8042
G01 X23.6919 Y6.7055
G01 X23.7744 Y6.6144
G01 X23.8655 Y6.5319
G01 X23.9642 Y6.4587
G01 X24.0696 Y6.3955
G01 X24.1807 Y6.3429
G01 X24.2964 Y6.3015
G01 X24.4157 Y6.2717
G01 X24.5372 Y6.2536
G01 X24.6600 Y6.2476
G01 X24.7828 Y6.2536
G01 X24.9043 Y6.2717
G01 X25.0236 Y6.3015
G01 X25.1393 Y6.3429
G01 X25.2456 Y6.3931
G01 X25.2550 Y6.3981
G01 X25.3558 Y6.4587
G01 X25.4545 Y6.5319
G01 X25.5417 Y6.6107
G01 X25.5493 Y6.6183
G01 X25.6281 Y6.7055
G01 X25.7013 Y6.8042
G01 X25.7619 Y6.9050
G01 X25.7669 Y6.9144
G01 X25.8171 Y7.0207
G01 X25.8585 Y7.1364
G01 X25.8872 Y7.2504
G01 X25.8893 Y7.2610
G01 X25.9057 Y7.3719
G01 X25.9066 Y7.3799
G01 X25.9124 Y7.5000
G01 X25.9068 Y7.6174
G01 X25.9057 Y7.6281
G01 X25.8893 Y7.7390
G01 X25.8872 Y7.7496
G01 X25.8585 Y7.8636
G01 X25.8190 Y7.9743
G01 X25.8149 Y7.9842
G01 X25.7645 Y8.0904
G01 X25.7013 Y8.1958
G01 X25.6281 Y8.2945
G01 X25.5493 Y8.3817
G01 X25.5437 Y8.3875
G01 X25.5318 Y8.3983
G01 X25.5318 Y11.2557
G01 X25.5400 Y11.2573
G01 X25.5503 Y11.2601
G01 X25.5579 Y11.2629
G01 X25.5676 Y11.2675
G01 X25.5745 Y11.2716
G01 X25.5833 Y11.2778
G01 X25.5914 Y11.2848
G01 X25.5988 Y11.2925
G01 X25.6039 Y11.2988
G01 X25.6098 Y11.3078
G01 X25.6149 Y11.3172
G01 X25.6190 Y11.3271
G01 X25.6221 Y11.3374
G01 X25.6238 Y11.3453
G01 X25.6249 Y11.3533
G01 X25.6254 Y11.3640
G01 X25.6254 Y13.3987
G01 X25.6246 Y13.4094
G01 X25.6227 Y13.4200
G01 X25.6199 Y13.4303
G01 X25.6160 Y13.4403
G01 X25.6112 Y13.4499
G01 X25.6054 Y13.4590
G01 X25.5988 Y13.4675
G01 X25.5914 Y13.4752
G01 X25.5833 Y13.4822
G01 X25.5768 Y13.4870
G01 X25.5676 Y13.4925
G01 X25.5579 Y13.4971
G01 X25.5478 Y13.5007
G01 X25.5373 Y13.5033
G01 X25.5267 Y13.5049
G01 X25.5187 Y13.5054
G01 X23.4840 Y13.5054
G01 X23.4733 Y13.5049
G01 X23.4627 Y13.5033
G01 X23.4522 Y13.5007
G01 X23.4397 Y13.4960
G01 X23.4301 Y13.4912
G01 X23.4210 Y13.4854
G01 X23.4125 Y13.4788
G01 X23.4048 Y13.4714
G01 X23.3978 Y13.4633
G01 X23.3930 Y13.4568
G01 X23.3875 Y13.4476
G01 X23.3829 Y13.4379
G01 X23.3793 Y13.4278
G01 X23.3767 Y13.4173
G01 X23.3754 Y13.4094
G01 X23.3746 Y13.3987
G01 X23.3746 Y11.3613
G01 X23.3751 Y11.3533
G01 X23.3767 Y11.3427
G01 X23.3793 Y11.3322
G01 X23.3829 Y11.3221
G01 X23.3875 Y11.3124
G01 X23.3930 Y11.3032
G01 X23.3994 Y11.2946
G01 X23.4066 Y11.2866
G01 X23.4146 Y11.2794
G01 X23.4232 Y11.2730
G01 X23.4324 Y11.2675
G01 X23.4421 Y11.2629
G01 X23.4522 Y11.2593
G01 X23.4627 Y11.2567
G01 X23.4733 Y11.2551
G01 X23.4840 Y11.2546
G00 Z5.0000
G00 X16.0882 Y22.0952
G01 F60.00
G01 Z-2.4000
G01 F120.00
G01 X16.0883 Y20.1173
G01 X16.0924 Y20.0346
G01 X16.1041 Y19.9552
G01 X16.1061 Y19.9447
G01 X16.1243 Y19.8721
G01 X16.1266 Y19.8644
G01 X16.1546 Y19.7864
G01 X16.1912 Y19.7090
G01 X16.2351 Y19.6357
G01 X16.2828 Y19.5712
G01 X16.2896 Y19.5629
G01 X16.3399 Y19.5074
G01 X16.3474 Y19.4999
G01 X16.4069 Y19.4461
G01 X16.4757 Y19.3951
G01 X16.5490 Y19.3512
G01 X16.6264 Y19.3146
G01 X16.7069 Y19.2858
G01 X16.7847 Y19.2661
G01 X16.7952 Y19.2641
G01 X16.8692 Y19.2531
G01 X16.8799 Y19.2520
G01 X16.9600 Y19.2482
G01 X17.0401 Y19.2520
G01 X17.0481 Y19.2527
G01 X17.1301 Y19.2650
G01 X17.2079 Y19.2843
G01 X17.2182 Y19.2874
G01 X17.2936 Y19.3146
G01 X17.3710 Y19.3512
G01 X17.4398 Y19.3923
G01 X17.4487 Y19.3982
G01 X17.5131 Y19.4461
G01 X17.5764 Y19.5036
G01 X17.6304 Y19.5629
G01 X17.6372 Y19.5712
G01 X17.6849 Y19.6357
G01 X17.7262 Y19.7044
G01 X17.7313 Y19.7138
G01 X17.7654 Y19.7864
G01 X17.7934 Y19.8644
G01 X17.7957 Y19.8721
G01 X17.8139 Y19.9447
G01 X17.8159 Y19.9552
G01 X17.8276 Y20.0346
G01 X17.8317 Y20.1173
G01 X17.8318 Y21.6282
G01 X19.0145 Y21.6282
G01 X19.0317 Y21.6183
G01 X19.1179 Y21.5776
G01 X19.2051 Y21.5463
G01 X19.2154 Y21.5432
G01 X19.3052 Y21.5208
G01 X19.3968 Y21.5071
G01 X19.4075 Y21.5060
G01 X19.4973 Y21.5016
G01 X19.5054 Y21.5017
G01 X19.5979 Y21.5064
G01 X19.6948 Y21.5208
G01 X19.7898 Y21.5446
G01 X19.8771 Y21.5757
G01 X19.8870 Y21.5798
G01 X19.9658 Y21.6171
G01 X19.9753 Y21.6221
G01 X20.0547 Y21.6699
G01 X20.1334 Y21.7282
G01 X20.2060 Y21.7940
G01 X20.2683 Y21.8626
G01 X20.2751 Y21.8709
G01 X20.3270 Y21.9409
G01 X20.3330 Y21.9499
G01 X20.3805 Y22.0294
G01 X20.4224 Y22.1179
G01 X20.4554 Y22.2102
G01 X20.4780 Y22.3000
G01 X20.4801 Y22.3105
G01 X20.4929 Y22.3968
G01 X20.4940 Y22.4075
G01 X20.4984 Y22.5000
G01 X20.4940 Y22.5925
G01 X20.4933 Y22.6005
G01 X20.4792 Y22.6948
G01 X20.4568 Y22.7846
G01 X20.4537 Y22.7949
G01 X20.4224 Y22.8821
G01 X20.3805 Y22.9706
G01 X20.3330 Y23.0501
G01 X20.3270 Y23.0591
G01 X20.2751 Y23.1291
G01 X20.2683 Y23.1374
G01 X20.2060 Y23.2060
G01 X20.1374 Y23.2683
G01 X20.1291 Y23.2751
G01 X20.0591 Y23.3270
G01 X20.0501 Y23.3330
G01 X19.9706 Y23.3805
G01 X19.8821 Y23.4224
G01 X19.7898 Y23.4554
G01 X19.7000 Y23.4780
G01 X19.6895 Y23.4801
G01 X19.5979 Y23.4936
G01 X19.5000 Y23.4984
G01 X19.4021 Y23.4936
G01 X19.3105 Y23.4801
G01 X19.3000 Y23.4780
G01 X19.2102 Y23.4554
G01 X19.1229 Y23.4243
G01 X19.1130 Y23.4202
G01 X19.0342 Y23.3829
G01 X19.0270 Y23.3792
G01 X19.0145 Y23.3718
G01 X17.4855 Y23.3718
G01 X17.4730 Y23.3792
G01 X17.4658 Y23.3829
G01 X17.3870 Y23.4202
G01 X17.3771 Y23.4243
G01 X17.2898 Y23.4554
G01 X17.1948 Y23.4792
G01 X17.0979 Y23.4936
G01 X17.0054 Y23.4983
G01 X16.9946 Y23.4983
G01 X16.9075 Y23.4940
G01 X16.8995 Y23.4933
G01 X16.8105 Y23.4801
G01 X16.8000 Y23.4780
G01 X16.7102 Y23.4554
G01 X16.6229 Y23.4243
G01 X16.6130 Y23.4202
G01 X16.5294 Y23.3805
G01 X16.4453 Y23.3301
G01 X16.3666 Y23.2718
G01 X16.2979 Y23.2097
G01 X16.2903 Y23.2021
G01 X16.2282 Y23.1334
G01 X16.1730 Y23.0591
G01 X16.1670 Y23.0501
G01 X16.1208 Y22.9730
G01 X16.1171 Y22.9658
G01 X16.0776 Y22.8821
G01 X16.0463 Y22.7949
G01 X16.0432 Y22.7846
G01 X16.0220 Y22.7000
G01 X16.0199 Y22.6895
G01 X16.0064 Y22.5979
G01 X16.0017 Y22.5054
G01 X16.0017 Y22.4946
G01 X16.0064 Y22.4021
G01 X16.0208 Y22.3052
G01 X16.0432 Y22.2154
G01 X16.0454 Y22.2076
G01 X16.0766 Y22.1204
G01 X16.0882 Y22.0952
G00 Z5.0000
M05
G00 Z5.0000
G00 Z15.00
G00 X0.0 Y0.0


