(G-CODE GENERATED BY FLATCAM v8.994 - www.flatcam.org - Version Date: 2020/11/7)
(Name: Watchdog - CADCAM Drill TOP-BOT Plated.GBR_conv_cnc)
(Type: G-code from Geometry)
(Units: MM)
(Created on Tuesday, 29 July 2025 at 23:53)
(This preprocessor is the default preprocessor used by FlatCAM.)
(It is made to work with MACH3 compatible motion controllers.)
(TOOLS DIAMETER: )
(Tool: 1 -> Dia: 0.7620000000000005)
(Tool: 2 -> Dia: 1.0159999999999911)
(Tool: 3 -> Dia: 0.6349999999999909)
(FEEDRATE Z: )
(Tool: 1 -> Feedrate: 300)
(Tool: 2 -> Feedrate: 300)
(Tool: 3 -> Feedrate: 300)
(FEEDRATE RAPIDS: )
(Tool: 1 -> Feedrate Rapids: 1500)
(Tool: 2 -> Feedrate Rapids: 1500)
(Tool: 3 -> Feedrate Rapids: 1500)
(Z_CUT: )
(Tool: 1 -> Z_Cut: -2.4)
(Tool: 2 -> Z_Cut: -2.4)
(Tool: 3 -> Z_Cut: -2.4)
(Tools Offset: )
(Tool: 1 -> Offset Z: 0.0)
(Tool: 2 -> Offset Z: 0.0)
(Tool: 3 -> Offset Z: 0.0)
(Z_MOVE: )
(Tool: 1 -> Z_Move: 5.0)
(Tool: 2 -> Z_Move: 5.0)
(Tool: 3 -> Z_Move: 5.0)
(Z Toolchange: 15.0 mm)
(X,Y Toolchange: 0.0000, 0.0000 mm)
(Z Start: None mm)
(Z End: 0.5 mm)
(X,Y End: 0.0000, 0.0000 mm)
(Steps per circle: 64)
(Preprocessor Excellon: default)
(X range:    1.6190 ...   25.1680  mm)
(Y range:    4.6190 ...   22.8810  mm)
(Spindle Speed: 13000 RPM)
G21
G90
G94
G01 F300.00
M5
G00 Z15.0000
T1
G00 X0.0000 Y0.0000
M6
(MSG, Change to Tool Dia = 0.7620 ||| Total drills for tool T1 = 31)
M0
G00 Z15.0000
G01 F300.00
M03 S13000
G00 X12.0000 Y7.5000
G01 Z-2.2000
G01 Z0
G00 Z5.0000
G00 X14.5000 Y7.5000
G01 Z-2.2000
G01 Z0
G00 Z5.0000
G00 X11.8800 Y12.5000
G01 Z-2.2000
G01 Z0
G00 Z5.0000
G00 X14.4200 Y12.5000
G01 Z-2.2000
G01 Z0
G00 Z5.0000
G00 X16.9600 Y12.5000
G01 Z-2.2000
G01 Z0
G00 Z5.0000
G00 X19.5000 Y12.5000
G01 Z-2.2000
G01 Z0
G00 Z5.0000
G00 X24.6600 Y7.5000
G01 Z-2.2000
G01 Z0
G00 Z5.0000
G00 X24.5000 Y12.3800
G01 Z-2.2000
G01 Z0
G00 Z5.0000
G00 X24.5000 Y14.9200
G01 Z-2.2000
G01 Z0
G00 Z5.0000
G00 X24.5000 Y17.4600
G01 Z-2.2000
G01 Z0
G00 Z5.0000
G00 X24.5000 Y20.0000
G01 Z-2.2000
G01 Z0
G00 Z5.0000
G00 X22.0400 Y22.5000
G01 Z-2.2000
G01 Z0
G00 Z5.0000
G00 X19.5000 Y22.5000
G01 Z-2.2000
G01 Z0
G00 Z5.0000
G00 X19.5000 Y20.1200
G01 Z-2.2000
G01 Z0
G00 Z5.0000
G00 X16.9600 Y20.1200
G01 Z-2.2000
G01 Z0
G00 Z5.0000
G00 X17.0000 Y22.5000
G01 Z-2.2000
G01 Z0
G00 Z5.0000
G00 X14.4600 Y22.5000
G01 Z-2.2000
G01 Z0
G00 Z5.0000
G00 X14.4200 Y20.1200
G01 Z-2.2000
G01 Z0
G00 Z5.0000
G00 X11.8800 Y20.1200
G01 Z-2.2000
G01 Z0
G00 Z5.0000
G00 X7.0000 Y20.0400
G01 Z-2.2000
G01 Z0
G00 Z5.0000
G00 X4.5000 Y21.2700
G01 Z-2.2000
G01 Z0
G00 Z5.0000
G00 X3.2300 Y20.0000
G01 Z-2.2000
G01 Z0
G00 Z5.0000
G00 X4.5000 Y18.7300
G01 Z-2.2000
G01 Z0
G00 Z5.0000
G00 X7.0000 Y17.5000
G01 Z-2.2000
G01 Z0
G00 Z5.0000
G00 X2.0000 Y15.0000
G01 Z-2.2000
G01 Z0
G00 Z5.0000
G00 X2.0000 Y12.4600
G01 Z-2.2000
G01 Z0
G00 Z5.0000
G00 X4.6600 Y12.5000
G01 Z-2.2000
G01 Z0
G00 Z5.0000
G00 X7.2000 Y12.5000
G01 Z-2.2000
G01 Z0
G00 Z5.0000
G00 X4.5000 Y7.5400
G01 Z-2.2000
G01 Z0
G00 Z5.0000
G00 X4.5000 Y5.0000
G01 Z-2.2000
G01 Z0
G00 Z5.0000
G00 X9.4600 Y7.5000
G01 Z-2.2000
G01 Z0
G00 Z5.0000
M05
G00 Z0.50
G00 X0.0 Y0.0
