(G-CODE GENERATED BY FLATCAM v8.993 - www.flatcam.org - Version Date: 2020/06/05)

(Name: Pv-66 - taladro 0.8)
(Type: G-code from Excellon)
(Units: MM)

(Created on Friday, 11 August 2023 at 21:33)

(This preprocessor is the default preprocessor used by FlatCAM.)
(It is made to work with MACH3 compatible motion controllers.)


(TOOLS DIAMETER: )
(Tool: 1 -> Dia: 0.381)
(Tool: 2 -> Dia: 1.11)
(Tool: 3 -> Dia: 1.778)
(Tool: 4 -> Dia: 0.762)
(Tool: 5 -> Dia: 1.016)
(Tool: 6 -> Dia: 0.635)
(Tool: 7 -> Dia: 1.3)
(Tool: 8 -> Dia: 1.524)

(FEEDRATE Z: )
(Tool: 1 -> Feedrate: 200.0)
(Tool: 2 -> Feedrate: 200.0)
(Tool: 3 -> Feedrate: 200.0)
(Tool: 4 -> Feedrate: 200.0)
(Tool: 5 -> Feedrate: 200.0)
(Tool: 6 -> Feedrate: 200.0)
(Tool: 7 -> Feedrate: 200.0)
(Tool: 8 -> Feedrate: 200.0)

(FEEDRATE RAPIDS: )
(Tool: 1 -> Feedrate Rapids: 1500)
(Tool: 2 -> Feedrate Rapids: 1500)
(Tool: 3 -> Feedrate Rapids: 1500)
(Tool: 4 -> Feedrate Rapids: 1500)
(Tool: 5 -> Feedrate Rapids: 1500)
(Tool: 6 -> Feedrate Rapids: 1500)
(Tool: 7 -> Feedrate Rapids: 1500)
(Tool: 8 -> Feedrate Rapids: 1500)

(Z_CUT: )
(Tool: 1 -> Z_Cut: -2.0)
(Tool: 2 -> Z_Cut: -2.0)
(Tool: 3 -> Z_Cut: -2.0)
(Tool: 4 -> Z_Cut: -2.0)
(Tool: 5 -> Z_Cut: -2.0)
(Tool: 6 -> Z_Cut: -2.0)
(Tool: 7 -> Z_Cut: -2.0)
(Tool: 8 -> Z_Cut: -2.0)

(Tools Offset: )
(Tool: 1 -> Offset Z: -0.0)
(Tool: 6 -> Offset Z: -0.0)
(Tool: 4 -> Offset Z: -0.0)
(Tool: 5 -> Offset Z: -0.0)
(Tool: 2 -> Offset Z: -0.0)
(Tool: 7 -> Offset Z: -0.0)
(Tool: 8 -> Offset Z: -0.0)
(Tool: 3 -> Offset Z: -0.0)

(Z_MOVE: )
(Tool: 1 -> Z_Move: 3.0)
(Tool: 2 -> Z_Move: 3.0)
(Tool: 3 -> Z_Move: 3.0)
(Tool: 4 -> Z_Move: 3.0)
(Tool: 5 -> Z_Move: 3.0)
(Tool: 6 -> Z_Move: 3.0)
(Tool: 7 -> Z_Move: 3.0)
(Tool: 8 -> Z_Move: 3.0)

(Z Start: None mm)
(Z End: 2.0 mm)
(Steps per circle: 64)
(Preprocessor Excellon: default)

(X range:  -92.9680 ...   35.6680  mm)
(Y range:  -60.9515 ...   30.8825  mm)

(Spindle Speed: 10000.0 RPM)
G21
G90
G94



G00 Z3.0000

G01 F200.00
M03 S10000
G00 X25.0000 Y-30.0000
G01 Z-2.0000
G01 Z0
G00 Z3.0000
G00 X25.0000 Y-22.5000
G01 Z-2.0000
G01 Z0
G00 Z3.0000
G00 X-22.0520 Y30.6920
G01 Z-2.0000
G01 Z0
G00 Z3.0000
G00 X-21.6990 Y24.9300
G01 Z-2.0000
G01 Z0
G00 Z3.0000
G00 X-20.4930 Y-54.7800
G01 Z-2.0000
G01 Z0
G00 Z3.0000
G00 X-20.0710 Y-60.7610
G01 Z-2.0000
G01 Z0
G00 Z3.0000
G01 F200.00
M03 S10000
G00 X17.5400 Y-22.5000
G01 Z-2.0000
G01 Z0
G00 Z3.0000
G00 X20.0800 Y-22.5000
G01 Z-2.0000
G01 Z0
G00 Z3.0000
G00 X18.8100 Y-21.2300
G01 Z-2.0000
G01 Z0
G00 Z3.0000
G00 X-41.1500 Y20.0000
G01 Z-2.0000
G01 Z0
G00 Z3.0000
G00 X-43.6900 Y20.0000
G01 Z-2.0000
G01 Z0
G00 Z3.0000
G00 X-42.4200 Y18.7300
G01 Z-2.0000
G01 Z0
G00 Z3.0000
G00 X-41.1500 Y2.5000
G01 Z-2.0000
G01 Z0
G00 Z3.0000
G00 X-43.6900 Y2.5000
G01 Z-2.0000
G01 Z0
G00 Z3.0000
G00 X-42.4200 Y1.2300
G01 Z-2.0000
G01 Z0
G00 Z3.0000
G00 X-43.6900 Y-15.0000
G01 Z-2.0000
G01 Z0
G00 Z3.0000
G00 X-42.4200 Y-16.2700
G01 Z-2.0000
G01 Z0
G00 Z3.0000
G00 X-41.1500 Y-15.0000
G01 Z-2.0000
G01 Z0
G00 Z3.0000
G00 X-43.6900 Y-32.5000
G01 Z-2.0000
G01 Z0
G00 Z3.0000
G00 X-41.1500 Y-32.5000
G01 Z-2.0000
G01 Z0
G00 Z3.0000
G00 X-42.4200 Y-33.7700
G01 Z-2.0000
G01 Z0
G00 Z3.0000
G00 X-43.6900 Y-47.5000
G01 Z-2.0000
G01 Z0
G00 Z3.0000
G00 X-42.4200 Y-48.7700
G01 Z-2.0000
G01 Z0
G00 Z3.0000
G00 X-41.1500 Y-47.5000
G01 Z-2.0000
G01 Z0
G00 Z3.0000
G01 F200.00
M03 S10000
G00 X10.0800 Y-45.0000
G01 Z-2.0000
G01 Z0
G00 Z3.0000
G00 X7.5400 Y-45.0000
G01 Z-2.0000
G01 Z0
G00 Z3.0000
G00 X2.5000 Y-47.5000
G01 Z-2.0000
G01 Z0
G00 Z3.0000
G00 X2.5000 Y-45.0000
G01 Z-2.0000
G01 Z0
G00 Z3.0000
G00 X-0.0400 Y-45.0000
G01 Z-2.0000
G01 Z0
G00 Z3.0000
G00 X-5.0000 Y-32.5000
G01 Z-2.0000
G01 Z0
G00 Z3.0000
G00 X-1.2100 Y-33.7900
G01 Z-2.0000
G01 Z0
G00 Z3.0000
G00 X-0.0400 Y-37.3800
G01 Z-2.0000
G01 Z0
G00 Z3.0000
G00 X2.5000 Y-37.3800
G01 Z-2.0000
G01 Z0
G00 Z3.0000
G00 X5.1600 Y-32.5000
G01 Z-2.0000
G01 Z0
G00 Z3.0000
G00 X7.5400 Y-37.3800
G01 Z-2.0000
G01 Z0
G00 Z3.0000
G00 X10.0800 Y-37.3800
G01 Z-2.0000
G01 Z0
G00 Z3.0000
G00 X8.9500 Y-33.7900
G01 Z-2.0000
G01 Z0
G00 Z3.0000
G00 X25.1600 Y-17.5800
G01 Z-2.0000
G01 Z0
G00 Z3.0000
G00 X25.2400 Y-15.0000
G01 Z-2.0000
G01 Z0
G00 Z3.0000
G00 X25.0800 Y-12.5400
G01 Z-2.0000
G01 Z0
G00 Z3.0000
G00 X25.0800 Y-10.0000
G01 Z-2.0000
G01 Z0
G00 Z3.0000
G00 X15.0000 Y-17.5800
G01 Z-2.0000
G01 Z0
G00 Z3.0000
G00 X15.0800 Y-15.0000
G01 Z-2.0000
G01 Z0
G00 Z3.0000
G00 X-27.5800 Y12.5000
G01 Z-2.0000
G01 Z0
G00 Z3.0000
G00 X-35.0000 Y15.0000
G01 Z-2.0000
G01 Z0
G00 Z3.0000
G00 X-35.0000 Y17.6600
G01 Z-2.0000
G01 Z0
G00 Z3.0000
G00 X-32.4600 Y17.6600
G01 Z-2.0000
G01 Z0
G00 Z3.0000
G00 X-32.4600 Y25.2800
G01 Z-2.0000
G01 Z0
G00 Z3.0000
G00 X-35.0000 Y25.2800
G01 Z-2.0000
G01 Z0
G00 Z3.0000
G00 X-45.1600 Y15.0000
G01 Z-2.0000
G01 Z0
G00 Z3.0000
G00 X-37.7400 Y12.5000
G01 Z-2.0000
G01 Z0
G00 Z3.0000
G00 X-32.4600 Y7.7000
G01 Z-2.0000
G01 Z0
G00 Z3.0000
G00 X-35.0000 Y7.7000
G01 Z-2.0000
G01 Z0
G00 Z3.0000
G00 X-42.5800 Y-2.5000
G01 Z-2.0000
G01 Z0
G00 Z3.0000
G00 X-37.7400 Y-5.0000
G01 Z-2.0000
G01 Z0
G00 Z3.0000
G00 X-35.0000 Y0.0800
G01 Z-2.0000
G01 Z0
G00 Z3.0000
G00 X-32.4600 Y0.0800
G01 Z-2.0000
G01 Z0
G00 Z3.0000
G00 X-32.4200 Y-2.5000
G01 Z-2.0000
G01 Z0
G00 Z3.0000
G00 X-27.5800 Y-5.0000
G01 Z-2.0000
G01 Z0
G00 Z3.0000
G00 X-32.4200 Y-9.6000
G01 Z-2.0000
G01 Z0
G00 Z3.0000
G00 X-34.9600 Y-9.6000
G01 Z-2.0000
G01 Z0
G00 Z3.0000
G00 X-42.5800 Y-20.0000
G01 Z-2.0000
G01 Z0
G00 Z3.0000
G00 X-37.5800 Y-22.5000
G01 Z-2.0000
G01 Z0
G00 Z3.0000
G00 X-34.9600 Y-17.2200
G01 Z-2.0000
G01 Z0
G00 Z3.0000
G00 X-32.4200 Y-17.2200
G01 Z-2.0000
G01 Z0
G00 Z3.0000
G00 X-32.4200 Y-20.0000
G01 Z-2.0000
G01 Z0
G00 Z3.0000
G00 X-27.4200 Y-22.5000
G01 Z-2.0000
G01 Z0
G00 Z3.0000
G00 X-32.4600 Y-27.3000
G01 Z-2.0000
G01 Z0
G00 Z3.0000
G00 X-35.0000 Y-27.3000
G01 Z-2.0000
G01 Z0
G00 Z3.0000
G00 X-42.4200 Y-37.5000
G01 Z-2.0000
G01 Z0
G00 Z3.0000
G00 X-37.5800 Y-40.0000
G01 Z-2.0000
G01 Z0
G00 Z3.0000
G00 X-35.0000 Y-34.9200
G01 Z-2.0000
G01 Z0
G00 Z3.0000
G00 X-32.4600 Y-34.9200
G01 Z-2.0000
G01 Z0
G00 Z3.0000
G00 X-32.2600 Y-37.5000
G01 Z-2.0000
G01 Z0
G00 Z3.0000
G00 X-27.4200 Y-40.0000
G01 Z-2.0000
G01 Z0
G00 Z3.0000
G00 X-32.5000 Y-44.8000
G01 Z-2.0000
G01 Z0
G00 Z3.0000
G00 X-29.9600 Y-44.8000
G01 Z-2.0000
G01 Z0
G00 Z3.0000
G00 X-25.0000 Y-47.4200
G01 Z-2.0000
G01 Z0
G00 Z3.0000
G00 X-29.9600 Y-52.4200
G01 Z-2.0000
G01 Z0
G00 Z3.0000
G00 X-32.5000 Y-52.4200
G01 Z-2.0000
G01 Z0
G00 Z3.0000
G00 X-42.6600 Y-55.0800
G01 Z-2.0000
G01 Z0
G00 Z3.0000
G00 X-32.5000 Y-55.0800
G01 Z-2.0000
G01 Z0
G00 Z3.0000
G00 X-25.0000 Y-57.5800
G01 Z-2.0000
G01 Z0
G00 Z3.0000
G00 X2.5000 Y-57.6600
G01 Z-2.0000
G01 Z0
G00 Z3.0000
G00 X12.4200 Y-57.6600
G01 Z-2.0000
G01 Z0
G00 Z3.0000
G00 X17.4200 Y-52.5000
G01 Z-2.0000
G01 Z0
G00 Z3.0000
G00 X27.5800 Y-52.5000
G01 Z-2.0000
G01 Z0
G00 Z3.0000
G00 X35.0800 Y-47.6600
G01 Z-2.0000
G01 Z0
G00 Z3.0000
G00 X30.2000 Y-45.0000
G01 Z-2.0000
G01 Z0
G00 Z3.0000
G00 X30.2000 Y-42.4600
G01 Z-2.0000
G01 Z0
G00 Z3.0000
G00 X30.2000 Y-39.9200
G01 Z-2.0000
G01 Z0
G00 Z3.0000
G00 X30.2000 Y-37.3800
G01 Z-2.0000
G01 Z0
G00 Z3.0000
G00 X35.0800 Y-37.5000
G01 Z-2.0000
G01 Z0
G00 Z3.0000
G00 X35.0800 Y-32.5000
G01 Z-2.0000
G01 Z0
G00 Z3.0000
G00 X30.0800 Y-27.5000
G01 Z-2.0000
G01 Z0
G00 Z3.0000
G00 X30.0800 Y-30.0400
G01 Z-2.0000
G01 Z0
G00 Z3.0000
G00 X24.9200 Y-32.5000
G01 Z-2.0000
G01 Z0
G00 Z3.0000
G00 X22.5800 Y-37.3800
G01 Z-2.0000
G01 Z0
G00 Z3.0000
G00 X22.5800 Y-39.9200
G01 Z-2.0000
G01 Z0
G00 Z3.0000
G00 X22.5800 Y-42.4600
G01 Z-2.0000
G01 Z0
G00 Z3.0000
G00 X22.5800 Y-45.0000
G01 Z-2.0000
G01 Z0
G00 Z3.0000
G00 X17.5800 Y-42.5000
G01 Z-2.0000
G01 Z0
G00 Z3.0000
G00 X17.5800 Y-45.0400
G01 Z-2.0000
G01 Z0
G00 Z3.0000
G00 X12.4200 Y-47.5000
G01 Z-2.0000
G01 Z0
G00 Z3.0000
G01 F200.00
M03 S10000
G00 X-9.9200 Y-57.5000
G01 Z-2.0000
G01 Z0
G00 Z3.0000
G00 X-17.4200 Y-57.5800
G01 Z-2.0000
G01 Z0
G00 Z3.0000
G00 X-47.4200 Y-57.5000
G01 Z-2.0000
G01 Z0
G00 Z3.0000
G00 X-77.3400 Y-50.0000
G01 Z-2.0000
G01 Z0
G00 Z3.0000
G00 X-79.8800 Y-50.0000
G01 Z-2.0000
G01 Z0
G00 Z3.0000
G00 X-82.4200 Y-50.0000
G01 Z-2.0000
G01 Z0
G00 Z3.0000
G00 X-87.3800 Y-50.0000
G01 Z-2.0000
G01 Z0
G00 Z3.0000
G00 X-89.9200 Y-50.0000
G01 Z-2.0000
G01 Z0
G00 Z3.0000
G00 X-92.4600 Y-50.0000
G01 Z-2.0000
G01 Z0
G00 Z3.0000
G00 X-47.4200 Y22.6600
G01 Z-2.0000
G01 Z0
G00 Z3.0000
G00 X-47.4200 Y12.5000
G01 Z-2.0000
G01 Z0
G00 Z3.0000
G00 X-47.4200 Y5.1600
G01 Z-2.0000
G01 Z0
G00 Z3.0000
G00 X-47.4200 Y-5.0000
G01 Z-2.0000
G01 Z0
G00 Z3.0000
G00 X-47.4200 Y-12.3400
G01 Z-2.0000
G01 Z0
G00 Z3.0000
G00 X-47.4200 Y-22.5000
G01 Z-2.0000
G01 Z0
G00 Z3.0000
G00 X-47.4200 Y-29.8400
G01 Z-2.0000
G01 Z0
G00 Z3.0000
G00 X-47.4200 Y-40.0000
G01 Z-2.0000
G01 Z0
G00 Z3.0000
G00 X-47.4200 Y-47.3400
G01 Z-2.0000
G01 Z0
G00 Z3.0000
G00 X-25.0000 Y-40.0800
G01 Z-2.0000
G01 Z0
G00 Z3.0000
G00 X-22.4600 Y-40.0800
G01 Z-2.0000
G01 Z0
G00 Z3.0000
G00 X-22.5000 Y-32.5000
G01 Z-2.0000
G01 Z0
G00 Z3.0000
G00 X-25.0400 Y-32.5000
G01 Z-2.0000
G01 Z0
G00 Z3.0000
G00 X-25.0400 Y-15.0000
G01 Z-2.0000
G01 Z0
G00 Z3.0000
G00 X-22.5000 Y-15.0000
G01 Z-2.0000
G01 Z0
G00 Z3.0000
G00 X-25.0000 Y2.4200
G01 Z-2.0000
G01 Z0
G00 Z3.0000
G00 X-22.4600 Y2.4200
G01 Z-2.0000
G01 Z0
G00 Z3.0000
G00 X-25.0400 Y20.0000
G01 Z-2.0000
G01 Z0
G00 Z3.0000
G00 X-22.5000 Y20.0000
G01 Z-2.0000
G01 Z0
G00 Z3.0000
G00 X-17.5000 Y25.0000
G01 Z-2.0000
G01 Z0
G00 Z3.0000
G00 X-14.9600 Y25.0000
G01 Z-2.0000
G01 Z0
G00 Z3.0000
G00 X-12.4200 Y25.0000
G01 Z-2.0000
G01 Z0
G00 Z3.0000
G00 X-9.8800 Y25.0000
G01 Z-2.0000
G01 Z0
G00 Z3.0000
G00 X-7.3400 Y25.0000
G01 Z-2.0000
G01 Z0
G00 Z3.0000
G00 X17.5000 Y5.0000
G01 Z-2.0000
G01 Z0
G00 Z3.0000
G00 X17.5000 Y2.4600
G01 Z-2.0000
G01 Z0
G00 Z3.0000
G00 X17.5000 Y-0.0800
G01 Z-2.0000
G01 Z0
G00 Z3.0000
G00 X17.5800 Y-27.3400
G01 Z-2.0000
G01 Z0
G00 Z3.0000
G00 X17.5800 Y-37.5000
G01 Z-2.0000
G01 Z0
G00 Z3.0000
G00 X32.6200 Y-52.5000
G01 Z-2.0000
G01 Z0
G00 Z3.0000
G00 X35.1600 Y-52.5000
G01 Z-2.0000
G01 Z0
G00 Z3.0000
G00 X35.0800 Y-57.5000
G01 Z-2.0000
G01 Z0
G00 Z3.0000
G00 X32.5400 Y-57.5000
G01 Z-2.0000
G01 Z0
G00 Z3.0000
G00 X20.1200 Y-57.5000
G01 Z-2.0000
G01 Z0
G00 Z3.0000
G00 X17.5800 Y-57.5000
G01 Z-2.0000
G01 Z0
G00 Z3.0000
G00 X7.5800 Y-54.9200
G01 Z-2.0000
G01 Z0
G00 Z3.0000
G00 X7.5800 Y-57.4600
G01 Z-2.0000
G01 Z0
G00 Z3.0000
G00 X-2.5000 Y-55.0000
G01 Z-2.0000
G01 Z0
G00 Z3.0000
G00 X-2.5000 Y-57.5400
G01 Z-2.0000
G01 Z0
G00 Z3.0000
G00 X-9.9200 Y-54.9600
G01 Z-2.0000
G01 Z0
G00 Z3.0000
G00 X-9.9200 Y-52.4200
G01 Z-2.0000
G01 Z0
G00 Z3.0000
G00 X-9.9200 Y-49.8800
G01 Z-2.0000
G01 Z0
G00 Z3.0000
G00 X-9.9200 Y-47.3400
G01 Z-2.0000
G01 Z0
G00 Z3.0000
G00 X-9.9200 Y-44.8000
G01 Z-2.0000
G01 Z0
G00 Z3.0000
G00 X-17.4200 Y-42.3400
G01 Z-2.0000
G01 Z0
G00 Z3.0000
G00 X-17.4200 Y-44.8800
G01 Z-2.0000
G01 Z0
G00 Z3.0000
G00 X-17.4200 Y-47.4200
G01 Z-2.0000
G01 Z0
G00 Z3.0000
G00 X-17.4200 Y-49.9600
G01 Z-2.0000
G01 Z0
G00 Z3.0000
G00 X-17.4200 Y-52.5000
G01 Z-2.0000
G01 Z0
G00 Z3.0000
G00 X-17.4200 Y-55.0400
G01 Z-2.0000
G01 Z0
G00 Z3.0000
G01 F200.00
M03 S10000
G00 X-7.4200 Y-25.0000
G01 Z-2.0000
G01 Z0
G00 Z3.0000
G00 X-7.4200 Y-22.4600
G01 Z-2.0000
G01 Z0
G00 Z3.0000
G00 X-7.4200 Y-19.9200
G01 Z-2.0000
G01 Z0
G00 Z3.0000
G00 X-7.4200 Y-17.3800
G01 Z-2.0000
G01 Z0
G00 Z3.0000
G00 X-7.4200 Y-14.8400
G01 Z-2.0000
G01 Z0
G00 Z3.0000
G00 X-7.4200 Y-12.3000
G01 Z-2.0000
G01 Z0
G00 Z3.0000
G00 X-7.4200 Y-9.7600
G01 Z-2.0000
G01 Z0
G00 Z3.0000
G00 X-7.4200 Y-7.2200
G01 Z-2.0000
G01 Z0
G00 Z3.0000
G00 X-7.4200 Y-4.6800
G01 Z-2.0000
G01 Z0
G00 Z3.0000
G00 X-7.4200 Y-2.1400
G01 Z-2.0000
G01 Z0
G00 Z3.0000
G00 X-7.4200 Y0.4000
G01 Z-2.0000
G01 Z0
G00 Z3.0000
G00 X-7.4200 Y2.9400
G01 Z-2.0000
G01 Z0
G00 Z3.0000
G00 X-7.4200 Y5.4800
G01 Z-2.0000
G01 Z0
G00 Z3.0000
G00 X-7.4200 Y8.0200
G01 Z-2.0000
G01 Z0
G00 Z3.0000
G00 X-7.4200 Y10.5600
G01 Z-2.0000
G01 Z0
G00 Z3.0000
G00 X7.8200 Y10.5600
G01 Z-2.0000
G01 Z0
G00 Z3.0000
G00 X7.8200 Y8.0200
G01 Z-2.0000
G01 Z0
G00 Z3.0000
G00 X7.8200 Y5.4800
G01 Z-2.0000
G01 Z0
G00 Z3.0000
G00 X7.8200 Y2.9400
G01 Z-2.0000
G01 Z0
G00 Z3.0000
G00 X7.8200 Y0.4000
G01 Z-2.0000
G01 Z0
G00 Z3.0000
G00 X7.8200 Y-2.1400
G01 Z-2.0000
G01 Z0
G00 Z3.0000
G00 X7.8200 Y-4.6800
G01 Z-2.0000
G01 Z0
G00 Z3.0000
G00 X7.8200 Y-7.2200
G01 Z-2.0000
G01 Z0
G00 Z3.0000
G00 X7.8200 Y-9.7600
G01 Z-2.0000
G01 Z0
G00 Z3.0000
G00 X7.8200 Y-12.3000
G01 Z-2.0000
G01 Z0
G00 Z3.0000
G00 X7.8200 Y-14.8400
G01 Z-2.0000
G01 Z0
G00 Z3.0000
G00 X7.8200 Y-17.3800
G01 Z-2.0000
G01 Z0
G00 Z3.0000
G00 X7.8200 Y-19.9200
G01 Z-2.0000
G01 Z0
G00 Z3.0000
G00 X7.8200 Y-22.4600
G01 Z-2.0000
G01 Z0
G00 Z3.0000
G00 X7.8200 Y-25.0000
G01 Z-2.0000
G01 Z0
G00 Z3.0000
G01 F200.00
M03 S10000
G00 X-54.6200 Y-57.5000
G01 Z-2.0000
G01 Z0
G00 Z3.0000
G00 X-52.6200 Y-51.5000
G01 Z-2.0000
G01 Z0
G00 Z3.0000
G00 X-54.6200 Y-45.5000
G01 Z-2.0000
G01 Z0
G00 Z3.0000
G00 X-54.6200 Y-40.0000
G01 Z-2.0000
G01 Z0
G00 Z3.0000
G00 X-52.6200 Y-34.0000
G01 Z-2.0000
G01 Z0
G00 Z3.0000
G00 X-54.6200 Y-28.0000
G01 Z-2.0000
G01 Z0
G00 Z3.0000
G00 X-54.6200 Y-22.5000
G01 Z-2.0000
G01 Z0
G00 Z3.0000
G00 X-52.6200 Y-16.5000
G01 Z-2.0000
G01 Z0
G00 Z3.0000
G00 X-54.6200 Y-10.5000
G01 Z-2.0000
G01 Z0
G00 Z3.0000
G00 X-54.6200 Y-5.0000
G01 Z-2.0000
G01 Z0
G00 Z3.0000
G00 X-52.6200 Y1.0000
G01 Z-2.0000
G01 Z0
G00 Z3.0000
G00 X-54.6200 Y7.0000
G01 Z-2.0000
G01 Z0
G00 Z3.0000
G00 X-54.6200 Y12.5000
G01 Z-2.0000
G01 Z0
G00 Z3.0000
G00 X-52.6200 Y18.5000
G01 Z-2.0000
G01 Z0
G00 Z3.0000
G00 X-54.6200 Y24.5000
G01 Z-2.0000
G01 Z0
G00 Z3.0000
G00 X-66.9200 Y24.5000
G01 Z-2.0000
G01 Z0
G00 Z3.0000
G00 X-66.9200 Y12.5000
G01 Z-2.0000
G01 Z0
G00 Z3.0000
G00 X-66.9200 Y7.0000
G01 Z-2.0000
G01 Z0
G00 Z3.0000
G00 X-66.9200 Y-5.0000
G01 Z-2.0000
G01 Z0
G00 Z3.0000
G00 X-66.9200 Y-10.5000
G01 Z-2.0000
G01 Z0
G00 Z3.0000
G00 X-66.9200 Y-22.5000
G01 Z-2.0000
G01 Z0
G00 Z3.0000
G00 X-66.9200 Y-28.0000
G01 Z-2.0000
G01 Z0
G00 Z3.0000
G00 X-66.9200 Y-40.0000
G01 Z-2.0000
G01 Z0
G00 Z3.0000
G00 X-66.9200 Y-45.5000
G01 Z-2.0000
G01 Z0
G00 Z3.0000
G00 X-66.9200 Y-57.5000
G01 Z-2.0000
G01 Z0
G00 Z3.0000
G01 F200.00
M03 S10000
G00 X-84.9200 Y-15.0000
G01 Z-2.0000
G01 Z0
G00 Z3.0000
G00 X-84.9200 Y-9.9200
G01 Z-2.0000
G01 Z0
G00 Z3.0000
G00 X-84.9200 Y-4.8400
G01 Z-2.0000
G01 Z0
G00 Z3.0000
G00 X-84.9200 Y0.2400
G01 Z-2.0000
G01 Z0
G00 Z3.0000
G00 X-84.9200 Y5.3200
G01 Z-2.0000
G01 Z0
G00 Z3.0000
G00 X-84.9200 Y10.4000
G01 Z-2.0000
G01 Z0
G00 Z3.0000
G00 X-84.9200 Y15.4800
G01 Z-2.0000
G01 Z0
G00 Z3.0000
G00 X-84.9200 Y20.5600
G01 Z-2.0000
G01 Z0
G00 Z3.0000
G01 F200.00
M03 S10000
G00 X-7.4200 Y-27.5400
G01 Z-2.0000
G01 Z0
G00 Z3.0000
G00 X7.8200 Y-27.5400
G01 Z-2.0000
G01 Z0
G00 Z3.0000
G00 X7.8200 Y13.1000
G01 Z-2.0000
G01 Z0
G00 Z3.0000
G00 X-7.4200 Y13.1000
G01 Z-2.0000
G01 Z0
G00 Z3.0000
M05
G00 Z2.00

