(G-CODE GENERATED BY FLATCAM v8.993 - www.flatcam.org - Version Date: 2020/06/05)

(Name: Pv-66 - pistas)
(Type: G-code from Geometry)
(Units: MM)

(Created on Friday, 11 August 2023 at 21:21)

(This preprocessor is the default preprocessor used by FlatCAM.)
(It is made to work with MACH3 compatible motion controllers.)

(TOOL DIAMETER: 0.1 mm)
(Feedrate_XY: 120.0 mm/min)
(Feedrate_Z: 60.0 mm/min)
(Feedrate rapids 1500.0 mm/min)

(Z_Cut: -2.4 mm)
(Z_Move: 2.0 mm)
(Z Start: None mm)
(Z End: 15.0 mm)
(Steps per circle: 64)
(Preprocessor Geometry: default)

(X range:  -93.7036 ...   38.3624  mm)
(Y range:  -62.5144 ...   31.5540  mm)

(Spindle Speed: None RPM)
G21
G90
G94



G01 F120.00
G00 Z2.0000

M03
G00 X-7.0930 Y3.7024
G01 F60.00
G01 Z-2.4000
G01 F120.00
G01 X-7.1024 Y3.7068
G01 X-7.1791 Y3.7343
G01 X-7.2581 Y3.7541
G01 X-7.3386 Y3.7660
G01 X-7.4200 Y3.7700
G01 X-7.5014 Y3.7660
G01 X-7.5819 Y3.7541
G01 X-7.6609 Y3.7343
G01 X-7.7376 Y3.7068
G01 X-7.8113 Y3.6720
G01 X-7.8811 Y3.6301
G01 X-7.9465 Y3.5816
G01 X-8.0069 Y3.5269
G01 X-8.0616 Y3.4665
G01 X-8.1101 Y3.4011
G01 X-8.1520 Y3.3313
G01 X-8.1868 Y3.2576
G01 X-8.2143 Y3.1809
G01 X-8.2341 Y3.1019
G01 X-8.2460 Y3.0214
G01 X-8.2500 Y2.9400
G01 X-8.2460 Y2.8586
G01 X-8.2341 Y2.7781
G01 X-8.2143 Y2.6991
G01 X-8.1868 Y2.6224
G01 X-8.1520 Y2.5487
G01 X-8.1101 Y2.4789
G01 X-8.0616 Y2.4135
G01 X-8.0069 Y2.3531
G01 X-7.9465 Y2.2984
G01 X-7.8811 Y2.2499
G01 X-7.8113 Y2.2080
G01 X-7.7376 Y2.1732
G01 X-7.6609 Y2.1457
G01 X-7.5819 Y2.1259
G01 X-7.5014 Y2.1140
G01 X-7.4200 Y2.1100
G01 X-7.3386 Y2.1140
G01 X-7.2581 Y2.1259
G01 X-7.1791 Y2.1457
G01 X-7.1024 Y2.1732
G01 X-7.0930 Y2.1776
G01 X-6.8858 Y2.1776
G01 X-4.0288 Y-0.6794
G01 X-4.0288 Y-28.7926
G01 X-5.5391 Y-30.3029
G01 X-5.5893 Y-30.3583
G01 X-5.6339 Y-30.4184
G01 X-5.6724 Y-30.4826
G01 X-5.7043 Y-30.5502
G01 X-5.7296 Y-30.6206
G01 X-5.7477 Y-30.6932
G01 X-5.7587 Y-30.7672
G01 X-5.7624 Y-30.8420
G01 X-5.7624 Y-32.0448
G01 X-5.7840 Y-32.0809
G01 X-5.8213 Y-32.1598
G01 X-5.8507 Y-32.2419
G01 X-5.8719 Y-32.3266
G01 X-5.8847 Y-32.4129
G01 X-5.8890 Y-32.5000
G01 X-5.8847 Y-32.5871
G01 X-5.8719 Y-32.6734
G01 X-5.8507 Y-32.7581
G01 X-5.8213 Y-32.8402
G01 X-5.7840 Y-32.9191
G01 X-5.7392 Y-32.9939
G01 X-5.7223 Y-33.0167
G01 X-5.7223 Y-35.5618
G01 X-5.7186 Y-35.6365
G01 X-5.7076 Y-35.7105
G01 X-5.6895 Y-35.7831
G01 X-5.6642 Y-35.8536
G01 X-5.6323 Y-35.9212
G01 X-5.5938 Y-35.9854
G01 X-5.5492 Y-36.0455
G01 X-5.4990 Y-36.1009
G01 X-3.6808 Y-37.9191
G01 X-3.6254 Y-37.9693
G01 X-3.5653 Y-38.0139
G01 X-3.5011 Y-38.0524
G01 X-3.4335 Y-38.0843
G01 X-3.3630 Y-38.1096
G01 X-3.2904 Y-38.1277
G01 X-3.2164 Y-38.1387
G01 X-3.1417 Y-38.1424
G01 X-0.0400 Y-38.1424
G01 X0.0347 Y-38.1387
G01 X0.1087 Y-38.1277
G01 X0.1813 Y-38.1096
G01 X0.2518 Y-38.0843
G01 X0.3194 Y-38.0524
G01 X0.3836 Y-38.0139
G01 X0.4436 Y-37.9693
G01 X0.4991 Y-37.9191
G01 X0.5493 Y-37.8636
G01 X0.5939 Y-37.8036
G01 X0.6324 Y-37.7394
G01 X0.6643 Y-37.6718
G01 X0.6896 Y-37.6013
G01 X0.7077 Y-37.5287
G01 X0.7187 Y-37.4547
G01 X0.7224 Y-37.3800
G01 X0.7187 Y-37.3053
G01 X0.7077 Y-37.2313
G01 X0.6896 Y-37.1587
G01 X0.6643 Y-37.0882
G01 X0.6324 Y-37.0206
G01 X0.5939 Y-36.9564
G01 X0.5493 Y-36.8964
G01 X0.4991 Y-36.8409
G01 X0.4436 Y-36.7907
G01 X0.3836 Y-36.7461
G01 X0.3194 Y-36.7076
G01 X0.2518 Y-36.6757
G01 X0.1813 Y-36.6504
G01 X0.1087 Y-36.6323
G01 X0.0347 Y-36.6213
G01 X-0.0400 Y-36.6176
G01 X-2.8259 Y-36.6176
G01 X-4.1975 Y-35.2460
G01 X-4.1975 Y-32.8801
G01 X-4.1787 Y-32.8402
G01 X-4.1493 Y-32.7581
G01 X-4.1281 Y-32.6734
G01 X-4.1153 Y-32.5871
G01 X-4.1110 Y-32.5000
G01 X-4.1153 Y-32.4129
G01 X-4.1281 Y-32.3266
G01 X-4.1493 Y-32.2419
G01 X-4.1787 Y-32.1598
G01 X-4.2160 Y-32.0809
G01 X-4.2376 Y-32.0448
G01 X-4.2376 Y-31.1577
G01 X-2.7274 Y-29.6475
G01 X-2.6771 Y-29.5921
G01 X-2.6326 Y-29.5320
G01 X-2.5941 Y-29.4678
G01 X-2.5621 Y-29.4002
G01 X-2.5369 Y-29.3297
G01 X-2.5187 Y-29.2571
G01 X-2.5077 Y-29.1831
G01 X-2.5041 Y-29.1084
G01 X-2.5041 Y-0.3636
G01 X-2.5077 Y-0.2888
G01 X-2.5187 Y-0.2148
G01 X-2.5369 Y-0.1423
G01 X-2.5621 Y-0.0718
G01 X-2.5941 Y-0.0042
G01 X-2.6326 Y0.0600
G01 X-2.6771 Y0.1201
G01 X-2.7274 Y0.1755
G01 X-6.0309 Y3.4791
G01 X-6.0864 Y3.5293
G01 X-6.1465 Y3.5739
G01 X-6.2106 Y3.6124
G01 X-6.2783 Y3.6443
G01 X-6.3487 Y3.6696
G01 X-6.4213 Y3.6877
G01 X-6.4953 Y3.6987
G01 X-6.5700 Y3.7024
G01 X-7.0930 Y3.7024
G00 Z2.0000
G00 X-7.0930 Y6.2424
G01 F60.00
G01 Z-2.4000
G01 F120.00
G01 X-7.1024 Y6.2468
G01 X-7.1791 Y6.2743
G01 X-7.2581 Y6.2941
G01 X-7.3386 Y6.3060
G01 X-7.4200 Y6.3100
G01 X-7.5014 Y6.3060
G01 X-7.5819 Y6.2941
G01 X-7.6609 Y6.2743
G01 X-7.7376 Y6.2468
G01 X-7.8113 Y6.2120
G01 X-7.8811 Y6.1701
G01 X-7.9465 Y6.1216
G01 X-8.0069 Y6.0669
G01 X-8.0616 Y6.0065
G01 X-8.1101 Y5.9411
G01 X-8.1520 Y5.8713
G01 X-8.1868 Y5.7976
G01 X-8.2143 Y5.7209
G01 X-8.2341 Y5.6419
G01 X-8.2460 Y5.5614
G01 X-8.2500 Y5.4800
G01 X-8.2460 Y5.3986
G01 X-8.2341 Y5.3181
G01 X-8.2143 Y5.2391
G01 X-8.1868 Y5.1624
G01 X-8.1520 Y5.0887
G01 X-8.1101 Y5.0189
G01 X-8.0616 Y4.9535
G01 X-8.0069 Y4.8931
G01 X-7.9465 Y4.8384
G01 X-7.8811 Y4.7899
G01 X-7.8113 Y4.7480
G01 X-7.7376 Y4.7132
G01 X-7.6609 Y4.6857
G01 X-7.5819 Y4.6659
G01 X-7.5014 Y4.6540
G01 X-7.4200 Y4.6500
G01 X-7.3386 Y4.6540
G01 X-7.2581 Y4.6659
G01 X-7.1791 Y4.6857
G01 X-7.1024 Y4.7132
G01 X-7.0930 Y4.7176
G01 X-3.4526 Y4.7176
G01 X-1.3726 Y2.6376
G01 X-1.3726 Y-32.8744
G01 X-1.4272 Y-32.9290
G01 X-1.4681 Y-32.9393
G01 X-1.5502 Y-32.9687
G01 X-1.6291 Y-33.0060
G01 X-1.7039 Y-33.0508
G01 X-1.7740 Y-33.1028
G01 X-1.8386 Y-33.1614
G01 X-1.8972 Y-33.2260
G01 X-1.9492 Y-33.2961
G01 X-1.9940 Y-33.3709
G01 X-2.0313 Y-33.4498
G01 X-2.0607 Y-33.5319
G01 X-2.0819 Y-33.6166
G01 X-2.0947 Y-33.7029
G01 X-2.0990 Y-33.7900
G01 X-2.0947 Y-33.8771
G01 X-2.0819 Y-33.9634
G01 X-2.0607 Y-34.0481
G01 X-2.0313 Y-34.1302
G01 X-1.9940 Y-34.2091
G01 X-1.9492 Y-34.2839
G01 X-1.8972 Y-34.3540
G01 X-1.8386 Y-34.4186
G01 X-1.7740 Y-34.4772
G01 X-1.7039 Y-34.5292
G01 X-1.6291 Y-34.5740
G01 X-1.5502 Y-34.6113
G01 X-1.4681 Y-34.6407
G01 X-1.3834 Y-34.6619
G01 X-1.2971 Y-34.6747
G01 X-1.2100 Y-34.6790
G01 X-1.1229 Y-34.6747
G01 X-1.0366 Y-34.6619
G01 X-0.9519 Y-34.6407
G01 X-0.8698 Y-34.6113
G01 X-0.7909 Y-34.5740
G01 X-0.7548 Y-34.5524
G01 X2.1975 Y-34.5524
G01 X4.1825 Y-36.5373
G01 X4.2379 Y-36.5876
G01 X4.2980 Y-36.6321
G01 X4.3622 Y-36.6706
G01 X4.4298 Y-36.7026
G01 X4.5003 Y-36.7278
G01 X4.5728 Y-36.7460
G01 X4.6468 Y-36.7570
G01 X4.7216 Y-36.7606
G01 X5.8425 Y-36.7606
G01 X7.0009 Y-37.9191
G01 X7.0564 Y-37.9693
G01 X7.1164 Y-38.0139
G01 X7.1806 Y-38.0524
G01 X7.2482 Y-38.0843
G01 X7.3187 Y-38.1096
G01 X7.3913 Y-38.1277
G01 X7.4653 Y-38.1387
G01 X7.5400 Y-38.1424
G01 X7.6147 Y-38.1387
G01 X7.6887 Y-38.1277
G01 X7.7613 Y-38.1096
G01 X7.8318 Y-38.0843
G01 X7.8994 Y-38.0524
G01 X7.9636 Y-38.0139
G01 X8.0236 Y-37.9693
G01 X8.0791 Y-37.9191
G01 X8.1293 Y-37.8636
G01 X8.1739 Y-37.8036
G01 X8.2124 Y-37.7394
G01 X8.2443 Y-37.6718
G01 X8.2696 Y-37.6013
G01 X8.2877 Y-37.5287
G01 X8.2987 Y-37.4547
G01 X8.3024 Y-37.3800
G01 X8.2987 Y-37.3053
G01 X8.2877 Y-37.2313
G01 X8.2696 Y-37.1587
G01 X8.2443 Y-37.0882
G01 X8.2124 Y-37.0206
G01 X8.1739 Y-36.9564
G01 X8.1293 Y-36.8964
G01 X8.0791 Y-36.8409
G01 X6.6973 Y-35.4592
G01 X6.6419 Y-35.4089
G01 X6.5818 Y-35.3644
G01 X6.5176 Y-35.3259
G01 X6.4500 Y-35.2939
G01 X6.3796 Y-35.2687
G01 X6.3070 Y-35.2505
G01 X6.2330 Y-35.2395
G01 X6.1582 Y-35.2359
G01 X5.0374 Y-35.2359
G01 X3.0524 Y-33.2509
G01 X2.9970 Y-33.2007
G01 X2.9369 Y-33.1561
G01 X2.8727 Y-33.1176
G01 X2.8051 Y-33.0857
G01 X2.7346 Y-33.0604
G01 X2.6621 Y-33.0423
G01 X2.5880 Y-33.0313
G01 X2.5133 Y-33.0276
G01 X0.1522 Y-33.0276
G01 X0.1522 Y2.9533
G01 X0.1485 Y3.0281
G01 X0.1375 Y3.1021
G01 X0.1194 Y3.1747
G01 X0.0941 Y3.2451
G01 X0.0622 Y3.3127
G01 X0.0237 Y3.3769
G01 X-0.0209 Y3.4370
G01 X-0.0711 Y3.4924
G01 X-2.5978 Y6.0191
G01 X-2.6532 Y6.0693
G01 X-2.7133 Y6.1139
G01 X-2.7775 Y6.1524
G01 X-2.8451 Y6.1843
G01 X-2.9155 Y6.2096
G01 X-2.9881 Y6.2277
G01 X-3.0621 Y6.2387
G01 X-3.1369 Y6.2424
G01 X-7.0930 Y6.2424
G00 Z2.0000
G00 X-6.0865 Y13.1000
G01 F60.00
G01 Z-2.4000
G01 F120.00
G01 X-6.0929 Y13.2307
G01 X-6.1121 Y13.3602
G01 X-6.1439 Y13.4871
G01 X-6.1880 Y13.6103
G01 X-6.2440 Y13.7286
G01 X-6.3112 Y13.8409
G01 X-6.3892 Y13.9460
G01 X-6.4771 Y14.0429
G01 X-6.5740 Y14.1308
G01 X-6.6791 Y14.2088
G01 X-6.7914 Y14.2760
G01 X-6.9097 Y14.3320
G01 X-7.0329 Y14.3761
G01 X-7.1598 Y14.4079
G01 X-7.2893 Y14.4271
G01 X-7.4200 Y14.4335
G01 X-7.5507 Y14.4271
G01 X-7.6802 Y14.4079
G01 X-7.8071 Y14.3761
G01 X-7.9303 Y14.3320
G01 X-8.0486 Y14.2760
G01 X-8.1609 Y14.2088
G01 X-8.2660 Y14.1308
G01 X-8.3629 Y14.0429
G01 X-8.4508 Y13.9460
G01 X-8.5288 Y13.8409
G01 X-8.5960 Y13.7286
G01 X-8.6520 Y13.6103
G01 X-8.6961 Y13.4871
G01 X-8.7279 Y13.3602
G01 X-8.7471 Y13.2307
G01 X-8.7535 Y13.1000
G01 X-8.7471 Y12.9693
G01 X-8.7279 Y12.8398
G01 X-8.6961 Y12.7129
G01 X-8.6520 Y12.5897
G01 X-8.5960 Y12.4714
G01 X-8.5288 Y12.3591
G01 X-8.4508 Y12.2540
G01 X-8.3629 Y12.1571
G01 X-8.2660 Y12.0692
G01 X-8.1609 Y11.9912
G01 X-8.0486 Y11.9240
G01 X-7.9303 Y11.8680
G01 X-7.8071 Y11.8239
G01 X-7.6802 Y11.7921
G01 X-7.5507 Y11.7729
G01 X-7.4200 Y11.7665
G01 X-7.2893 Y11.7729
G01 X-7.1598 Y11.7921
G01 X-7.0329 Y11.8239
G01 X-6.9097 Y11.8680
G01 X-6.7914 Y11.9240
G01 X-6.6791 Y11.9912
G01 X-6.5740 Y12.0692
G01 X-6.4771 Y12.1571
G01 X-6.3892 Y12.2540
G01 X-6.3112 Y12.3591
G01 X-6.2440 Y12.4714
G01 X-6.1880 Y12.5897
G01 X-6.1439 Y12.7129
G01 X-6.1121 Y12.8398
G01 X-6.0929 Y12.9693
G01 X-6.0865 Y13.1000
G00 Z2.0000
G00 X-13.4360 Y26.0160
G01 F60.00
G01 Z-2.4000
G01 F120.00
G01 X-13.4360 Y23.9840
G01 X-13.1824 Y23.9840
G01 X-13.1824 Y12.0502
G01 X-13.1787 Y11.9755
G01 X-13.1677 Y11.9014
G01 X-13.1496 Y11.8289
G01 X-13.1243 Y11.7584
G01 X-13.0924 Y11.6908
G01 X-13.0539 Y11.6266
G01 X-13.0093 Y11.5665
G01 X-12.9591 Y11.5111
G01 X-11.3184 Y9.8704
G01 X-11.2630 Y9.8202
G01 X-11.2029 Y9.7756
G01 X-11.1387 Y9.7371
G01 X-11.0711 Y9.7052
G01 X-11.0006 Y9.6799
G01 X-10.9281 Y9.6618
G01 X-10.8540 Y9.6508
G01 X-10.7793 Y9.6471
G01 X-7.5705 Y9.6471
G01 X-7.4958 Y9.6508
G01 X-7.4218 Y9.6618
G01 X-7.3492 Y9.6799
G01 X-7.2787 Y9.7052
G01 X-7.2111 Y9.7371
G01 X-7.1469 Y9.7756
G01 X-7.1427 Y9.7788
G01 X-7.1024 Y9.7932
G01 X-7.0287 Y9.8280
G01 X-6.9589 Y9.8699
G01 X-6.8935 Y9.9184
G01 X-6.8331 Y9.9731
G01 X-6.7784 Y10.0335
G01 X-6.7299 Y10.0989
G01 X-6.6880 Y10.1687
G01 X-6.6532 Y10.2424
G01 X-6.6257 Y10.3191
G01 X-6.6059 Y10.3981
G01 X-6.5940 Y10.4786
G01 X-6.5900 Y10.5600
G01 X-6.5940 Y10.6414
G01 X-6.6059 Y10.7219
G01 X-6.6257 Y10.8009
G01 X-6.6532 Y10.8776
G01 X-6.6880 Y10.9513
G01 X-6.7299 Y11.0211
G01 X-6.7784 Y11.0865
G01 X-6.8331 Y11.1469
G01 X-6.8935 Y11.2016
G01 X-6.9589 Y11.2501
G01 X-7.0287 Y11.2920
G01 X-7.1024 Y11.3268
G01 X-7.1791 Y11.3543
G01 X-7.2581 Y11.3741
G01 X-7.3386 Y11.3860
G01 X-7.4200 Y11.3900
G01 X-7.5014 Y11.3860
G01 X-7.5819 Y11.3741
G01 X-7.6609 Y11.3543
G01 X-7.7376 Y11.3268
G01 X-7.8113 Y11.2920
G01 X-7.8811 Y11.2501
G01 X-7.9465 Y11.2016
G01 X-7.9793 Y11.1719
G01 X-10.4635 Y11.1719
G01 X-11.6576 Y12.3660
G01 X-11.6576 Y23.9840
G01 X-11.4040 Y23.9840
G01 X-11.4040 Y26.0160
G01 X-13.4360 Y26.0160
G00 Z2.0000
G00 X-15.9760 Y26.0160
G01 F60.00
G01 Z-2.4000
G01 F120.00
G01 X-15.9760 Y23.9840
G01 X-15.7224 Y23.9840
G01 X-15.7224 Y9.7689
G01 X-15.7187 Y9.6942
G01 X-15.7077 Y9.6201
G01 X-15.6896 Y9.5476
G01 X-15.6643 Y9.4771
G01 X-15.6324 Y9.4095
G01 X-15.5939 Y9.3453
G01 X-15.5493 Y9.2852
G01 X-15.4991 Y9.2298
G01 X-13.6703 Y7.4010
G01 X-13.6148 Y7.3507
G01 X-13.5547 Y7.3062
G01 X-13.4906 Y7.2677
G01 X-13.4229 Y7.2357
G01 X-13.3525 Y7.2105
G01 X-13.2799 Y7.1923
G01 X-13.2059 Y7.1813
G01 X-13.1312 Y7.1777
G01 X-7.4999 Y7.1777
G01 X-7.4252 Y7.1813
G01 X-7.3512 Y7.1923
G01 X-7.3460 Y7.1936
G01 X-7.3386 Y7.1940
G01 X-7.2581 Y7.2059
G01 X-7.1791 Y7.2257
G01 X-7.1024 Y7.2532
G01 X-7.0287 Y7.2880
G01 X-6.9589 Y7.3299
G01 X-6.8935 Y7.3784
G01 X-6.8331 Y7.4331
G01 X-6.7784 Y7.4935
G01 X-6.7299 Y7.5589
G01 X-6.6880 Y7.6287
G01 X-6.6532 Y7.7024
G01 X-6.6257 Y7.7791
G01 X-6.6059 Y7.8581
G01 X-6.5940 Y7.9386
G01 X-6.5900 Y8.0200
G01 X-6.5940 Y8.1014
G01 X-6.6059 Y8.1819
G01 X-6.6257 Y8.2609
G01 X-6.6532 Y8.3376
G01 X-6.6880 Y8.4113
G01 X-6.7299 Y8.4811
G01 X-6.7784 Y8.5465
G01 X-6.8331 Y8.6069
G01 X-6.8935 Y8.6616
G01 X-6.9589 Y8.7101
G01 X-7.0287 Y8.7520
G01 X-7.1024 Y8.7868
G01 X-7.1791 Y8.8143
G01 X-7.2581 Y8.8341
G01 X-7.3386 Y8.8460
G01 X-7.4200 Y8.8500
G01 X-7.5014 Y8.8460
G01 X-7.5819 Y8.8341
G01 X-7.6609 Y8.8143
G01 X-7.7376 Y8.7868
G01 X-7.8113 Y8.7520
G01 X-7.8811 Y8.7101
G01 X-7.8915 Y8.7024
G01 X-12.8154 Y8.7024
G01 X-14.1976 Y10.0847
G01 X-14.1976 Y23.9840
G01 X-13.9440 Y23.9840
G01 X-13.9440 Y26.0160
G01 X-15.9760 Y26.0160
G00 Z2.0000
G00 X-22.2384 Y25.4687
G01 F60.00
G01 Z-2.4000
G01 F120.00
G01 X-22.2886 Y25.4133
G01 X-22.3332 Y25.3532
G01 X-22.3717 Y25.2890
G01 X-22.4036 Y25.2214
G01 X-22.4288 Y25.1509
G01 X-22.4470 Y25.0784
G01 X-22.4580 Y25.0043
G01 X-22.4617 Y24.9296
G01 X-22.4580 Y24.8549
G01 X-22.4470 Y24.7809
G01 X-22.4288 Y24.7083
G01 X-22.4036 Y24.6379
G01 X-22.3717 Y24.5702
G01 X-22.3332 Y24.5061
G01 X-22.2886 Y24.4460
G01 X-22.2384 Y24.3905
G01 X-22.1829 Y24.3403
G01 X-22.1228 Y24.2957
G01 X-22.0587 Y24.2573
G01 X-21.9910 Y24.2253
G01 X-21.9206 Y24.2001
G01 X-21.8480 Y24.1819
G01 X-21.7740 Y24.1709
G01 X-21.6993 Y24.1672
G01 X-21.6246 Y24.1709
G01 X-21.5506 Y24.1819
G01 X-21.4780 Y24.2001
G01 X-21.4075 Y24.2253
G01 X-21.3814 Y24.2376
G01 X-18.5160 Y24.2376
G01 X-18.5160 Y23.9840
G01 X-16.4840 Y23.9840
G01 X-16.4840 Y26.0160
G01 X-18.5160 Y26.0160
G01 X-18.5160 Y25.7624
G01 X-21.6289 Y25.7624
G01 X-21.7036 Y25.7587
G01 X-21.7776 Y25.7477
G01 X-21.8502 Y25.7296
G01 X-21.9207 Y25.7043
G01 X-21.9883 Y25.6724
G01 X-22.0525 Y25.6339
G01 X-22.1126 Y25.5893
G01 X-22.1680 Y25.5391
G01 X-22.2384 Y25.4687
G00 Z2.0000
G00 X-26.7355 Y24.5176
G01 F60.00
G01 Z-2.4000
G01 F120.00
G01 X-25.9103 Y23.6924
G01 X-25.9103 Y21.0160
G01 X-26.0560 Y21.0160
G01 X-26.0560 Y18.9840
G01 X-24.0240 Y18.9840
G01 X-24.0240 Y21.0160
G01 X-24.3856 Y21.0160
G01 X-24.3856 Y24.0082
G01 X-24.3892 Y24.0829
G01 X-24.4002 Y24.1569
G01 X-24.4184 Y24.2295
G01 X-24.4436 Y24.3000
G01 X-24.4756 Y24.3676
G01 X-24.5141 Y24.4318
G01 X-24.5586 Y24.4919
G01 X-24.6089 Y24.5473
G01 X-25.8807 Y25.8191
G01 X-25.9361 Y25.8693
G01 X-25.9962 Y25.9139
G01 X-26.0604 Y25.9524
G01 X-26.1280 Y25.9843
G01 X-26.1984 Y26.0096
G01 X-26.2710 Y26.0277
G01 X-26.3450 Y26.0387
G01 X-26.4197 Y26.0424
G01 X-32.4600 Y26.0424
G01 X-32.5347 Y26.0387
G01 X-32.6087 Y26.0277
G01 X-32.6813 Y26.0096
G01 X-32.7518 Y25.9843
G01 X-32.8194 Y25.9524
G01 X-32.8836 Y25.9139
G01 X-32.9436 Y25.8693
G01 X-32.9991 Y25.8191
G01 X-33.0493 Y25.7636
G01 X-33.0939 Y25.7036
G01 X-33.1324 Y25.6394
G01 X-33.1643 Y25.5718
G01 X-33.1896 Y25.5013
G01 X-33.2077 Y25.4287
G01 X-33.2187 Y25.3547
G01 X-33.2224 Y25.2800
G01 X-33.2187 Y25.2053
G01 X-33.2077 Y25.1313
G01 X-33.1896 Y25.0587
G01 X-33.1643 Y24.9882
G01 X-33.1324 Y24.9206
G01 X-33.0939 Y24.8564
G01 X-33.0493 Y24.7964
G01 X-32.9991 Y24.7409
G01 X-32.9436 Y24.6907
G01 X-32.8836 Y24.6461
G01 X-32.8194 Y24.6076
G01 X-32.7518 Y24.5757
G01 X-32.6813 Y24.5504
G01 X-32.6087 Y24.5323
G01 X-32.5347 Y24.5213
G01 X-32.4600 Y24.5176
G01 X-26.7355 Y24.5176
G00 Z2.0000
G00 X-23.5160 Y21.0160
G01 F60.00
G01 Z-2.4000
G01 F120.00
G01 X-23.5160 Y18.9840
G01 X-23.3894 Y18.9840
G01 X-23.3894 Y7.5244
G01 X-23.3852 Y7.4372
G01 X-23.3724 Y7.3509
G01 X-23.3511 Y7.2662
G01 X-23.3217 Y7.1840
G01 X-23.2844 Y7.1051
G01 X-23.2395 Y7.0303
G01 X-23.1875 Y6.9602
G01 X-23.1289 Y6.8955
G01 X-16.0332 Y-0.2002
G01 X-15.9686 Y-0.2588
G01 X-15.8984 Y-0.3108
G01 X-15.8236 Y-0.3557
G01 X-15.7447 Y-0.3930
G01 X-15.6625 Y-0.4224
G01 X-15.5778 Y-0.4436
G01 X-15.4915 Y-0.4564
G01 X-15.4043 Y-0.4607
G01 X-7.6399 Y-0.4607
G01 X-7.5935 Y-0.4724
G01 X-7.5072 Y-0.4852
G01 X-7.4200 Y-0.4894
G01 X-7.3328 Y-0.4852
G01 X-7.2465 Y-0.4724
G01 X-7.1618 Y-0.4511
G01 X-7.0796 Y-0.4217
G01 X-7.0007 Y-0.3844
G01 X-6.9259 Y-0.3395
G01 X-6.8557 Y-0.2875
G01 X-6.7911 Y-0.2289
G01 X-6.7325 Y-0.1643
G01 X-6.6805 Y-0.0941
G01 X-6.6356 Y-0.0193
G01 X-6.5983 Y0.0596
G01 X-6.5689 Y0.1418
G01 X-6.5476 Y0.2265
G01 X-6.5348 Y0.3128
G01 X-6.5306 Y0.4000
G01 X-6.5348 Y0.4872
G01 X-6.5476 Y0.5735
G01 X-6.5689 Y0.6582
G01 X-6.5983 Y0.7404
G01 X-6.6356 Y0.8193
G01 X-6.6805 Y0.8941
G01 X-6.7325 Y0.9643
G01 X-6.7911 Y1.0289
G01 X-6.8198 Y1.0577
G01 X-6.8845 Y1.1163
G01 X-6.9546 Y1.1683
G01 X-7.0294 Y1.2131
G01 X-7.1083 Y1.2505
G01 X-7.1905 Y1.2799
G01 X-7.2752 Y1.3011
G01 X-7.3615 Y1.3139
G01 X-7.4487 Y1.3182
G01 X-15.0359 Y1.3182
G01 X-21.6106 Y7.8928
G01 X-21.6106 Y18.9840
G01 X-21.4840 Y18.9840
G01 X-21.4840 Y21.0160
G01 X-23.5160 Y21.0160
G00 Z2.0000
G00 X-34.5448 Y15.7624
G01 F60.00
G01 Z-2.4000
G01 F120.00
G01 X-34.5809 Y15.7840
G01 X-34.6598 Y15.8213
G01 X-34.7419 Y15.8507
G01 X-34.8266 Y15.8719
G01 X-34.9129 Y15.8847
G01 X-35.0000 Y15.8890
G01 X-35.0871 Y15.8847
G01 X-35.1734 Y15.8719
G01 X-35.2581 Y15.8507
G01 X-35.3402 Y15.8213
G01 X-35.4191 Y15.7840
G01 X-35.4939 Y15.7392
G01 X-35.5640 Y15.6872
G01 X-35.6286 Y15.6286
G01 X-35.6872 Y15.5640
G01 X-35.7392 Y15.4939
G01 X-35.7840 Y15.4191
G01 X-35.8213 Y15.3402
G01 X-35.8507 Y15.2581
G01 X-35.8719 Y15.1734
G01 X-35.8847 Y15.0871
G01 X-35.8890 Y15.0000
G01 X-35.8847 Y14.9129
G01 X-35.8719 Y14.8266
G01 X-35.8507 Y14.7419
G01 X-35.8213 Y14.6598
G01 X-35.7840 Y14.5809
G01 X-35.7392 Y14.5061
G01 X-35.6872 Y14.4360
G01 X-35.6286 Y14.3714
G01 X-35.5640 Y14.3128
G01 X-35.4939 Y14.2608
G01 X-35.4191 Y14.2160
G01 X-35.3402 Y14.1787
G01 X-35.2581 Y14.1493
G01 X-35.1734 Y14.1281
G01 X-35.0871 Y14.1153
G01 X-35.0000 Y14.1110
G01 X-34.9129 Y14.1153
G01 X-34.8266 Y14.1281
G01 X-34.7419 Y14.1493
G01 X-34.6598 Y14.1787
G01 X-34.5809 Y14.2160
G01 X-34.5448 Y14.2376
G01 X-33.8082 Y14.2376
G01 X-33.7335 Y14.2413
G01 X-33.6595 Y14.2523
G01 X-33.5869 Y14.2704
G01 X-33.5165 Y14.2957
G01 X-33.4488 Y14.3276
G01 X-33.3847 Y14.3661
G01 X-33.3246 Y14.4107
G01 X-33.2691 Y14.4609
G01 X-32.0897 Y15.6404
G01 X-32.0394 Y15.6958
G01 X-31.9949 Y15.7559
G01 X-31.9564 Y15.8201
G01 X-31.9244 Y15.8877
G01 X-31.8992 Y15.9581
G01 X-31.8810 Y16.0307
G01 X-31.8701 Y16.1047
G01 X-31.8664 Y16.1795
G01 X-31.8664 Y17.1821
G01 X-31.8261 Y17.2364
G01 X-31.7876 Y17.3006
G01 X-31.7557 Y17.3682
G01 X-31.7304 Y17.4387
G01 X-31.7123 Y17.5113
G01 X-31.7013 Y17.5853
G01 X-31.6976 Y17.6600
G01 X-31.7013 Y17.7347
G01 X-31.7123 Y17.8087
G01 X-31.7304 Y17.8813
G01 X-31.7557 Y17.9518
G01 X-31.7876 Y18.0194
G01 X-31.8261 Y18.0836
G01 X-31.8707 Y18.1436
G01 X-31.9209 Y18.1991
G01 X-31.9764 Y18.2493
G01 X-32.0364 Y18.2939
G01 X-32.1006 Y18.3324
G01 X-32.1682 Y18.3643
G01 X-32.2387 Y18.3896
G01 X-32.3113 Y18.4077
G01 X-32.3853 Y18.4187
G01 X-32.4600 Y18.4224
G01 X-32.5347 Y18.4187
G01 X-32.6087 Y18.4077
G01 X-32.6813 Y18.3896
G01 X-32.7518 Y18.3643
G01 X-32.8194 Y18.3324
G01 X-32.8836 Y18.2939
G01 X-32.9436 Y18.2493
G01 X-32.9991 Y18.1991
G01 X-33.1679 Y18.0303
G01 X-33.2181 Y17.9749
G01 X-33.2627 Y17.9148
G01 X-33.3011 Y17.8506
G01 X-33.3331 Y17.7830
G01 X-33.3583 Y17.7125
G01 X-33.3765 Y17.6400
G01 X-33.3875 Y17.5660
G01 X-33.3912 Y17.4912
G01 X-33.3912 Y16.4952
G01 X-34.1240 Y15.7624
G01 X-34.5448 Y15.7624
G00 Z2.0000
G00 X-35.6350 Y8.3350
G01 F60.00
G01 Z-2.4000
G01 F120.00
G01 X-35.6350 Y8.1217
G01 X-35.6724 Y8.0594
G01 X-35.7043 Y7.9918
G01 X-35.7296 Y7.9213
G01 X-35.7477 Y7.8487
G01 X-35.7587 Y7.7747
G01 X-35.7624 Y7.7000
G01 X-35.7587 Y7.6253
G01 X-35.7477 Y7.5513
G01 X-35.7296 Y7.4787
G01 X-35.7043 Y7.4082
G01 X-35.6724 Y7.3406
G01 X-35.6350 Y7.2783
G01 X-35.6350 Y7.0650
G01 X-35.4432 Y7.0650
G01 X-33.2322 Y4.8541
G01 X-33.1768 Y4.8038
G01 X-33.1167 Y4.7593
G01 X-33.0525 Y4.7208
G01 X-32.9849 Y4.6888
G01 X-32.9145 Y4.6636
G01 X-32.8419 Y4.6454
G01 X-32.7679 Y4.6344
G01 X-32.6931 Y4.6308
G01 X-29.2911 Y4.6308
G01 X-28.3460 Y3.6856
G01 X-28.3460 Y-4.5508
G01 X-28.3640 Y-4.5809
G01 X-28.4013 Y-4.6598
G01 X-28.4307 Y-4.7419
G01 X-28.4519 Y-4.8266
G01 X-28.4647 Y-4.9129
G01 X-28.4690 Y-5.0000
G01 X-28.4647 Y-5.0871
G01 X-28.4519 Y-5.1734
G01 X-28.4307 Y-5.2581
G01 X-28.4013 Y-5.3402
G01 X-28.3640 Y-5.4191
G01 X-28.3192 Y-5.4939
G01 X-28.2672 Y-5.5640
G01 X-28.2086 Y-5.6286
G01 X-28.1440 Y-5.6872
G01 X-28.0739 Y-5.7392
G01 X-27.9991 Y-5.7840
G01 X-27.9202 Y-5.8213
G01 X-27.8381 Y-5.8507
G01 X-27.7534 Y-5.8719
G01 X-27.6671 Y-5.8847
G01 X-27.5800 Y-5.8890
G01 X-27.4929 Y-5.8847
G01 X-27.4066 Y-5.8719
G01 X-27.3219 Y-5.8507
G01 X-27.2398 Y-5.8213
G01 X-27.1609 Y-5.7840
G01 X-27.0861 Y-5.7392
G01 X-27.0160 Y-5.6872
G01 X-26.9514 Y-5.6286
G01 X-26.8928 Y-5.5640
G01 X-26.8408 Y-5.4939
G01 X-26.7960 Y-5.4191
G01 X-26.7587 Y-5.3402
G01 X-26.7293 Y-5.2581
G01 X-26.7081 Y-5.1734
G01 X-26.6953 Y-5.0871
G01 X-26.6910 Y-5.0000
G01 X-26.6953 Y-4.9129
G01 X-26.7081 Y-4.8266
G01 X-26.7293 Y-4.7419
G01 X-26.7587 Y-4.6598
G01 X-26.7960 Y-4.5809
G01 X-26.8212 Y-4.5389
G01 X-26.8212 Y4.0014
G01 X-26.8249 Y4.0761
G01 X-26.8358 Y4.1501
G01 X-26.8540 Y4.2227
G01 X-26.8792 Y4.2931
G01 X-26.9112 Y4.3608
G01 X-26.9497 Y4.4249
G01 X-26.9942 Y4.4850
G01 X-27.0445 Y4.5405
G01 X-28.4363 Y5.9322
G01 X-28.4917 Y5.9825
G01 X-28.5518 Y6.0270
G01 X-28.6160 Y6.0655
G01 X-28.6836 Y6.0975
G01 X-28.7540 Y6.1227
G01 X-28.8266 Y6.1409
G01 X-28.9006 Y6.1519
G01 X-28.9754 Y6.1555
G01 X-32.3774 Y6.1555
G01 X-34.3650 Y8.1432
G01 X-34.3650 Y8.3350
G01 X-34.5783 Y8.3350
G01 X-34.6406 Y8.3724
G01 X-34.7082 Y8.4043
G01 X-34.7787 Y8.4296
G01 X-34.8513 Y8.4477
G01 X-34.9253 Y8.4587
G01 X-35.0000 Y8.4624
G01 X-35.0747 Y8.4587
G01 X-35.1487 Y8.4477
G01 X-35.2213 Y8.4296
G01 X-35.2918 Y8.4043
G01 X-35.3594 Y8.3724
G01 X-35.4217 Y8.3350
G01 X-35.6350 Y8.3350
G00 Z2.0000
G00 X-26.2918 Y6.9376
G01 F60.00
G01 Z-2.4000
G01 F120.00
G01 X-25.7364 Y6.3822
G01 X-25.7364 Y3.4360
G01 X-26.0160 Y3.4360
G01 X-26.0160 Y1.4040
G01 X-23.9840 Y1.4040
G01 X-23.9840 Y3.4360
G01 X-24.2116 Y3.4360
G01 X-24.2116 Y6.6979
G01 X-24.2153 Y6.7727
G01 X-24.2262 Y6.8467
G01 X-24.2444 Y6.9192
G01 X-24.2696 Y6.9897
G01 X-24.3016 Y7.0573
G01 X-24.3401 Y7.1215
G01 X-24.3847 Y7.1816
G01 X-24.4349 Y7.2370
G01 X-25.4370 Y8.2391
G01 X-25.4924 Y8.2893
G01 X-25.5525 Y8.3339
G01 X-25.6167 Y8.3724
G01 X-25.6843 Y8.4043
G01 X-25.7547 Y8.4296
G01 X-25.8273 Y8.4477
G01 X-25.9013 Y8.4587
G01 X-25.9760 Y8.4624
G01 X-32.4600 Y8.4624
G01 X-32.5347 Y8.4587
G01 X-32.6087 Y8.4477
G01 X-32.6813 Y8.4296
G01 X-32.7518 Y8.4043
G01 X-32.8194 Y8.3724
G01 X-32.8836 Y8.3339
G01 X-32.9436 Y8.2893
G01 X-32.9991 Y8.2391
G01 X-33.0493 Y8.1836
G01 X-33.0939 Y8.1236
G01 X-33.1324 Y8.0594
G01 X-33.1643 Y7.9918
G01 X-33.1896 Y7.9213
G01 X-33.2077 Y7.8487
G01 X-33.2187 Y7.7747
G01 X-33.2224 Y7.7000
G01 X-33.2187 Y7.6253
G01 X-33.2077 Y7.5513
G01 X-33.1896 Y7.4787
G01 X-33.1643 Y7.4082
G01 X-33.1324 Y7.3406
G01 X-33.0939 Y7.2764
G01 X-33.0493 Y7.2164
G01 X-32.9991 Y7.1609
G01 X-32.9436 Y7.1107
G01 X-32.8836 Y7.0661
G01 X-32.8194 Y7.0276
G01 X-32.7518 Y6.9957
G01 X-32.6813 Y6.9704
G01 X-32.6087 Y6.9523
G01 X-32.5347 Y6.9413
G01 X-32.4600 Y6.9376
G01 X-26.2918 Y6.9376
G00 Z2.0000
G00 X-23.4760 Y3.4360
G01 F60.00
G01 Z-2.4000
G01 F120.00
G01 X-23.4760 Y1.4040
G01 X-22.7019 Y1.4040
G01 X-18.5347 Y-2.7631
G01 X-18.4701 Y-2.8217
G01 X-18.3999 Y-2.8737
G01 X-18.3251 Y-2.9186
G01 X-18.2462 Y-2.9559
G01 X-18.1640 Y-2.9853
G01 X-18.0793 Y-3.0066
G01 X-17.9930 Y-3.0194
G01 X-17.9058 Y-3.0236
G01 X-7.5174 Y-3.0236
G01 X-7.5072 Y-3.0252
G01 X-7.4200 Y-3.0294
G01 X-7.3328 Y-3.0252
G01 X-7.2465 Y-3.0124
G01 X-7.1618 Y-2.9911
G01 X-7.0796 Y-2.9617
G01 X-7.0007 Y-2.9244
G01 X-6.9259 Y-2.8795
G01 X-6.8557 Y-2.8275
G01 X-6.7911 Y-2.7689
G01 X-6.7325 Y-2.7043
G01 X-6.6805 Y-2.6341
G01 X-6.6356 Y-2.5593
G01 X-6.5983 Y-2.4804
G01 X-6.5689 Y-2.3982
G01 X-6.5476 Y-2.3135
G01 X-6.5348 Y-2.2272
G01 X-6.5306 Y-2.1400
G01 X-6.5348 Y-2.0528
G01 X-6.5476 Y-1.9665
G01 X-6.5689 Y-1.8818
G01 X-6.5983 Y-1.7996
G01 X-6.6356 Y-1.7207
G01 X-6.6805 Y-1.6459
G01 X-6.7325 Y-1.5757
G01 X-6.7911 Y-1.5111
G01 X-6.7969 Y-1.5053
G01 X-6.8615 Y-1.4467
G01 X-6.9317 Y-1.3947
G01 X-7.0065 Y-1.3498
G01 X-7.0854 Y-1.3125
G01 X-7.1676 Y-1.2831
G01 X-7.2523 Y-1.2618
G01 X-7.3386 Y-1.2490
G01 X-7.4258 Y-1.2448
G01 X-17.5374 Y-1.2448
G01 X-21.4440 Y2.6619
G01 X-21.4440 Y3.4360
G01 X-23.4760 Y3.4360
G00 Z2.0000
G00 X-33.2224 Y-2.1197
G01 F60.00
G01 Z-2.4000
G01 F120.00
G01 X-33.2413 Y-2.1598
G01 X-33.2707 Y-2.2419
G01 X-33.2919 Y-2.3266
G01 X-33.3047 Y-2.4129
G01 X-33.3090 Y-2.5000
G01 X-33.3047 Y-2.5871
G01 X-33.2919 Y-2.6734
G01 X-33.2707 Y-2.7581
G01 X-33.2413 Y-2.8402
G01 X-33.2040 Y-2.9191
G01 X-33.1592 Y-2.9939
G01 X-33.1072 Y-3.0640
G01 X-33.0486 Y-3.1286
G01 X-32.9840 Y-3.1872
G01 X-32.9139 Y-3.2392
G01 X-32.8391 Y-3.2840
G01 X-32.7602 Y-3.3213
G01 X-32.6781 Y-3.3507
G01 X-32.5934 Y-3.3719
G01 X-32.5071 Y-3.3847
G01 X-32.4200 Y-3.3890
G01 X-32.3329 Y-3.3847
G01 X-32.2466 Y-3.3719
G01 X-32.1619 Y-3.3507
G01 X-32.0798 Y-3.3213
G01 X-32.0009 Y-3.2840
G01 X-31.9261 Y-3.2392
G01 X-31.8560 Y-3.1872
G01 X-31.7914 Y-3.1286
G01 X-31.7328 Y-3.0640
G01 X-31.6808 Y-2.9939
G01 X-31.6360 Y-2.9191
G01 X-31.5987 Y-2.8402
G01 X-31.5693 Y-2.7581
G01 X-31.5481 Y-2.6734
G01 X-31.5353 Y-2.5871
G01 X-31.5310 Y-2.5000
G01 X-31.5353 Y-2.4129
G01 X-31.5481 Y-2.3266
G01 X-31.5693 Y-2.2419
G01 X-31.5987 Y-2.1598
G01 X-31.6360 Y-2.0809
G01 X-31.6808 Y-2.0061
G01 X-31.6976 Y-1.9835
G01 X-31.6976 Y0.0800
G01 X-31.7013 Y0.1547
G01 X-31.7123 Y0.2287
G01 X-31.7304 Y0.3013
G01 X-31.7557 Y0.3718
G01 X-31.7876 Y0.4394
G01 X-31.8261 Y0.5036
G01 X-31.8707 Y0.5636
G01 X-31.9209 Y0.6191
G01 X-31.9764 Y0.6693
G01 X-32.0364 Y0.7139
G01 X-32.1006 Y0.7524
G01 X-32.1682 Y0.7843
G01 X-32.2387 Y0.8096
G01 X-32.3113 Y0.8277
G01 X-32.3853 Y0.8387
G01 X-32.4600 Y0.8424
G01 X-32.5347 Y0.8387
G01 X-32.6087 Y0.8277
G01 X-32.6813 Y0.8096
G01 X-32.7518 Y0.7843
G01 X-32.8194 Y0.7524
G01 X-32.8836 Y0.7139
G01 X-32.9436 Y0.6693
G01 X-32.9991 Y0.6191
G01 X-33.0493 Y0.5636
G01 X-33.0939 Y0.5036
G01 X-33.1324 Y0.4394
G01 X-33.1643 Y0.3718
G01 X-33.1896 Y0.3013
G01 X-33.2077 Y0.2287
G01 X-33.2187 Y0.1547
G01 X-33.2224 Y0.0800
G01 X-33.2224 Y-2.1197
G00 Z2.0000
G00 X-35.5950 Y-8.9650
G01 F60.00
G01 Z-2.4000
G01 F120.00
G01 X-35.5950 Y-9.1783
G01 X-35.6324 Y-9.2406
G01 X-35.6643 Y-9.3082
G01 X-35.6896 Y-9.3787
G01 X-35.7077 Y-9.4513
G01 X-35.7187 Y-9.5253
G01 X-35.7224 Y-9.6000
G01 X-35.7187 Y-9.6747
G01 X-35.7077 Y-9.7487
G01 X-35.6896 Y-9.8213
G01 X-35.6643 Y-9.8918
G01 X-35.6324 Y-9.9594
G01 X-35.5950 Y-10.0217
G01 X-35.5950 Y-10.2350
G01 X-35.4032 Y-10.2350
G01 X-33.5299 Y-12.1083
G01 X-33.4745 Y-12.1585
G01 X-33.4144 Y-12.2031
G01 X-33.3502 Y-12.2415
G01 X-33.2826 Y-12.2735
G01 X-33.2121 Y-12.2987
G01 X-33.1396 Y-12.3169
G01 X-33.0656 Y-12.3279
G01 X-32.9908 Y-12.3316
G01 X-28.9432 Y-12.3316
G01 X-28.2624 Y-13.0124
G01 X-28.2624 Y-22.2186
G01 X-28.2707 Y-22.2419
G01 X-28.2919 Y-22.3266
G01 X-28.3047 Y-22.4129
G01 X-28.3090 Y-22.5000
G01 X-28.3047 Y-22.5871
G01 X-28.2919 Y-22.6734
G01 X-28.2707 Y-22.7581
G01 X-28.2413 Y-22.8402
G01 X-28.2040 Y-22.9191
G01 X-28.1592 Y-22.9939
G01 X-28.1072 Y-23.0640
G01 X-28.0486 Y-23.1286
G01 X-27.9840 Y-23.1872
G01 X-27.9139 Y-23.2392
G01 X-27.8391 Y-23.2840
G01 X-27.7602 Y-23.3213
G01 X-27.6781 Y-23.3507
G01 X-27.5934 Y-23.3719
G01 X-27.5071 Y-23.3847
G01 X-27.4200 Y-23.3890
G01 X-27.3329 Y-23.3847
G01 X-27.2466 Y-23.3719
G01 X-27.1619 Y-23.3507
G01 X-27.0798 Y-23.3213
G01 X-27.0009 Y-23.2840
G01 X-26.9261 Y-23.2392
G01 X-26.8560 Y-23.1872
G01 X-26.7914 Y-23.1286
G01 X-26.7328 Y-23.0640
G01 X-26.6808 Y-22.9939
G01 X-26.6360 Y-22.9191
G01 X-26.5987 Y-22.8402
G01 X-26.5693 Y-22.7581
G01 X-26.5481 Y-22.6734
G01 X-26.5353 Y-22.5871
G01 X-26.5310 Y-22.5000
G01 X-26.5353 Y-22.4129
G01 X-26.5481 Y-22.3266
G01 X-26.5693 Y-22.2419
G01 X-26.5987 Y-22.1598
G01 X-26.6360 Y-22.0809
G01 X-26.6808 Y-22.0061
G01 X-26.7328 Y-21.9360
G01 X-26.7376 Y-21.9307
G01 X-26.7376 Y-12.5000
G01 X-26.7413 Y-12.4253
G01 X-26.7523 Y-12.3513
G01 X-26.7704 Y-12.2787
G01 X-26.7957 Y-12.2082
G01 X-26.8276 Y-12.1406
G01 X-26.8661 Y-12.0764
G01 X-26.9107 Y-12.0164
G01 X-26.9609 Y-11.9609
G01 X-27.0164 Y-11.9107
G01 X-27.0764 Y-11.8661
G01 X-27.1406 Y-11.8276
G01 X-27.2082 Y-11.7957
G01 X-27.2787 Y-11.7704
G01 X-27.3513 Y-11.7523
G01 X-27.3687 Y-11.7497
G01 X-28.0883 Y-11.0301
G01 X-28.1438 Y-10.9798
G01 X-28.2038 Y-10.9353
G01 X-28.2680 Y-10.8968
G01 X-28.3356 Y-10.8648
G01 X-28.4061 Y-10.8396
G01 X-28.4787 Y-10.8214
G01 X-28.5527 Y-10.8105
G01 X-28.6274 Y-10.8068
G01 X-32.6750 Y-10.8068
G01 X-34.3250 Y-9.1568
G01 X-34.3250 Y-8.9650
G01 X-34.5383 Y-8.9650
G01 X-34.6006 Y-8.9276
G01 X-34.6682 Y-8.8957
G01 X-34.7387 Y-8.8704
G01 X-34.8113 Y-8.8523
G01 X-34.8853 Y-8.8413
G01 X-34.9600 Y-8.8376
G01 X-35.0347 Y-8.8413
G01 X-35.1087 Y-8.8523
G01 X-35.1813 Y-8.8704
G01 X-35.2518 Y-8.8957
G01 X-35.3194 Y-8.9276
G01 X-35.3817 Y-8.9650
G01 X-35.5950 Y-8.9650
G00 Z2.0000
G00 X-26.7370 Y-10.3624
G01 F60.00
G01 Z-2.4000
G01 F120.00
G01 X-25.9973 Y-11.1021
G01 X-25.9973 Y-13.9840
G01 X-26.0560 Y-13.9840
G01 X-26.0560 Y-16.0160
G01 X-24.0240 Y-16.0160
G01 X-24.0240 Y-13.9840
G01 X-24.4726 Y-13.9840
G01 X-24.4726 Y-10.7863
G01 X-24.4762 Y-10.7116
G01 X-24.4872 Y-10.6376
G01 X-24.5054 Y-10.5650
G01 X-24.5306 Y-10.4945
G01 X-24.5626 Y-10.4269
G01 X-24.6010 Y-10.3627
G01 X-24.6456 Y-10.3027
G01 X-24.6959 Y-10.2472
G01 X-25.8822 Y-9.0609
G01 X-25.9376 Y-9.0107
G01 X-25.9977 Y-8.9661
G01 X-26.0619 Y-8.9276
G01 X-26.1295 Y-8.8957
G01 X-26.1999 Y-8.8704
G01 X-26.2725 Y-8.8523
G01 X-26.3465 Y-8.8413
G01 X-26.4212 Y-8.8376
G01 X-32.4200 Y-8.8376
G01 X-32.4947 Y-8.8413
G01 X-32.5687 Y-8.8523
G01 X-32.6413 Y-8.8704
G01 X-32.7118 Y-8.8957
G01 X-32.7794 Y-8.9276
G01 X-32.8436 Y-8.9661
G01 X-32.9036 Y-9.0107
G01 X-32.9591 Y-9.0609
G01 X-33.0093 Y-9.1164
G01 X-33.0539 Y-9.1764
G01 X-33.0924 Y-9.2406
G01 X-33.1243 Y-9.3082
G01 X-33.1496 Y-9.3787
G01 X-33.1677 Y-9.4513
G01 X-33.1787 Y-9.5253
G01 X-33.1824 Y-9.6000
G01 X-33.1787 Y-9.6747
G01 X-33.1677 Y-9.7487
G01 X-33.1496 Y-9.8213
G01 X-33.1243 Y-9.8918
G01 X-33.0924 Y-9.9594
G01 X-33.0539 Y-10.0236
G01 X-33.0093 Y-10.0836
G01 X-32.9591 Y-10.1391
G01 X-32.9036 Y-10.1893
G01 X-32.8436 Y-10.2339
G01 X-32.7794 Y-10.2724
G01 X-32.7118 Y-10.3043
G01 X-32.6413 Y-10.3296
G01 X-32.5687 Y-10.3477
G01 X-32.4947 Y-10.3587
G01 X-32.4200 Y-10.3624
G01 X-26.7370 Y-10.3624
G00 Z2.0000
G00 X-23.5160 Y-16.0160
G01 F60.00
G01 Z-2.4000
G01 F120.00
G01 X-21.4840 Y-16.0160
G01 X-21.4840 Y-13.9840
G01 X-21.6106 Y-13.9840
G01 X-21.6106 Y-10.2426
G01 X-16.7677 Y-5.3998
G01 X-7.9408 Y-5.3998
G01 X-7.9141 Y-5.4195
G01 X-7.8393 Y-5.4644
G01 X-7.7604 Y-5.5017
G01 X-7.6782 Y-5.5311
G01 X-7.5935 Y-5.5524
G01 X-7.5072 Y-5.5652
G01 X-7.4200 Y-5.5694
G01 X-7.3328 Y-5.5652
G01 X-7.2465 Y-5.5524
G01 X-7.1618 Y-5.5311
G01 X-7.0796 Y-5.5017
G01 X-7.0007 Y-5.4644
G01 X-6.9259 Y-5.4195
G01 X-6.8557 Y-5.3675
G01 X-6.7911 Y-5.3089
G01 X-6.7325 Y-5.2443
G01 X-6.6805 Y-5.1741
G01 X-6.6356 Y-5.0993
G01 X-6.5983 Y-5.0204
G01 X-6.5689 Y-4.9382
G01 X-6.5476 Y-4.8535
G01 X-6.5348 Y-4.7672
G01 X-6.5306 Y-4.6800
G01 X-6.5348 Y-4.5928
G01 X-6.5476 Y-4.5065
G01 X-6.5689 Y-4.4218
G01 X-6.5983 Y-4.3396
G01 X-6.6356 Y-4.2607
G01 X-6.6805 Y-4.1859
G01 X-6.7325 Y-4.1157
G01 X-6.7911 Y-4.0511
G01 X-6.9607 Y-3.8814
G01 X-7.0254 Y-3.8228
G01 X-7.0955 Y-3.7708
G01 X-7.1704 Y-3.7259
G01 X-7.2493 Y-3.6886
G01 X-7.3315 Y-3.6592
G01 X-7.4161 Y-3.6380
G01 X-7.5025 Y-3.6252
G01 X-7.5897 Y-3.6209
G01 X-17.1361 Y-3.6209
G01 X-17.2233 Y-3.6252
G01 X-17.3097 Y-3.6380
G01 X-17.3943 Y-3.6592
G01 X-17.4765 Y-3.6886
G01 X-17.5554 Y-3.7259
G01 X-17.6303 Y-3.7708
G01 X-17.7004 Y-3.8228
G01 X-17.7651 Y-3.8814
G01 X-23.1289 Y-9.2453
G01 X-23.1875 Y-9.3099
G01 X-23.2395 Y-9.3801
G01 X-23.2844 Y-9.4549
G01 X-23.3217 Y-9.5338
G01 X-23.3511 Y-9.6160
G01 X-23.3724 Y-9.7007
G01 X-23.3852 Y-9.7870
G01 X-23.3894 Y-9.8742
G01 X-23.3894 Y-13.9840
G01 X-23.5160 Y-13.9840
G01 X-23.5160 Y-16.0160
G00 Z2.0000
G00 X-33.1824 Y-19.5448
G01 F60.00
G01 Z-2.4000
G01 F120.00
G01 X-33.2040 Y-19.5809
G01 X-33.2413 Y-19.6598
G01 X-33.2707 Y-19.7419
G01 X-33.2919 Y-19.8266
G01 X-33.3047 Y-19.9129
G01 X-33.3090 Y-20.0000
G01 X-33.3047 Y-20.0871
G01 X-33.2919 Y-20.1734
G01 X-33.2707 Y-20.2581
G01 X-33.2413 Y-20.3402
G01 X-33.2040 Y-20.4191
G01 X-33.1592 Y-20.4939
G01 X-33.1072 Y-20.5640
G01 X-33.0486 Y-20.6286
G01 X-32.9840 Y-20.6872
G01 X-32.9139 Y-20.7392
G01 X-32.8391 Y-20.7840
G01 X-32.7602 Y-20.8213
G01 X-32.6781 Y-20.8507
G01 X-32.5934 Y-20.8719
G01 X-32.5071 Y-20.8847
G01 X-32.4200 Y-20.8890
G01 X-32.3329 Y-20.8847
G01 X-32.2466 Y-20.8719
G01 X-32.1619 Y-20.8507
G01 X-32.0798 Y-20.8213
G01 X-32.0009 Y-20.7840
G01 X-31.9261 Y-20.7392
G01 X-31.8560 Y-20.6872
G01 X-31.7914 Y-20.6286
G01 X-31.7328 Y-20.5640
G01 X-31.6808 Y-20.4939
G01 X-31.6360 Y-20.4191
G01 X-31.5987 Y-20.3402
G01 X-31.5693 Y-20.2581
G01 X-31.5481 Y-20.1734
G01 X-31.5353 Y-20.0871
G01 X-31.5310 Y-20.0000
G01 X-31.5353 Y-19.9129
G01 X-31.5481 Y-19.8266
G01 X-31.5693 Y-19.7419
G01 X-31.5987 Y-19.6598
G01 X-31.6360 Y-19.5809
G01 X-31.6576 Y-19.5448
G01 X-31.6576 Y-17.2200
G01 X-31.6613 Y-17.1453
G01 X-31.6723 Y-17.0713
G01 X-31.6904 Y-16.9987
G01 X-31.7157 Y-16.9282
G01 X-31.7476 Y-16.8606
G01 X-31.7861 Y-16.7964
G01 X-31.8307 Y-16.7364
G01 X-31.8809 Y-16.6809
G01 X-31.9364 Y-16.6307
G01 X-31.9964 Y-16.5861
G01 X-32.0606 Y-16.5476
G01 X-32.1282 Y-16.5157
G01 X-32.1987 Y-16.4904
G01 X-32.2713 Y-16.4723
G01 X-32.3453 Y-16.4613
G01 X-32.4200 Y-16.4576
G01 X-32.4947 Y-16.4613
G01 X-32.5687 Y-16.4723
G01 X-32.6413 Y-16.4904
G01 X-32.7118 Y-16.5157
G01 X-32.7794 Y-16.5476
G01 X-32.8436 Y-16.5861
G01 X-32.9036 Y-16.6307
G01 X-32.9591 Y-16.6809
G01 X-33.0093 Y-16.7364
G01 X-33.0539 Y-16.7964
G01 X-33.0924 Y-16.8606
G01 X-33.1243 Y-16.9282
G01 X-33.1496 Y-16.9987
G01 X-33.1677 Y-17.0713
G01 X-33.1787 Y-17.1453
G01 X-33.1824 Y-17.2200
G01 X-33.1824 Y-19.5448
G00 Z2.0000
G00 X-35.7624 Y-27.8130
G01 F60.00
G01 Z-2.4000
G01 F120.00
G01 X-35.7587 Y-27.8877
G01 X-35.7477 Y-27.9617
G01 X-35.7296 Y-28.0343
G01 X-35.7043 Y-28.1048
G01 X-35.6724 Y-28.1724
G01 X-35.6339 Y-28.2366
G01 X-35.5893 Y-28.2967
G01 X-35.5391 Y-28.3521
G01 X-33.8637 Y-30.0274
G01 X-33.8083 Y-30.0777
G01 X-33.7482 Y-30.1222
G01 X-33.6840 Y-30.1607
G01 X-33.6164 Y-30.1927
G01 X-33.5460 Y-30.2179
G01 X-33.4734 Y-30.2361
G01 X-33.3994 Y-30.2471
G01 X-33.3247 Y-30.2507
G01 X-28.5404 Y-30.2507
G01 X-28.4657 Y-30.2471
G01 X-28.3917 Y-30.2361
G01 X-28.3575 Y-30.2275
G01 X-28.1720 Y-30.4130
G01 X-28.1720 Y-39.5274
G01 X-28.2040 Y-39.5809
G01 X-28.2413 Y-39.6598
G01 X-28.2707 Y-39.7419
G01 X-28.2919 Y-39.8266
G01 X-28.3047 Y-39.9129
G01 X-28.3090 Y-40.0000
G01 X-28.3047 Y-40.0871
G01 X-28.2919 Y-40.1734
G01 X-28.2707 Y-40.2581
G01 X-28.2413 Y-40.3402
G01 X-28.2040 Y-40.4191
G01 X-28.1592 Y-40.4939
G01 X-28.1072 Y-40.5640
G01 X-28.0486 Y-40.6286
G01 X-27.9840 Y-40.6872
G01 X-27.9139 Y-40.7392
G01 X-27.8391 Y-40.7840
G01 X-27.7602 Y-40.8213
G01 X-27.6781 Y-40.8507
G01 X-27.5934 Y-40.8719
G01 X-27.5071 Y-40.8847
G01 X-27.4200 Y-40.8890
G01 X-27.3329 Y-40.8847
G01 X-27.2466 Y-40.8719
G01 X-27.1619 Y-40.8507
G01 X-27.0798 Y-40.8213
G01 X-27.0009 Y-40.7840
G01 X-26.9261 Y-40.7392
G01 X-26.8560 Y-40.6872
G01 X-26.7914 Y-40.6286
G01 X-26.7328 Y-40.5640
G01 X-26.6808 Y-40.4939
G01 X-26.6360 Y-40.4191
G01 X-26.5987 Y-40.3402
G01 X-26.5693 Y-40.2581
G01 X-26.5481 Y-40.1734
G01 X-26.5353 Y-40.0871
G01 X-26.5310 Y-40.0000
G01 X-26.5353 Y-39.9129
G01 X-26.5481 Y-39.8266
G01 X-26.5693 Y-39.7419
G01 X-26.5987 Y-39.6598
G01 X-26.6360 Y-39.5809
G01 X-26.6472 Y-39.5622
G01 X-26.6472 Y-30.0973
G01 X-26.6509 Y-30.0225
G01 X-26.6619 Y-29.9485
G01 X-26.6800 Y-29.8760
G01 X-26.7052 Y-29.8055
G01 X-26.7372 Y-29.7379
G01 X-26.7757 Y-29.6737
G01 X-26.8203 Y-29.6136
G01 X-26.8705 Y-29.5582
G01 X-27.7404 Y-28.6883
G01 X-27.7958 Y-28.6381
G01 X-27.8559 Y-28.5935
G01 X-27.9201 Y-28.5550
G01 X-27.9877 Y-28.5230
G01 X-28.0582 Y-28.4978
G01 X-28.1307 Y-28.4797
G01 X-28.2047 Y-28.4687
G01 X-28.2795 Y-28.4650
G01 X-28.3542 Y-28.4687
G01 X-28.4282 Y-28.4797
G01 X-28.5008 Y-28.4978
G01 X-28.5712 Y-28.5230
G01 X-28.6388 Y-28.5550
G01 X-28.7030 Y-28.5935
G01 X-28.7631 Y-28.6381
G01 X-28.8185 Y-28.6883
G01 X-28.8562 Y-28.7260
G01 X-33.0089 Y-28.7260
G01 X-34.2376 Y-27.4972
G01 X-34.2376 Y-27.3000
G01 X-34.2413 Y-27.2253
G01 X-34.2523 Y-27.1513
G01 X-34.2704 Y-27.0787
G01 X-34.2957 Y-27.0082
G01 X-34.3276 Y-26.9406
G01 X-34.3650 Y-26.8783
G01 X-34.3650 Y-26.6650
G01 X-34.5783 Y-26.6650
G01 X-34.6406 Y-26.6276
G01 X-34.7082 Y-26.5957
G01 X-34.7787 Y-26.5704
G01 X-34.8513 Y-26.5523
G01 X-34.9253 Y-26.5413
G01 X-35.0000 Y-26.5376
G01 X-35.0747 Y-26.5413
G01 X-35.1487 Y-26.5523
G01 X-35.2213 Y-26.5704
G01 X-35.2918 Y-26.5957
G01 X-35.3594 Y-26.6276
G01 X-35.4217 Y-26.6650
G01 X-35.6350 Y-26.6650
G01 X-35.6350 Y-26.8783
G01 X-35.6724 Y-26.9406
G01 X-35.7043 Y-27.0082
G01 X-35.7296 Y-27.0787
G01 X-35.7477 Y-27.1513
G01 X-35.7587 Y-27.2253
G01 X-35.7624 Y-27.3000
G01 X-35.7624 Y-27.8130
G00 Z2.0000
G00 X-26.4343 Y-28.0624
G01 F60.00
G01 Z-2.4000
G01 F120.00
G01 X-25.7364 Y-28.7603
G01 X-25.7364 Y-31.4840
G01 X-26.0560 Y-31.4840
G01 X-26.0560 Y-33.5160
G01 X-24.0240 Y-33.5160
G01 X-24.0240 Y-31.4840
G01 X-24.2116 Y-31.4840
G01 X-24.2116 Y-28.4445
G01 X-24.2153 Y-28.3698
G01 X-24.2262 Y-28.2958
G01 X-24.2444 Y-28.2232
G01 X-24.2696 Y-28.1528
G01 X-24.3016 Y-28.0851
G01 X-24.3401 Y-28.0210
G01 X-24.3847 Y-27.9609
G01 X-24.4349 Y-27.9054
G01 X-25.5794 Y-26.7609
G01 X-25.6349 Y-26.7107
G01 X-25.6949 Y-26.6661
G01 X-25.7591 Y-26.6276
G01 X-25.8267 Y-26.5957
G01 X-25.8972 Y-26.5704
G01 X-25.9698 Y-26.5523
G01 X-26.0438 Y-26.5413
G01 X-26.1185 Y-26.5376
G01 X-32.4600 Y-26.5376
G01 X-32.5347 Y-26.5413
G01 X-32.6087 Y-26.5523
G01 X-32.6813 Y-26.5704
G01 X-32.7518 Y-26.5957
G01 X-32.8194 Y-26.6276
G01 X-32.8836 Y-26.6661
G01 X-32.9436 Y-26.7107
G01 X-32.9991 Y-26.7609
G01 X-33.0493 Y-26.8164
G01 X-33.0939 Y-26.8764
G01 X-33.1324 Y-26.9406
G01 X-33.1643 Y-27.0082
G01 X-33.1896 Y-27.0787
G01 X-33.2077 Y-27.1513
G01 X-33.2187 Y-27.2253
G01 X-33.2224 Y-27.3000
G01 X-33.2187 Y-27.3747
G01 X-33.2077 Y-27.4487
G01 X-33.1896 Y-27.5213
G01 X-33.1643 Y-27.5918
G01 X-33.1324 Y-27.6594
G01 X-33.0939 Y-27.7236
G01 X-33.0493 Y-27.7836
G01 X-32.9991 Y-27.8391
G01 X-32.9436 Y-27.8893
G01 X-32.8836 Y-27.9339
G01 X-32.8194 Y-27.9724
G01 X-32.7518 Y-28.0043
G01 X-32.6813 Y-28.0296
G01 X-32.6087 Y-28.0477
G01 X-32.5347 Y-28.0587
G01 X-32.4600 Y-28.0624
G01 X-26.4343 Y-28.0624
G00 Z2.0000
G00 X-23.5160 Y-31.4840
G01 F60.00
G01 Z-2.4000
G01 F120.00
G01 X-23.5160 Y-33.5160
G01 X-21.4840 Y-33.5160
G01 X-21.4840 Y-31.4840
G01 X-21.6106 Y-31.4840
G01 X-21.6106 Y-20.4021
G01 X-17.8973 Y-16.6889
G01 X-17.8387 Y-16.6242
G01 X-17.7867 Y-16.5541
G01 X-17.7418 Y-16.4792
G01 X-17.7045 Y-16.4003
G01 X-17.6751 Y-16.3181
G01 X-17.6539 Y-16.2335
G01 X-17.6411 Y-16.1471
G01 X-17.6368 Y-16.0599
G01 X-17.6368 Y-10.3563
G01 X-15.3356 Y-8.0551
G01 X-7.7230 Y-8.0551
G01 X-7.6782 Y-8.0711
G01 X-7.5935 Y-8.0924
G01 X-7.5072 Y-8.1052
G01 X-7.4200 Y-8.1094
G01 X-7.3328 Y-8.1052
G01 X-7.2465 Y-8.0924
G01 X-7.1618 Y-8.0711
G01 X-7.0796 Y-8.0417
G01 X-7.0007 Y-8.0044
G01 X-6.9259 Y-7.9595
G01 X-6.8557 Y-7.9075
G01 X-6.7911 Y-7.8489
G01 X-6.7325 Y-7.7843
G01 X-6.6805 Y-7.7141
G01 X-6.6356 Y-7.6393
G01 X-6.5983 Y-7.5604
G01 X-6.5689 Y-7.4782
G01 X-6.5476 Y-7.3935
G01 X-6.5348 Y-7.3072
G01 X-6.5306 Y-7.2200
G01 X-6.5348 Y-7.1328
G01 X-6.5476 Y-7.0465
G01 X-6.5689 Y-6.9618
G01 X-6.5983 Y-6.8796
G01 X-6.6356 Y-6.8007
G01 X-6.6805 Y-6.7259
G01 X-6.7325 Y-6.6557
G01 X-6.7911 Y-6.5911
G01 X-6.8454 Y-6.5367
G01 X-6.9101 Y-6.4781
G01 X-6.9802 Y-6.4261
G01 X-7.0551 Y-6.3812
G01 X-7.1340 Y-6.3439
G01 X-7.2161 Y-6.3145
G01 X-7.3008 Y-6.2933
G01 X-7.3872 Y-6.2805
G01 X-7.4743 Y-6.2762
G01 X-15.7040 Y-6.2762
G01 X-15.7912 Y-6.2805
G01 X-15.8776 Y-6.2933
G01 X-15.9622 Y-6.3145
G01 X-16.0444 Y-6.3439
G01 X-16.1233 Y-6.3812
G01 X-16.1982 Y-6.4261
G01 X-16.2683 Y-6.4781
G01 X-16.3330 Y-6.5367
G01 X-19.1552 Y-9.3590
G01 X-19.2138 Y-9.4236
G01 X-19.2658 Y-9.4937
G01 X-19.3107 Y-9.5686
G01 X-19.3480 Y-9.6475
G01 X-19.3774 Y-9.7297
G01 X-19.3986 Y-9.8144
G01 X-19.4114 Y-9.9007
G01 X-19.4157 Y-9.9879
G01 X-19.4157 Y-15.6915
G01 X-23.1289 Y-19.4047
G01 X-23.1875 Y-19.4694
G01 X-23.2395 Y-19.5395
G01 X-23.2844 Y-19.6144
G01 X-23.3217 Y-19.6933
G01 X-23.3511 Y-19.7755
G01 X-23.3724 Y-19.8602
G01 X-23.3852 Y-19.9465
G01 X-23.3894 Y-20.0337
G01 X-23.3894 Y-31.4840
G01 X-23.5160 Y-31.4840
G00 Z2.0000
G00 X-23.4760 Y-41.0960
G01 F60.00
G01 Z-2.4000
G01 F120.00
G01 X-21.4440 Y-41.0960
G01 X-21.4440 Y-40.1422
G01 X-19.3541 Y-38.0522
G01 X-19.3038 Y-37.9968
G01 X-19.2593 Y-37.9367
G01 X-19.2208 Y-37.8725
G01 X-19.1888 Y-37.8049
G01 X-19.1636 Y-37.7345
G01 X-19.1454 Y-37.6619
G01 X-19.1344 Y-37.5879
G01 X-19.1308 Y-37.5131
G01 X-19.1308 Y-21.8528
G01 X-15.8746 Y-18.5966
G01 X-15.8244 Y-18.5412
G01 X-15.7798 Y-18.4811
G01 X-15.7413 Y-18.4169
G01 X-15.7094 Y-18.3493
G01 X-15.6841 Y-18.2788
G01 X-15.6660 Y-18.2063
G01 X-15.6550 Y-18.1323
G01 X-15.6513 Y-18.0575
G01 X-15.6513 Y-12.2843
G01 X-13.8894 Y-10.5224
G01 X-7.7470 Y-10.5224
G01 X-7.7376 Y-10.5268
G01 X-7.6609 Y-10.5543
G01 X-7.5819 Y-10.5741
G01 X-7.5014 Y-10.5860
G01 X-7.4200 Y-10.5900
G01 X-7.3386 Y-10.5860
G01 X-7.2581 Y-10.5741
G01 X-7.1791 Y-10.5543
G01 X-7.1024 Y-10.5268
G01 X-7.0287 Y-10.4920
G01 X-6.9589 Y-10.4501
G01 X-6.8935 Y-10.4016
G01 X-6.8331 Y-10.3469
G01 X-6.7784 Y-10.2865
G01 X-6.7299 Y-10.2211
G01 X-6.6880 Y-10.1513
G01 X-6.6532 Y-10.0776
G01 X-6.6257 Y-10.0009
G01 X-6.6059 Y-9.9219
G01 X-6.5940 Y-9.8414
G01 X-6.5900 Y-9.7600
G01 X-6.5940 Y-9.6786
G01 X-6.6059 Y-9.5981
G01 X-6.6257 Y-9.5191
G01 X-6.6532 Y-9.4424
G01 X-6.6880 Y-9.3687
G01 X-6.7299 Y-9.2989
G01 X-6.7784 Y-9.2335
G01 X-6.8331 Y-9.1731
G01 X-6.8935 Y-9.1184
G01 X-6.9589 Y-9.0699
G01 X-7.0287 Y-9.0280
G01 X-7.1024 Y-8.9932
G01 X-7.1791 Y-8.9657
G01 X-7.2581 Y-8.9459
G01 X-7.3386 Y-8.9340
G01 X-7.4200 Y-8.9300
G01 X-7.5014 Y-8.9340
G01 X-7.5819 Y-8.9459
G01 X-7.6609 Y-8.9657
G01 X-7.7376 Y-8.9932
G01 X-7.7470 Y-8.9976
G01 X-14.2052 Y-8.9976
G01 X-14.2799 Y-9.0013
G01 X-14.3539 Y-9.0123
G01 X-14.4265 Y-9.0304
G01 X-14.4970 Y-9.0557
G01 X-14.5646 Y-9.0876
G01 X-14.6288 Y-9.1261
G01 X-14.6888 Y-9.1707
G01 X-14.7443 Y-9.2209
G01 X-16.9528 Y-11.4294
G01 X-17.0030 Y-11.4849
G01 X-17.0476 Y-11.5449
G01 X-17.0861 Y-11.6091
G01 X-17.1180 Y-11.6767
G01 X-17.1433 Y-11.7472
G01 X-17.1614 Y-11.8198
G01 X-17.1724 Y-11.8938
G01 X-17.1761 Y-11.9685
G01 X-17.1761 Y-17.7418
G01 X-20.4322 Y-20.9979
G01 X-20.4825 Y-21.0533
G01 X-20.5270 Y-21.1134
G01 X-20.5655 Y-21.1776
G01 X-20.5975 Y-21.2452
G01 X-20.6227 Y-21.3157
G01 X-20.6409 Y-21.3883
G01 X-20.6519 Y-21.4623
G01 X-20.6555 Y-21.5370
G01 X-20.6555 Y-37.1974
G01 X-22.5222 Y-39.0640
G01 X-23.4760 Y-39.0640
G01 X-23.4760 Y-41.0960
G00 Z2.0000
G00 X-18.4360 Y-41.3240
G01 F60.00
G01 Z-2.4000
G01 F120.00
G01 X-18.4360 Y-43.3560
G01 X-16.4040 Y-43.3560
G01 X-16.4040 Y-41.3240
G01 X-18.4360 Y-41.3240
G00 Z2.0000
G00 X-18.4360 Y-46.4040
G01 F60.00
G01 Z-2.4000
G01 F120.00
G01 X-18.4360 Y-47.4097
G01 X-18.4365 Y-47.4200
G01 X-18.4360 Y-47.4303
G01 X-18.4360 Y-48.4360
G01 X-17.4303 Y-48.4360
G01 X-17.4200 Y-48.4365
G01 X-17.4097 Y-48.4360
G01 X-16.4040 Y-48.4360
G01 X-16.4040 Y-48.3565
G01 X-9.9968 Y-48.3565
G01 X-9.9335 Y-48.3724
G01 X-9.8472 Y-48.3852
G01 X-9.7600 Y-48.3894
G01 X-7.5000 Y-48.3894
G01 X-7.4128 Y-48.3852
G01 X-7.3265 Y-48.3724
G01 X-7.2418 Y-48.3511
G01 X-7.1596 Y-48.3217
G01 X-7.0807 Y-48.2844
G01 X-7.0059 Y-48.2395
G01 X-6.9357 Y-48.1875
G01 X-6.8711 Y-48.1289
G01 X-5.9605 Y-47.2183
G01 X-5.9019 Y-47.1537
G01 X-5.8499 Y-47.0835
G01 X-5.8050 Y-47.0087
G01 X-5.7677 Y-46.9298
G01 X-5.7383 Y-46.8476
G01 X-5.7170 Y-46.7629
G01 X-5.7042 Y-46.6766
G01 X-5.7000 Y-46.5894
G01 X-5.7000 Y-42.2587
G01 X-5.7042 Y-42.1715
G01 X-5.7170 Y-42.0851
G01 X-5.7383 Y-42.0005
G01 X-5.7677 Y-41.9183
G01 X-5.8050 Y-41.8394
G01 X-5.8499 Y-41.7645
G01 X-5.9019 Y-41.6944
G01 X-5.9605 Y-41.6297
G01 X-12.2519 Y-35.3383
G01 X-12.2519 Y-14.4448
G01 X-10.9966 Y-13.1894
G01 X-7.4200 Y-13.1894
G01 X-7.3328 Y-13.1852
G01 X-7.2465 Y-13.1724
G01 X-7.1618 Y-13.1511
G01 X-7.0796 Y-13.1217
G01 X-7.0007 Y-13.0844
G01 X-6.9259 Y-13.0395
G01 X-6.8557 Y-12.9875
G01 X-6.7911 Y-12.9289
G01 X-6.7325 Y-12.8643
G01 X-6.6805 Y-12.7941
G01 X-6.6356 Y-12.7193
G01 X-6.5983 Y-12.6404
G01 X-6.5689 Y-12.5582
G01 X-6.5476 Y-12.4735
G01 X-6.5348 Y-12.3872
G01 X-6.5306 Y-12.3000
G01 X-6.5348 Y-12.2128
G01 X-6.5476 Y-12.1265
G01 X-6.5689 Y-12.0418
G01 X-6.5983 Y-11.9596
G01 X-6.6356 Y-11.8807
G01 X-6.6805 Y-11.8059
G01 X-6.7325 Y-11.7357
G01 X-6.7911 Y-11.6711
G01 X-6.8557 Y-11.6125
G01 X-6.9259 Y-11.5605
G01 X-7.0007 Y-11.5156
G01 X-7.0796 Y-11.4783
G01 X-7.1618 Y-11.4489
G01 X-7.2465 Y-11.4276
G01 X-7.3328 Y-11.4148
G01 X-7.4200 Y-11.4106
G01 X-11.3650 Y-11.4106
G01 X-11.4522 Y-11.4148
G01 X-11.5385 Y-11.4276
G01 X-11.6232 Y-11.4489
G01 X-11.7054 Y-11.4783
G01 X-11.7843 Y-11.5156
G01 X-11.8592 Y-11.5605
G01 X-11.9293 Y-11.6125
G01 X-11.9939 Y-11.6711
G01 X-13.7703 Y-13.4474
G01 X-13.8289 Y-13.5121
G01 X-13.8809 Y-13.5822
G01 X-13.9258 Y-13.6570
G01 X-13.9631 Y-13.7360
G01 X-13.9925 Y-13.8181
G01 X-14.0137 Y-13.9028
G01 X-14.0265 Y-13.9891
G01 X-14.0308 Y-14.0763
G01 X-14.0308 Y-35.7067
G01 X-14.0265 Y-35.7939
G01 X-14.0137 Y-35.8802
G01 X-13.9925 Y-35.9649
G01 X-13.9631 Y-36.0471
G01 X-13.9258 Y-36.1260
G01 X-13.8809 Y-36.2009
G01 X-13.8289 Y-36.2710
G01 X-13.7703 Y-36.3356
G01 X-7.4788 Y-42.6271
G01 X-7.4788 Y-46.2210
G01 X-7.8684 Y-46.6106
G01 X-8.9040 Y-46.6106
G01 X-8.9040 Y-46.3240
G01 X-9.9097 Y-46.3240
G01 X-9.9200 Y-46.3235
G01 X-17.3400 Y-46.3235
G01 X-17.4396 Y-46.3284
G01 X-17.5383 Y-46.3430
G01 X-17.6351 Y-46.3673
G01 X-17.7290 Y-46.4009
G01 X-17.7356 Y-46.4040
G01 X-18.4360 Y-46.4040
G00 Z2.0000
G00 X-18.4360 Y-48.9440
G01 F60.00
G01 Z-2.4000
G01 F120.00
G01 X-18.4360 Y-49.9497
G01 X-18.4365 Y-49.9600
G01 X-18.4360 Y-49.9703
G01 X-18.4360 Y-50.9760
G01 X-17.4303 Y-50.9760
G01 X-17.4200 Y-50.9765
G01 X-10.0000 Y-50.9765
G01 X-9.9004 Y-50.9716
G01 X-9.8017 Y-50.9570
G01 X-9.7049 Y-50.9327
G01 X-9.6110 Y-50.8991
G01 X-9.6044 Y-50.8960
G01 X-8.9040 Y-50.8960
G01 X-8.9040 Y-50.7694
G01 X-7.0063 Y-50.7694
G01 X-6.9191 Y-50.7652
G01 X-6.8328 Y-50.7524
G01 X-6.7481 Y-50.7311
G01 X-6.6660 Y-50.7017
G01 X-6.5870 Y-50.6644
G01 X-6.5122 Y-50.6195
G01 X-6.4421 Y-50.5675
G01 X-6.3774 Y-50.5089
G01 X-3.9285 Y-48.0600
G01 X-3.8699 Y-47.9953
G01 X-3.8179 Y-47.9252
G01 X-3.7730 Y-47.8504
G01 X-3.7357 Y-47.7714
G01 X-3.7063 Y-47.6893
G01 X-3.6850 Y-47.6046
G01 X-3.6722 Y-47.5183
G01 X-3.6680 Y-47.4311
G01 X-3.6680 Y-47.0522
G01 X-3.6580 Y-47.0413
G01 X-3.6060 Y-46.9712
G01 X-3.5612 Y-46.8963
G01 X-3.5239 Y-46.8174
G01 X-3.4944 Y-46.7352
G01 X-3.4732 Y-46.6506
G01 X-3.4604 Y-46.5642
G01 X-3.4561 Y-46.4770
G01 X-3.4561 Y-41.5406
G01 X-3.4604 Y-41.4534
G01 X-3.4732 Y-41.3671
G01 X-3.4944 Y-41.2824
G01 X-3.5239 Y-41.2002
G01 X-3.5612 Y-41.1213
G01 X-3.6060 Y-41.0465
G01 X-3.6580 Y-40.9764
G01 X-3.7167 Y-40.9117
G01 X-9.7388 Y-34.8895
G01 X-9.7388 Y-15.9706
G01 X-9.4977 Y-15.7294
G01 X-7.4200 Y-15.7294
G01 X-7.3328 Y-15.7252
G01 X-7.2465 Y-15.7124
G01 X-7.1618 Y-15.6911
G01 X-7.0796 Y-15.6617
G01 X-7.0007 Y-15.6244
G01 X-6.9259 Y-15.5795
G01 X-6.8557 Y-15.5275
G01 X-6.7911 Y-15.4689
G01 X-6.7325 Y-15.4043
G01 X-6.6805 Y-15.3341
G01 X-6.6356 Y-15.2593
G01 X-6.5983 Y-15.1804
G01 X-6.5689 Y-15.0982
G01 X-6.5476 Y-15.0135
G01 X-6.5348 Y-14.9272
G01 X-6.5306 Y-14.8400
G01 X-6.5348 Y-14.7528
G01 X-6.5476 Y-14.6665
G01 X-6.5689 Y-14.5818
G01 X-6.5983 Y-14.4996
G01 X-6.6356 Y-14.4207
G01 X-6.6805 Y-14.3459
G01 X-6.7325 Y-14.2757
G01 X-6.7911 Y-14.2111
G01 X-6.8557 Y-14.1525
G01 X-6.9259 Y-14.1005
G01 X-7.0007 Y-14.0556
G01 X-7.0796 Y-14.0183
G01 X-7.1618 Y-13.9889
G01 X-7.2465 Y-13.9676
G01 X-7.3328 Y-13.9548
G01 X-7.4200 Y-13.9506
G01 X-9.8661 Y-13.9506
G01 X-9.9533 Y-13.9548
G01 X-10.0397 Y-13.9676
G01 X-10.1243 Y-13.9889
G01 X-10.2065 Y-14.0183
G01 X-10.2854 Y-14.0556
G01 X-10.3603 Y-14.1005
G01 X-10.4304 Y-14.1525
G01 X-10.4951 Y-14.2111
G01 X-11.2572 Y-14.9732
G01 X-11.3158 Y-15.0379
G01 X-11.3678 Y-15.1080
G01 X-11.4127 Y-15.1828
G01 X-11.4500 Y-15.2618
G01 X-11.4794 Y-15.3439
G01 X-11.5006 Y-15.4286
G01 X-11.5134 Y-15.5149
G01 X-11.5177 Y-15.6021
G01 X-11.5177 Y-35.2579
G01 X-11.5134 Y-35.3451
G01 X-11.5006 Y-35.4315
G01 X-11.4794 Y-35.5161
G01 X-11.4500 Y-35.5983
G01 X-11.4127 Y-35.6772
G01 X-11.3678 Y-35.7521
G01 X-11.3158 Y-35.8222
G01 X-11.2572 Y-35.8869
G01 X-5.2350 Y-41.9090
G01 X-5.2350 Y-46.1136
G01 X-5.2449 Y-46.1246
G01 X-5.2969 Y-46.1947
G01 X-5.3418 Y-46.2696
G01 X-5.3791 Y-46.3485
G01 X-5.4085 Y-46.4306
G01 X-5.4298 Y-46.5153
G01 X-5.4426 Y-46.6017
G01 X-5.4468 Y-46.6888
G01 X-5.4468 Y-47.0626
G01 X-7.3748 Y-48.9906
G01 X-8.9040 Y-48.9906
G01 X-8.9040 Y-48.8640
G01 X-9.9097 Y-48.8640
G01 X-9.9200 Y-48.8635
G01 X-9.9303 Y-48.8640
G01 X-10.9360 Y-48.8640
G01 X-10.9360 Y-48.9435
G01 X-17.4200 Y-48.9435
G01 X-17.4303 Y-48.9440
G01 X-18.4360 Y-48.9440
G00 Z2.0000
G00 X-18.4360 Y-51.4840
G01 F60.00
G01 Z-2.4000
G01 F120.00
G01 X-18.4360 Y-53.5160
G01 X-16.4040 Y-53.5160
G01 X-16.4040 Y-51.4840
G01 X-18.4360 Y-51.4840
G00 Z2.0000
G00 X-10.9360 Y-51.4040
G01 F60.00
G01 Z-2.4000
G01 F120.00
G01 X-10.9360 Y-53.4360
G01 X-8.9040 Y-53.4360
G01 X-8.9040 Y-51.4040
G01 X-10.9360 Y-51.4040
G00 Z2.0000
G00 X-10.9360 Y-56.4840
G01 F60.00
G01 Z-2.4000
G01 F120.00
G01 X-10.9360 Y-58.5160
G01 X-8.9040 Y-58.5160
G01 X-8.9040 Y-56.4840
G01 X-10.9360 Y-56.4840
G00 Z2.0000
G00 X-3.5160 Y-58.5560
G01 F60.00
G01 Z-2.4000
G01 F120.00
G01 X-1.4840 Y-58.5560
G01 X-1.4840 Y-58.5494
G01 X2.5000 Y-58.5494
G01 X2.5872 Y-58.5452
G01 X2.6735 Y-58.5324
G01 X2.7582 Y-58.5111
G01 X2.8404 Y-58.4817
G01 X2.9193 Y-58.4444
G01 X2.9941 Y-58.3995
G01 X3.0643 Y-58.3475
G01 X3.1289 Y-58.2889
G01 X3.1875 Y-58.2243
G01 X3.2395 Y-58.1541
G01 X3.2844 Y-58.0793
G01 X3.3217 Y-58.0004
G01 X3.3511 Y-57.9182
G01 X3.3724 Y-57.8335
G01 X3.3852 Y-57.7472
G01 X3.3894 Y-57.6600
G01 X3.3852 Y-57.5728
G01 X3.3724 Y-57.4865
G01 X3.3511 Y-57.4018
G01 X3.3217 Y-57.3196
G01 X3.2844 Y-57.2407
G01 X3.2395 Y-57.1659
G01 X3.1875 Y-57.0957
G01 X3.1289 Y-57.0311
G01 X3.0643 Y-56.9725
G01 X2.9941 Y-56.9205
G01 X2.9193 Y-56.8756
G01 X2.8404 Y-56.8383
G01 X2.7582 Y-56.8089
G01 X2.6735 Y-56.7876
G01 X2.5872 Y-56.7748
G01 X2.5000 Y-56.7706
G01 X-1.4840 Y-56.7706
G01 X-1.4840 Y-56.5240
G01 X-3.5160 Y-56.5240
G01 X-3.5160 Y-58.5560
G00 Z2.0000
G00 X6.5640 Y-56.4440
G01 F60.00
G01 Z-2.4000
G01 F120.00
G01 X6.5640 Y-58.4760
G01 X8.5960 Y-58.4760
G01 X8.5960 Y-58.2224
G01 X9.5627 Y-58.2224
G01 X9.5859 Y-58.2395
G01 X9.6607 Y-58.2844
G01 X9.7396 Y-58.3217
G01 X9.8218 Y-58.3511
G01 X9.9065 Y-58.3724
G01 X9.9928 Y-58.3852
G01 X10.0800 Y-58.3894
G01 X10.1672 Y-58.3852
G01 X10.2535 Y-58.3724
G01 X10.3382 Y-58.3511
G01 X10.4204 Y-58.3217
G01 X10.4993 Y-58.2844
G01 X10.5741 Y-58.2395
G01 X10.5973 Y-58.2224
G01 X11.7316 Y-58.2224
G01 X11.7914 Y-58.2886
G01 X11.8560 Y-58.3472
G01 X11.9261 Y-58.3992
G01 X12.0009 Y-58.4440
G01 X12.0798 Y-58.4813
G01 X12.1619 Y-58.5107
G01 X12.2466 Y-58.5319
G01 X12.3329 Y-58.5447
G01 X12.4200 Y-58.5490
G01 X12.5071 Y-58.5447
G01 X12.5934 Y-58.5319
G01 X12.6781 Y-58.5107
G01 X12.7602 Y-58.4813
G01 X12.8391 Y-58.4440
G01 X12.9139 Y-58.3992
G01 X12.9840 Y-58.3472
G01 X13.0486 Y-58.2886
G01 X13.1072 Y-58.2240
G01 X13.1592 Y-58.1539
G01 X13.2040 Y-58.0791
G01 X13.2413 Y-58.0002
G01 X13.2707 Y-57.9181
G01 X13.2919 Y-57.8334
G01 X13.3047 Y-57.7471
G01 X13.3090 Y-57.6600
G01 X13.3047 Y-57.5729
G01 X13.2919 Y-57.4866
G01 X13.2707 Y-57.4019
G01 X13.2413 Y-57.3198
G01 X13.2040 Y-57.2409
G01 X13.1592 Y-57.1661
G01 X13.1072 Y-57.0960
G01 X13.0486 Y-57.0314
G01 X12.9840 Y-56.9728
G01 X12.9139 Y-56.9208
G01 X12.8391 Y-56.8760
G01 X12.7602 Y-56.8387
G01 X12.6781 Y-56.8093
G01 X12.5934 Y-56.7881
G01 X12.5743 Y-56.7852
G01 X12.5118 Y-56.7557
G01 X12.4413 Y-56.7304
G01 X12.3687 Y-56.7123
G01 X12.2947 Y-56.7013
G01 X12.2200 Y-56.6976
G01 X10.4961 Y-56.6976
G01 X10.4593 Y-56.6756
G01 X10.3804 Y-56.6383
G01 X10.2982 Y-56.6089
G01 X10.2135 Y-56.5876
G01 X10.1272 Y-56.5748
G01 X10.0400 Y-56.5706
G01 X9.9528 Y-56.5748
G01 X9.8665 Y-56.5876
G01 X9.7818 Y-56.6089
G01 X9.6996 Y-56.6383
G01 X9.6207 Y-56.6756
G01 X9.5839 Y-56.6976
G01 X8.5960 Y-56.6976
G01 X8.5960 Y-56.4440
G01 X6.5640 Y-56.4440
G00 Z2.0000
G00 X1.7376 Y-47.0448
G01 F60.00
G01 Z-2.4000
G01 F120.00
G01 X1.7160 Y-47.0809
G01 X1.6787 Y-47.1598
G01 X1.6493 Y-47.2419
G01 X1.6281 Y-47.3266
G01 X1.6153 Y-47.4129
G01 X1.6110 Y-47.5000
G01 X1.6153 Y-47.5871
G01 X1.6281 Y-47.6734
G01 X1.6493 Y-47.7581
G01 X1.6787 Y-47.8402
G01 X1.7160 Y-47.9191
G01 X1.7608 Y-47.9939
G01 X1.8128 Y-48.0640
G01 X1.8714 Y-48.1286
G01 X1.9360 Y-48.1872
G01 X2.0061 Y-48.2392
G01 X2.0809 Y-48.2840
G01 X2.1598 Y-48.3213
G01 X2.2419 Y-48.3507
G01 X2.3266 Y-48.3719
G01 X2.4129 Y-48.3847
G01 X2.5000 Y-48.3890
G01 X2.5871 Y-48.3847
G01 X2.6734 Y-48.3719
G01 X2.7581 Y-48.3507
G01 X2.8402 Y-48.3213
G01 X2.9191 Y-48.2840
G01 X2.9939 Y-48.2392
G01 X3.0640 Y-48.1872
G01 X3.1286 Y-48.1286
G01 X3.1872 Y-48.0640
G01 X3.2392 Y-47.9939
G01 X3.2840 Y-47.9191
G01 X3.3213 Y-47.8402
G01 X3.3507 Y-47.7581
G01 X3.3719 Y-47.6734
G01 X3.3847 Y-47.5871
G01 X3.3890 Y-47.5000
G01 X3.3847 Y-47.4129
G01 X3.3719 Y-47.3266
G01 X3.3507 Y-47.2419
G01 X3.3213 Y-47.1598
G01 X3.2840 Y-47.0809
G01 X3.2624 Y-47.0448
G01 X3.2624 Y-45.0000
G01 X3.2587 Y-44.9253
G01 X3.2477 Y-44.8513
G01 X3.2296 Y-44.7787
G01 X3.2043 Y-44.7082
G01 X3.1724 Y-44.6406
G01 X3.1350 Y-44.5783
G01 X3.1350 Y-44.3650
G01 X2.9217 Y-44.3650
G01 X2.8594 Y-44.3276
G01 X2.7918 Y-44.2957
G01 X2.7213 Y-44.2704
G01 X2.6487 Y-44.2523
G01 X2.5747 Y-44.2413
G01 X2.5000 Y-44.2376
G01 X2.4253 Y-44.2413
G01 X2.3513 Y-44.2523
G01 X2.2787 Y-44.2704
G01 X2.2082 Y-44.2957
G01 X2.1406 Y-44.3276
G01 X2.0783 Y-44.3650
G01 X1.8650 Y-44.3650
G01 X1.8650 Y-44.5783
G01 X1.8276 Y-44.6406
G01 X1.7957 Y-44.7082
G01 X1.7704 Y-44.7787
G01 X1.7523 Y-44.8513
G01 X1.7413 Y-44.9253
G01 X1.7376 Y-45.0000
G01 X1.7376 Y-47.0448
G00 Z2.0000
G00 X9.4450 Y-44.3650
G01 F60.00
G01 Z-2.4000
G01 F120.00
G01 X9.4450 Y-44.5783
G01 X9.4076 Y-44.6406
G01 X9.3757 Y-44.7082
G01 X9.3504 Y-44.7787
G01 X9.3323 Y-44.8513
G01 X9.3213 Y-44.9253
G01 X9.3176 Y-45.0000
G01 X9.3213 Y-45.0747
G01 X9.3323 Y-45.1487
G01 X9.3504 Y-45.2213
G01 X9.3757 Y-45.2918
G01 X9.4076 Y-45.3594
G01 X9.4450 Y-45.4217
G01 X9.4450 Y-45.6350
G01 X9.6368 Y-45.6350
G01 X11.5325 Y-47.5307
G01 X11.5353 Y-47.5871
G01 X11.5481 Y-47.6734
G01 X11.5693 Y-47.7581
G01 X11.5987 Y-47.8402
G01 X11.6360 Y-47.9191
G01 X11.6808 Y-47.9939
G01 X11.7328 Y-48.0640
G01 X11.7914 Y-48.1286
G01 X11.8560 Y-48.1872
G01 X11.9261 Y-48.2392
G01 X12.0009 Y-48.2840
G01 X12.0798 Y-48.3213
G01 X12.1619 Y-48.3507
G01 X12.2466 Y-48.3719
G01 X12.3329 Y-48.3847
G01 X12.4200 Y-48.3890
G01 X12.5071 Y-48.3847
G01 X12.5934 Y-48.3719
G01 X12.6781 Y-48.3507
G01 X12.7602 Y-48.3213
G01 X12.8391 Y-48.2840
G01 X12.9139 Y-48.2392
G01 X12.9840 Y-48.1872
G01 X13.0486 Y-48.1286
G01 X13.1072 Y-48.0640
G01 X13.1592 Y-47.9939
G01 X13.2040 Y-47.9191
G01 X13.2413 Y-47.8402
G01 X13.2707 Y-47.7581
G01 X13.2919 Y-47.6734
G01 X13.3047 Y-47.5871
G01 X13.3090 Y-47.5000
G01 X13.3047 Y-47.4129
G01 X13.2919 Y-47.3266
G01 X13.2707 Y-47.2419
G01 X13.2413 Y-47.1598
G01 X13.2040 Y-47.0809
G01 X13.1592 Y-47.0061
G01 X13.1072 Y-46.9360
G01 X13.0486 Y-46.8714
G01 X12.9840 Y-46.8128
G01 X12.9336 Y-46.7754
G01 X10.7150 Y-44.5568
G01 X10.7150 Y-44.3650
G01 X10.5017 Y-44.3650
G01 X10.4394 Y-44.3276
G01 X10.3718 Y-44.2957
G01 X10.3013 Y-44.2704
G01 X10.2287 Y-44.2523
G01 X10.1547 Y-44.2413
G01 X10.0800 Y-44.2376
G01 X10.0053 Y-44.2413
G01 X9.9313 Y-44.2523
G01 X9.8587 Y-44.2704
G01 X9.7882 Y-44.2957
G01 X9.7206 Y-44.3276
G01 X9.6583 Y-44.3650
G01 X9.4450 Y-44.3650
G00 Z2.0000
G00 X18.2499 Y-41.7376
G01 F60.00
G01 Z-2.4000
G01 F120.00
G01 X18.2245 Y-41.7146
G01 X18.1445 Y-41.6552
G01 X18.0589 Y-41.6040
G01 X17.9688 Y-41.5613
G01 X17.8749 Y-41.5277
G01 X17.7782 Y-41.5035
G01 X17.6796 Y-41.4889
G01 X17.5800 Y-41.4840
G01 X17.4804 Y-41.4889
G01 X17.3818 Y-41.5035
G01 X17.2851 Y-41.5277
G01 X17.1912 Y-41.5613
G01 X17.1011 Y-41.6040
G01 X17.0155 Y-41.6552
G01 X16.9355 Y-41.7146
G01 X16.8616 Y-41.7816
G01 X16.7946 Y-41.8555
G01 X16.7352 Y-41.9355
G01 X16.6840 Y-42.0211
G01 X16.6413 Y-42.1112
G01 X16.6077 Y-42.2051
G01 X16.5835 Y-42.3018
G01 X16.5689 Y-42.4004
G01 X16.5640 Y-42.5000
G01 X16.5689 Y-42.5996
G01 X16.5835 Y-42.6982
G01 X16.6077 Y-42.7949
G01 X16.6413 Y-42.8888
G01 X16.6840 Y-42.9789
G01 X16.7352 Y-43.0645
G01 X16.7946 Y-43.1445
G01 X16.8616 Y-43.2184
G01 X16.9355 Y-43.2854
G01 X17.0155 Y-43.3448
G01 X17.1011 Y-43.3960
G01 X17.1912 Y-43.4387
G01 X17.2851 Y-43.4723
G01 X17.3818 Y-43.4965
G01 X17.4804 Y-43.5111
G01 X17.5800 Y-43.5160
G01 X17.6796 Y-43.5111
G01 X17.7782 Y-43.4965
G01 X17.8749 Y-43.4723
G01 X17.9688 Y-43.4387
G01 X18.0589 Y-43.3960
G01 X18.1445 Y-43.3448
G01 X18.2245 Y-43.2854
G01 X18.2499 Y-43.2624
G01 X20.5664 Y-43.2624
G01 X20.6411 Y-43.2587
G01 X20.7152 Y-43.2477
G01 X20.7877 Y-43.2296
G01 X20.8601 Y-43.2034
G01 X22.4141 Y-43.2034
G01 X22.4313 Y-43.2077
G01 X22.5053 Y-43.2187
G01 X22.5800 Y-43.2224
G01 X27.6600 Y-43.2224
G01 X27.7347 Y-43.2187
G01 X27.8087 Y-43.2077
G01 X27.8813 Y-43.1896
G01 X27.9518 Y-43.1643
G01 X28.0194 Y-43.1324
G01 X28.0836 Y-43.0939
G01 X28.1436 Y-43.0493
G01 X28.1991 Y-42.9991
G01 X30.7391 Y-40.4591
G01 X30.7893 Y-40.4036
G01 X30.8339 Y-40.3436
G01 X30.8724 Y-40.2794
G01 X30.9043 Y-40.2118
G01 X30.9296 Y-40.1413
G01 X30.9477 Y-40.0687
G01 X30.9587 Y-39.9947
G01 X30.9624 Y-39.9200
G01 X30.9587 Y-39.8453
G01 X30.9477 Y-39.7713
G01 X30.9296 Y-39.6987
G01 X30.9043 Y-39.6282
G01 X30.8724 Y-39.5606
G01 X30.8339 Y-39.4964
G01 X30.7893 Y-39.4364
G01 X30.7391 Y-39.3809
G01 X30.6836 Y-39.3307
G01 X30.6236 Y-39.2861
G01 X30.5594 Y-39.2476
G01 X30.4918 Y-39.2157
G01 X30.4213 Y-39.1904
G01 X30.3487 Y-39.1723
G01 X30.2747 Y-39.1613
G01 X30.2000 Y-39.1576
G01 X30.1253 Y-39.1613
G01 X30.0513 Y-39.1723
G01 X29.9787 Y-39.1904
G01 X29.9082 Y-39.2157
G01 X29.8406 Y-39.2476
G01 X29.7764 Y-39.2861
G01 X29.7164 Y-39.3307
G01 X29.6609 Y-39.3809
G01 X27.3442 Y-41.6976
G01 X26.0314 Y-41.6976
G01 X25.6824 Y-41.3486
G01 X25.6824 Y-32.9552
G01 X25.7040 Y-32.9191
G01 X25.7413 Y-32.8402
G01 X25.7707 Y-32.7581
G01 X25.7919 Y-32.6734
G01 X25.8047 Y-32.5871
G01 X25.8090 Y-32.5000
G01 X25.8047 Y-32.4129
G01 X25.7919 Y-32.3266
G01 X25.7707 Y-32.2419
G01 X25.7413 Y-32.1598
G01 X25.7040 Y-32.0809
G01 X25.6824 Y-32.0448
G01 X25.6824 Y-30.3382
G01 X25.7043 Y-30.2918
G01 X25.7296 Y-30.2213
G01 X25.7477 Y-30.1487
G01 X25.7587 Y-30.0747
G01 X25.7624 Y-30.0000
G01 X25.7587 Y-29.9253
G01 X25.7477 Y-29.8513
G01 X25.7296 Y-29.7787
G01 X25.7043 Y-29.7082
G01 X25.6724 Y-29.6406
G01 X25.6339 Y-29.5764
G01 X25.5893 Y-29.5164
G01 X25.5391 Y-29.4609
G01 X25.4836 Y-29.4107
G01 X25.4236 Y-29.3661
G01 X25.3594 Y-29.3276
G01 X25.2918 Y-29.2957
G01 X25.2213 Y-29.2704
G01 X25.1487 Y-29.2523
G01 X25.0747 Y-29.2413
G01 X25.0000 Y-29.2376
G01 X24.9253 Y-29.2413
G01 X24.8513 Y-29.2523
G01 X24.7787 Y-29.2704
G01 X24.7082 Y-29.2957
G01 X24.6406 Y-29.3276
G01 X24.5764 Y-29.3661
G01 X24.5164 Y-29.4107
G01 X24.4609 Y-29.4609
G01 X24.3809 Y-29.5409
G01 X24.3307 Y-29.5964
G01 X24.2861 Y-29.6564
G01 X24.2476 Y-29.7206
G01 X24.2157 Y-29.7882
G01 X24.1904 Y-29.8587
G01 X24.1723 Y-29.9313
G01 X24.1613 Y-30.0053
G01 X24.1576 Y-30.0800
G01 X24.1576 Y-32.0448
G01 X24.1360 Y-32.0809
G01 X24.0987 Y-32.1598
G01 X24.0693 Y-32.2419
G01 X24.0481 Y-32.3266
G01 X24.0353 Y-32.4129
G01 X24.0310 Y-32.5000
G01 X24.0353 Y-32.5871
G01 X24.0481 Y-32.6734
G01 X24.0693 Y-32.7581
G01 X24.0987 Y-32.8402
G01 X24.1360 Y-32.9191
G01 X24.1576 Y-32.9552
G01 X24.1576 Y-41.6644
G01 X24.1593 Y-41.6976
G01 X22.7270 Y-41.6976
G01 X22.7098 Y-41.6933
G01 X22.6358 Y-41.6823
G01 X22.5610 Y-41.6787
G01 X20.6254 Y-41.6787
G01 X20.5506 Y-41.6823
G01 X20.4766 Y-41.6933
G01 X20.4041 Y-41.7115
G01 X20.3317 Y-41.7376
G01 X18.2499 Y-41.7376
G00 Z2.0000
G00 X17.6418 Y-38.6400
G01 F60.00
G01 Z-2.4000
G01 F120.00
G01 X19.2975 Y-40.2957
G01 X19.3276 Y-40.3594
G01 X19.3661 Y-40.4236
G01 X19.4107 Y-40.4836
G01 X19.4609 Y-40.5391
G01 X19.5164 Y-40.5893
G01 X19.5764 Y-40.6339
G01 X19.6406 Y-40.6724
G01 X19.7082 Y-40.7043
G01 X19.7787 Y-40.7296
G01 X19.8513 Y-40.7477
G01 X19.9253 Y-40.7587
G01 X20.0000 Y-40.7624
G01 X22.5000 Y-40.7624
G01 X22.5747 Y-40.7587
G01 X22.6487 Y-40.7477
G01 X22.7213 Y-40.7296
G01 X22.7918 Y-40.7043
G01 X22.8594 Y-40.6724
G01 X22.9236 Y-40.6339
G01 X22.9836 Y-40.5893
G01 X23.0391 Y-40.5391
G01 X23.1191 Y-40.4591
G01 X23.1693 Y-40.4036
G01 X23.2139 Y-40.3436
G01 X23.2524 Y-40.2794
G01 X23.2843 Y-40.2118
G01 X23.3096 Y-40.1413
G01 X23.3277 Y-40.0687
G01 X23.3387 Y-39.9947
G01 X23.3424 Y-39.9200
G01 X23.3387 Y-39.8453
G01 X23.3277 Y-39.7713
G01 X23.3096 Y-39.6987
G01 X23.2843 Y-39.6282
G01 X23.2524 Y-39.5606
G01 X23.2139 Y-39.4964
G01 X23.1693 Y-39.4364
G01 X23.1191 Y-39.3809
G01 X23.0636 Y-39.3307
G01 X23.0036 Y-39.2861
G01 X22.9394 Y-39.2476
G01 X22.8718 Y-39.2157
G01 X22.8013 Y-39.1904
G01 X22.7287 Y-39.1723
G01 X22.6547 Y-39.1613
G01 X22.5800 Y-39.1576
G01 X22.5053 Y-39.1613
G01 X22.4313 Y-39.1723
G01 X22.3587 Y-39.1904
G01 X22.2882 Y-39.2157
G01 X22.2418 Y-39.2376
G01 X20.3958 Y-39.2376
G01 X18.7200 Y-37.5618
G01 X18.7230 Y-37.5000
G01 X18.7175 Y-37.3880
G01 X18.7010 Y-37.2770
G01 X18.6738 Y-37.1682
G01 X18.6360 Y-37.0626
G01 X18.5880 Y-36.9612
G01 X18.5304 Y-36.8650
G01 X18.4636 Y-36.7749
G01 X18.3882 Y-36.6918
G01 X18.3051 Y-36.6164
G01 X18.2150 Y-36.5496
G01 X18.1188 Y-36.4920
G01 X18.0174 Y-36.4440
G01 X17.9118 Y-36.4062
G01 X17.8030 Y-36.3790
G01 X17.6920 Y-36.3625
G01 X17.5800 Y-36.3570
G01 X17.4680 Y-36.3625
G01 X17.3570 Y-36.3790
G01 X17.2482 Y-36.4062
G01 X17.1426 Y-36.4440
G01 X17.0412 Y-36.4920
G01 X16.9450 Y-36.5496
G01 X16.8549 Y-36.6164
G01 X16.7718 Y-36.6918
G01 X16.6964 Y-36.7749
G01 X16.6296 Y-36.8650
G01 X16.5720 Y-36.9612
G01 X16.5240 Y-37.0626
G01 X16.4862 Y-37.1682
G01 X16.4590 Y-37.2770
G01 X16.4425 Y-37.3880
G01 X16.4370 Y-37.5000
G01 X16.4425 Y-37.6120
G01 X16.4590 Y-37.7230
G01 X16.4862 Y-37.8318
G01 X16.5240 Y-37.9374
G01 X16.5720 Y-38.0388
G01 X16.6296 Y-38.1350
G01 X16.6964 Y-38.2251
G01 X16.7718 Y-38.3082
G01 X16.8549 Y-38.3836
G01 X16.9450 Y-38.4504
G01 X17.0412 Y-38.5080
G01 X17.1426 Y-38.5560
G01 X17.2482 Y-38.5938
G01 X17.3570 Y-38.6210
G01 X17.4680 Y-38.6375
G01 X17.5800 Y-38.6430
G01 X17.6418 Y-38.6400
G00 Z2.0000
G00 X9.1535 Y-27.5400
G01 F60.00
G01 Z-2.4000
G01 F120.00
G01 X9.1471 Y-27.4093
G01 X9.1279 Y-27.2798
G01 X9.0961 Y-27.1529
G01 X9.0520 Y-27.0297
G01 X8.9960 Y-26.9114
G01 X8.9288 Y-26.7991
G01 X8.8508 Y-26.6940
G01 X8.7629 Y-26.5971
G01 X8.6660 Y-26.5092
G01 X8.5609 Y-26.4312
G01 X8.4486 Y-26.3640
G01 X8.3303 Y-26.3080
G01 X8.2071 Y-26.2639
G01 X8.0802 Y-26.2321
G01 X7.9507 Y-26.2129
G01 X7.8200 Y-26.2065
G01 X7.6893 Y-26.2129
G01 X7.5598 Y-26.2321
G01 X7.4329 Y-26.2639
G01 X7.3097 Y-26.3080
G01 X7.1914 Y-26.3640
G01 X7.0791 Y-26.4312
G01 X6.9740 Y-26.5092
G01 X6.8771 Y-26.5971
G01 X6.7892 Y-26.6940
G01 X6.7112 Y-26.7991
G01 X6.6440 Y-26.9114
G01 X6.5880 Y-27.0297
G01 X6.5439 Y-27.1529
G01 X6.5121 Y-27.2798
G01 X6.4929 Y-27.4093
G01 X6.4865 Y-27.5400
G01 X6.4929 Y-27.6707
G01 X6.5121 Y-27.8002
G01 X6.5439 Y-27.9271
G01 X6.5880 Y-28.0503
G01 X6.6440 Y-28.1686
G01 X6.7112 Y-28.2809
G01 X6.7892 Y-28.3860
G01 X6.8771 Y-28.4829
G01 X6.9740 Y-28.5708
G01 X7.0791 Y-28.6488
G01 X7.1914 Y-28.7160
G01 X7.3097 Y-28.7720
G01 X7.4329 Y-28.8161
G01 X7.5598 Y-28.8479
G01 X7.6893 Y-28.8671
G01 X7.8200 Y-28.8735
G01 X7.9507 Y-28.8671
G01 X8.0802 Y-28.8479
G01 X8.2071 Y-28.8161
G01 X8.3303 Y-28.7720
G01 X8.4486 Y-28.7160
G01 X8.5609 Y-28.6488
G01 X8.6660 Y-28.5708
G01 X8.7629 Y-28.4829
G01 X8.8508 Y-28.3860
G01 X8.9288 Y-28.2809
G01 X8.9960 Y-28.1686
G01 X9.0520 Y-28.0503
G01 X9.0961 Y-27.9271
G01 X9.1279 Y-27.8002
G01 X9.1471 Y-27.6707
G01 X9.1535 Y-27.5400
G00 Z2.0000
G00 X8.1470 Y-19.1576
G01 F60.00
G01 Z-2.4000
G01 F120.00
G01 X8.1376 Y-19.1532
G01 X8.0609 Y-19.1257
G01 X7.9819 Y-19.1059
G01 X7.9014 Y-19.0940
G01 X7.8200 Y-19.0900
G01 X7.7386 Y-19.0940
G01 X7.6581 Y-19.1059
G01 X7.5791 Y-19.1257
G01 X7.5024 Y-19.1532
G01 X7.4287 Y-19.1880
G01 X7.3589 Y-19.2299
G01 X7.2935 Y-19.2784
G01 X7.2331 Y-19.3331
G01 X7.1784 Y-19.3935
G01 X7.1299 Y-19.4589
G01 X7.0880 Y-19.5287
G01 X7.0532 Y-19.6024
G01 X7.0257 Y-19.6791
G01 X7.0059 Y-19.7581
G01 X6.9940 Y-19.8386
G01 X6.9900 Y-19.9200
G01 X6.9940 Y-20.0014
G01 X7.0059 Y-20.0819
G01 X7.0257 Y-20.1609
G01 X7.0532 Y-20.2376
G01 X7.0880 Y-20.3113
G01 X7.1299 Y-20.3811
G01 X7.1784 Y-20.4465
G01 X7.2331 Y-20.5069
G01 X7.2935 Y-20.5616
G01 X7.3589 Y-20.6101
G01 X7.4287 Y-20.6520
G01 X7.5024 Y-20.6868
G01 X7.5791 Y-20.7143
G01 X7.6581 Y-20.7341
G01 X7.7386 Y-20.7460
G01 X7.8200 Y-20.7500
G01 X7.9014 Y-20.7460
G01 X7.9819 Y-20.7341
G01 X8.0609 Y-20.7143
G01 X8.1376 Y-20.6868
G01 X8.1470 Y-20.6824
G01 X9.7660 Y-20.6824
G01 X9.8407 Y-20.6787
G01 X9.9147 Y-20.6677
G01 X9.9873 Y-20.6496
G01 X10.0578 Y-20.6243
G01 X10.1254 Y-20.5924
G01 X10.1896 Y-20.5539
G01 X10.2497 Y-20.5093
G01 X10.3051 Y-20.4591
G01 X11.2589 Y-19.5053
G01 X11.3091 Y-19.4498
G01 X11.3537 Y-19.3897
G01 X11.3922 Y-19.3256
G01 X11.4242 Y-19.2579
G01 X11.4494 Y-19.1875
G01 X11.4676 Y-19.1149
G01 X11.4785 Y-19.0409
G01 X11.4822 Y-18.9662
G01 X11.4822 Y-15.0610
G01 X13.1831 Y-13.3601
G01 X19.8087 Y-13.3601
G01 X20.9913 Y-14.5426
G01 X20.9913 Y-18.5219
G01 X20.9949 Y-18.5966
G01 X21.0059 Y-18.6706
G01 X21.0241 Y-18.7432
G01 X21.0493 Y-18.8136
G01 X21.0813 Y-18.8813
G01 X21.1197 Y-18.9454
G01 X21.1643 Y-19.0055
G01 X21.2146 Y-19.0610
G01 X22.9918 Y-20.8382
G01 X23.0473 Y-20.8885
G01 X23.1073 Y-20.9330
G01 X23.1715 Y-20.9715
G01 X23.2391 Y-21.0035
G01 X23.3096 Y-21.0287
G01 X23.3822 Y-21.0469
G01 X23.4562 Y-21.0578
G01 X23.5309 Y-21.0615
G01 X25.5848 Y-21.0615
G01 X26.7376 Y-22.2143
G01 X26.7376 Y-23.6417
G01 X26.1772 Y-24.2021
G01 X19.9556 Y-24.2021
G01 X19.8808 Y-24.2057
G01 X19.8068 Y-24.2167
G01 X19.7343 Y-24.2349
G01 X19.6638 Y-24.2601
G01 X19.5962 Y-24.2921
G01 X19.5320 Y-24.3305
G01 X19.4719 Y-24.3751
G01 X19.4165 Y-24.4254
G01 X17.6418 Y-26.2000
G01 X17.5800 Y-26.1970
G01 X17.4680 Y-26.2025
G01 X17.3570 Y-26.2190
G01 X17.2482 Y-26.2462
G01 X17.1426 Y-26.2840
G01 X17.0412 Y-26.3320
G01 X16.9450 Y-26.3896
G01 X16.8549 Y-26.4564
G01 X16.7718 Y-26.5318
G01 X16.6964 Y-26.6149
G01 X16.6296 Y-26.7050
G01 X16.5720 Y-26.8012
G01 X16.5240 Y-26.9026
G01 X16.4862 Y-27.0082
G01 X16.4590 Y-27.1170
G01 X16.4425 Y-27.2280
G01 X16.4370 Y-27.3400
G01 X16.4425 Y-27.4520
G01 X16.4590 Y-27.5630
G01 X16.4862 Y-27.6718
G01 X16.5240 Y-27.7774
G01 X16.5720 Y-27.8788
G01 X16.6296 Y-27.9750
G01 X16.6964 Y-28.0651
G01 X16.7718 Y-28.1482
G01 X16.8549 Y-28.2236
G01 X16.9450 Y-28.2904
G01 X17.0412 Y-28.3480
G01 X17.1426 Y-28.3960
G01 X17.2482 Y-28.4338
G01 X17.3570 Y-28.4610
G01 X17.4680 Y-28.4775
G01 X17.5800 Y-28.4830
G01 X17.6920 Y-28.4775
G01 X17.8030 Y-28.4610
G01 X17.9118 Y-28.4338
G01 X18.0174 Y-28.3960
G01 X18.1188 Y-28.3480
G01 X18.2150 Y-28.2904
G01 X18.3051 Y-28.2236
G01 X18.3882 Y-28.1482
G01 X18.4636 Y-28.0651
G01 X18.5304 Y-27.9750
G01 X18.5880 Y-27.8788
G01 X18.6360 Y-27.7774
G01 X18.6738 Y-27.6718
G01 X18.7010 Y-27.5630
G01 X18.7175 Y-27.4520
G01 X18.7230 Y-27.3400
G01 X18.7200 Y-27.2782
G01 X20.2713 Y-25.7268
G01 X26.4930 Y-25.7268
G01 X26.5677 Y-25.7232
G01 X26.6417 Y-25.7122
G01 X26.7143 Y-25.6940
G01 X26.7848 Y-25.6688
G01 X26.8524 Y-25.6368
G01 X26.9166 Y-25.5983
G01 X26.9766 Y-25.5538
G01 X27.0321 Y-25.5035
G01 X28.0391 Y-24.4965
G01 X28.0893 Y-24.4411
G01 X28.1339 Y-24.3810
G01 X28.1724 Y-24.3168
G01 X28.2043 Y-24.2492
G01 X28.2296 Y-24.1787
G01 X28.2477 Y-24.1062
G01 X28.2587 Y-24.0322
G01 X28.2624 Y-23.9574
G01 X28.2624 Y-21.8986
G01 X28.2587 Y-21.8238
G01 X28.2477 Y-21.7498
G01 X28.2296 Y-21.6772
G01 X28.2043 Y-21.6068
G01 X28.1724 Y-21.5392
G01 X28.1339 Y-21.4750
G01 X28.0893 Y-21.4149
G01 X28.0391 Y-21.3595
G01 X26.4397 Y-19.7600
G01 X26.3842 Y-19.7098
G01 X26.3241 Y-19.6652
G01 X26.2600 Y-19.6268
G01 X26.1923 Y-19.5948
G01 X26.1219 Y-19.5696
G01 X26.0493 Y-19.5514
G01 X25.9753 Y-19.5404
G01 X25.9006 Y-19.5367
G01 X23.8467 Y-19.5367
G01 X22.5160 Y-18.2061
G01 X22.5160 Y-14.2268
G01 X22.5124 Y-14.1521
G01 X22.5014 Y-14.0781
G01 X22.4832 Y-14.0055
G01 X22.4580 Y-13.9351
G01 X22.4260 Y-13.8674
G01 X22.3875 Y-13.8033
G01 X22.3430 Y-13.7432
G01 X22.2927 Y-13.6877
G01 X20.6636 Y-12.0586
G01 X20.6081 Y-12.0083
G01 X20.5480 Y-11.9638
G01 X20.4839 Y-11.9253
G01 X20.4162 Y-11.8933
G01 X20.3458 Y-11.8681
G01 X20.2732 Y-11.8499
G01 X20.1992 Y-11.8390
G01 X20.1245 Y-11.8353
G01 X12.8673 Y-11.8353
G01 X12.7926 Y-11.8390
G01 X12.7186 Y-11.8499
G01 X12.6460 Y-11.8681
G01 X12.5756 Y-11.8933
G01 X12.5080 Y-11.9253
G01 X12.4438 Y-11.9638
G01 X12.3837 Y-12.0083
G01 X12.3283 Y-12.0586
G01 X10.1807 Y-14.2061
G01 X10.1305 Y-14.2615
G01 X10.0859 Y-14.3216
G01 X10.0475 Y-14.3858
G01 X10.0155 Y-14.4534
G01 X9.9903 Y-14.5239
G01 X9.9721 Y-14.5965
G01 X9.9611 Y-14.6705
G01 X9.9574 Y-14.7452
G01 X9.9574 Y-18.6504
G01 X9.4502 Y-19.1576
G01 X8.1470 Y-19.1576
G00 Z2.0000
G00 X8.6500 Y-17.3800
G01 F60.00
G01 Z-2.4000
G01 F120.00
G01 X8.6460 Y-17.2986
G01 X8.6341 Y-17.2181
G01 X8.6143 Y-17.1391
G01 X8.5868 Y-17.0624
G01 X8.5520 Y-16.9887
G01 X8.5101 Y-16.9189
G01 X8.4616 Y-16.8535
G01 X8.4069 Y-16.7931
G01 X8.3465 Y-16.7384
G01 X8.2811 Y-16.6899
G01 X8.2113 Y-16.6480
G01 X8.1376 Y-16.6132
G01 X8.0609 Y-16.5857
G01 X7.9819 Y-16.5659
G01 X7.9014 Y-16.5540
G01 X7.8200 Y-16.5500
G01 X7.7386 Y-16.5540
G01 X7.6581 Y-16.5659
G01 X7.5791 Y-16.5857
G01 X7.5024 Y-16.6132
G01 X7.4287 Y-16.6480
G01 X7.3589 Y-16.6899
G01 X7.2935 Y-16.7384
G01 X7.2331 Y-16.7931
G01 X7.1784 Y-16.8535
G01 X7.1299 Y-16.9189
G01 X7.0880 Y-16.9887
G01 X7.0532 Y-17.0624
G01 X7.0257 Y-17.1391
G01 X7.0059 Y-17.2181
G01 X6.9940 Y-17.2986
G01 X6.9900 Y-17.3800
G01 X6.9940 Y-17.4614
G01 X7.0059 Y-17.5419
G01 X7.0257 Y-17.6209
G01 X7.0532 Y-17.6976
G01 X7.0880 Y-17.7713
G01 X7.1299 Y-17.8411
G01 X7.1784 Y-17.9065
G01 X7.2331 Y-17.9669
G01 X7.2935 Y-18.0216
G01 X7.3589 Y-18.0701
G01 X7.4287 Y-18.1120
G01 X7.5024 Y-18.1468
G01 X7.5791 Y-18.1743
G01 X7.6581 Y-18.1941
G01 X7.7386 Y-18.2060
G01 X7.8200 Y-18.2100
G01 X7.9014 Y-18.2060
G01 X7.9819 Y-18.1941
G01 X8.0609 Y-18.1743
G01 X8.1376 Y-18.1468
G01 X8.2113 Y-18.1120
G01 X8.2811 Y-18.0701
G01 X8.3465 Y-18.0216
G01 X8.4069 Y-17.9669
G01 X8.4616 Y-17.9065
G01 X8.5101 Y-17.8411
G01 X8.5520 Y-17.7713
G01 X8.5868 Y-17.6976
G01 X8.6143 Y-17.6209
G01 X8.6341 Y-17.5419
G01 X8.6460 Y-17.4614
G01 X8.6500 Y-17.3800
G00 Z2.0000
G00 X8.6500 Y-14.8400
G01 F60.00
G01 Z-2.4000
G01 F120.00
G01 X8.6460 Y-14.7586
G01 X8.6341 Y-14.6781
G01 X8.6143 Y-14.5991
G01 X8.5868 Y-14.5224
G01 X8.5520 Y-14.4487
G01 X8.5101 Y-14.3789
G01 X8.4616 Y-14.3135
G01 X8.4069 Y-14.2531
G01 X8.3465 Y-14.1984
G01 X8.2811 Y-14.1499
G01 X8.2113 Y-14.1080
G01 X8.1376 Y-14.0732
G01 X8.0609 Y-14.0457
G01 X7.9819 Y-14.0259
G01 X7.9014 Y-14.0140
G01 X7.8200 Y-14.0100
G01 X7.7386 Y-14.0140
G01 X7.6581 Y-14.0259
G01 X7.5791 Y-14.0457
G01 X7.5024 Y-14.0732
G01 X7.4287 Y-14.1080
G01 X7.3589 Y-14.1499
G01 X7.2935 Y-14.1984
G01 X7.2331 Y-14.2531
G01 X7.1784 Y-14.3135
G01 X7.1299 Y-14.3789
G01 X7.0880 Y-14.4487
G01 X7.0532 Y-14.5224
G01 X7.0257 Y-14.5991
G01 X7.0059 Y-14.6781
G01 X6.9940 Y-14.7586
G01 X6.9900 Y-14.8400
G01 X6.9940 Y-14.9214
G01 X7.0059 Y-15.0019
G01 X7.0257 Y-15.0809
G01 X7.0532 Y-15.1576
G01 X7.0880 Y-15.2313
G01 X7.1299 Y-15.3011
G01 X7.1784 Y-15.3665
G01 X7.2331 Y-15.4269
G01 X7.2935 Y-15.4816
G01 X7.3589 Y-15.5301
G01 X7.4287 Y-15.5720
G01 X7.5024 Y-15.6068
G01 X7.5791 Y-15.6343
G01 X7.6581 Y-15.6541
G01 X7.7386 Y-15.6660
G01 X7.8200 Y-15.6700
G01 X7.9014 Y-15.6660
G01 X7.9819 Y-15.6541
G01 X8.0609 Y-15.6343
G01 X8.1376 Y-15.6068
G01 X8.2113 Y-15.5720
G01 X8.2811 Y-15.5301
G01 X8.3465 Y-15.4816
G01 X8.4069 Y-15.4269
G01 X8.4616 Y-15.3665
G01 X8.5101 Y-15.3011
G01 X8.5520 Y-15.2313
G01 X8.5868 Y-15.1576
G01 X8.6143 Y-15.0809
G01 X8.6341 Y-15.0019
G01 X8.6460 Y-14.9214
G01 X8.6500 Y-14.8400
G00 Z2.0000
G00 X8.6500 Y-12.3000
G01 F60.00
G01 Z-2.4000
G01 F120.00
G01 X8.6460 Y-12.2186
G01 X8.6341 Y-12.1381
G01 X8.6143 Y-12.0591
G01 X8.5868 Y-11.9824
G01 X8.5520 Y-11.9087
G01 X8.5101 Y-11.8389
G01 X8.4616 Y-11.7735
G01 X8.4069 Y-11.7131
G01 X8.3465 Y-11.6584
G01 X8.2811 Y-11.6099
G01 X8.2113 Y-11.5680
G01 X8.1376 Y-11.5332
G01 X8.0609 Y-11.5057
G01 X7.9819 Y-11.4859
G01 X7.9014 Y-11.4740
G01 X7.8200 Y-11.4700
G01 X7.7386 Y-11.4740
G01 X7.6581 Y-11.4859
G01 X7.5791 Y-11.5057
G01 X7.5024 Y-11.5332
G01 X7.4287 Y-11.5680
G01 X7.3589 Y-11.6099
G01 X7.2935 Y-11.6584
G01 X7.2331 Y-11.7131
G01 X7.1784 Y-11.7735
G01 X7.1299 Y-11.8389
G01 X7.0880 Y-11.9087
G01 X7.0532 Y-11.9824
G01 X7.0257 Y-12.0591
G01 X7.0059 Y-12.1381
G01 X6.9940 Y-12.2186
G01 X6.9900 Y-12.3000
G01 X6.9940 Y-12.3814
G01 X7.0059 Y-12.4619
G01 X7.0257 Y-12.5409
G01 X7.0532 Y-12.6176
G01 X7.0880 Y-12.6913
G01 X7.1299 Y-12.7611
G01 X7.1784 Y-12.8265
G01 X7.2331 Y-12.8869
G01 X7.2935 Y-12.9416
G01 X7.3589 Y-12.9901
G01 X7.4287 Y-13.0320
G01 X7.5024 Y-13.0668
G01 X7.5791 Y-13.0943
G01 X7.6581 Y-13.1141
G01 X7.7386 Y-13.1260
G01 X7.8200 Y-13.1300
G01 X7.9014 Y-13.1260
G01 X7.9819 Y-13.1141
G01 X8.0609 Y-13.0943
G01 X8.1376 Y-13.0668
G01 X8.2113 Y-13.0320
G01 X8.2811 Y-12.9901
G01 X8.3465 Y-12.9416
G01 X8.4069 Y-12.8869
G01 X8.4616 Y-12.8265
G01 X8.5101 Y-12.7611
G01 X8.5520 Y-12.6913
G01 X8.5868 Y-12.6176
G01 X8.6143 Y-12.5409
G01 X8.6341 Y-12.4619
G01 X8.6460 Y-12.3814
G01 X8.6500 Y-12.3000
G00 Z2.0000
G00 X8.6500 Y-9.7600
G01 F60.00
G01 Z-2.4000
G01 F120.00
G01 X8.6460 Y-9.6786
G01 X8.6341 Y-9.5981
G01 X8.6143 Y-9.5191
G01 X8.5868 Y-9.4424
G01 X8.5520 Y-9.3687
G01 X8.5101 Y-9.2989
G01 X8.4616 Y-9.2335
G01 X8.4069 Y-9.1731
G01 X8.3465 Y-9.1184
G01 X8.2811 Y-9.0699
G01 X8.2113 Y-9.0280
G01 X8.1376 Y-8.9932
G01 X8.0609 Y-8.9657
G01 X7.9819 Y-8.9459
G01 X7.9014 Y-8.9340
G01 X7.8200 Y-8.9300
G01 X7.7386 Y-8.9340
G01 X7.6581 Y-8.9459
G01 X7.5791 Y-8.9657
G01 X7.5024 Y-8.9932
G01 X7.4287 Y-9.0280
G01 X7.3589 Y-9.0699
G01 X7.2935 Y-9.1184
G01 X7.2331 Y-9.1731
G01 X7.1784 Y-9.2335
G01 X7.1299 Y-9.2989
G01 X7.0880 Y-9.3687
G01 X7.0532 Y-9.4424
G01 X7.0257 Y-9.5191
G01 X7.0059 Y-9.5981
G01 X6.9940 Y-9.6786
G01 X6.9900 Y-9.7600
G01 X6.9940 Y-9.8414
G01 X7.0059 Y-9.9219
G01 X7.0257 Y-10.0009
G01 X7.0532 Y-10.0776
G01 X7.0880 Y-10.1513
G01 X7.1299 Y-10.2211
G01 X7.1784 Y-10.2865
G01 X7.2331 Y-10.3469
G01 X7.2935 Y-10.4016
G01 X7.3589 Y-10.4501
G01 X7.4287 Y-10.4920
G01 X7.5024 Y-10.5268
G01 X7.5791 Y-10.5543
G01 X7.6581 Y-10.5741
G01 X7.7386 Y-10.5860
G01 X7.8200 Y-10.5900
G01 X7.9014 Y-10.5860
G01 X7.9819 Y-10.5741
G01 X8.0609 Y-10.5543
G01 X8.1376 Y-10.5268
G01 X8.2113 Y-10.4920
G01 X8.2811 Y-10.4501
G01 X8.3465 Y-10.4016
G01 X8.4069 Y-10.3469
G01 X8.4616 Y-10.2865
G01 X8.5101 Y-10.2211
G01 X8.5520 Y-10.1513
G01 X8.5868 Y-10.0776
G01 X8.6143 Y-10.0009
G01 X8.6341 Y-9.9219
G01 X8.6460 Y-9.8414
G01 X8.6500 Y-9.7600
G00 Z2.0000
G00 X8.6500 Y-7.2200
G01 F60.00
G01 Z-2.4000
G01 F120.00
G01 X8.6460 Y-7.1386
G01 X8.6341 Y-7.0581
G01 X8.6143 Y-6.9791
G01 X8.5868 Y-6.9024
G01 X8.5520 Y-6.8287
G01 X8.5101 Y-6.7589
G01 X8.4616 Y-6.6935
G01 X8.4069 Y-6.6331
G01 X8.3465 Y-6.5784
G01 X8.2811 Y-6.5299
G01 X8.2113 Y-6.4880
G01 X8.1376 Y-6.4532
G01 X8.0609 Y-6.4257
G01 X7.9819 Y-6.4059
G01 X7.9014 Y-6.3940
G01 X7.8200 Y-6.3900
G01 X7.7386 Y-6.3940
G01 X7.6581 Y-6.4059
G01 X7.5791 Y-6.4257
G01 X7.5024 Y-6.4532
G01 X7.4287 Y-6.4880
G01 X7.3589 Y-6.5299
G01 X7.2935 Y-6.5784
G01 X7.2331 Y-6.6331
G01 X7.1784 Y-6.6935
G01 X7.1299 Y-6.7589
G01 X7.0880 Y-6.8287
G01 X7.0532 Y-6.9024
G01 X7.0257 Y-6.9791
G01 X7.0059 Y-7.0581
G01 X6.9940 Y-7.1386
G01 X6.9900 Y-7.2200
G01 X6.9940 Y-7.3014
G01 X7.0059 Y-7.3819
G01 X7.0257 Y-7.4609
G01 X7.0532 Y-7.5376
G01 X7.0880 Y-7.6113
G01 X7.1299 Y-7.6811
G01 X7.1784 Y-7.7465
G01 X7.2331 Y-7.8069
G01 X7.2935 Y-7.8616
G01 X7.3589 Y-7.9101
G01 X7.4287 Y-7.9520
G01 X7.5024 Y-7.9868
G01 X7.5791 Y-8.0143
G01 X7.6581 Y-8.0341
G01 X7.7386 Y-8.0460
G01 X7.8200 Y-8.0500
G01 X7.9014 Y-8.0460
G01 X7.9819 Y-8.0341
G01 X8.0609 Y-8.0143
G01 X8.1376 Y-7.9868
G01 X8.2113 Y-7.9520
G01 X8.2811 Y-7.9101
G01 X8.3465 Y-7.8616
G01 X8.4069 Y-7.8069
G01 X8.4616 Y-7.7465
G01 X8.5101 Y-7.6811
G01 X8.5520 Y-7.6113
G01 X8.5868 Y-7.5376
G01 X8.6143 Y-7.4609
G01 X8.6341 Y-7.3819
G01 X8.6460 Y-7.3014
G01 X8.6500 Y-7.2200
G00 Z2.0000
G00 X8.1470 Y-3.9176
G01 F60.00
G01 Z-2.4000
G01 F120.00
G01 X8.1376 Y-3.9132
G01 X8.0609 Y-3.8857
G01 X7.9819 Y-3.8659
G01 X7.9014 Y-3.8540
G01 X7.8200 Y-3.8500
G01 X7.7386 Y-3.8540
G01 X7.6581 Y-3.8659
G01 X7.5791 Y-3.8857
G01 X7.5024 Y-3.9132
G01 X7.4287 Y-3.9480
G01 X7.3589 Y-3.9899
G01 X7.2935 Y-4.0384
G01 X7.2331 Y-4.0931
G01 X7.1784 Y-4.1535
G01 X7.1299 Y-4.2189
G01 X7.0880 Y-4.2887
G01 X7.0532 Y-4.3624
G01 X7.0257 Y-4.4391
G01 X7.0059 Y-4.5181
G01 X6.9940 Y-4.5986
G01 X6.9900 Y-4.6800
G01 X6.9940 Y-4.7614
G01 X7.0059 Y-4.8419
G01 X7.0257 Y-4.9209
G01 X7.0532 Y-4.9976
G01 X7.0880 Y-5.0713
G01 X7.1299 Y-5.1411
G01 X7.1784 Y-5.2065
G01 X7.2331 Y-5.2669
G01 X7.2935 Y-5.3216
G01 X7.3589 Y-5.3701
G01 X7.4287 Y-5.4120
G01 X7.5024 Y-5.4468
G01 X7.5791 Y-5.4743
G01 X7.6581 Y-5.4941
G01 X7.7386 Y-5.5060
G01 X7.8200 Y-5.5100
G01 X7.9014 Y-5.5060
G01 X7.9819 Y-5.4941
G01 X8.0609 Y-5.4743
G01 X8.1376 Y-5.4468
G01 X8.1470 Y-5.4424
G01 X12.9213 Y-5.4424
G01 X15.8180 Y-8.3391
G01 X15.8734 Y-8.3893
G01 X15.9335 Y-8.4339
G01 X15.9977 Y-8.4724
G01 X16.0653 Y-8.5043
G01 X16.1358 Y-8.5296
G01 X16.2083 Y-8.5477
G01 X16.2823 Y-8.5587
G01 X16.3571 Y-8.5624
G01 X22.5642 Y-8.5624
G01 X24.2190 Y-10.2172
G01 X24.2293 Y-10.2581
G01 X24.2587 Y-10.3402
G01 X24.2960 Y-10.4191
G01 X24.3408 Y-10.4939
G01 X24.3928 Y-10.5640
G01 X24.4514 Y-10.6286
G01 X24.5160 Y-10.6872
G01 X24.5861 Y-10.7392
G01 X24.6609 Y-10.7840
G01 X24.7398 Y-10.8213
G01 X24.8219 Y-10.8507
G01 X24.9066 Y-10.8719
G01 X24.9929 Y-10.8847
G01 X25.0800 Y-10.8890
G01 X25.1671 Y-10.8847
G01 X25.2534 Y-10.8719
G01 X25.3381 Y-10.8507
G01 X25.4202 Y-10.8213
G01 X25.4991 Y-10.7840
G01 X25.5739 Y-10.7392
G01 X25.6440 Y-10.6872
G01 X25.7086 Y-10.6286
G01 X25.7672 Y-10.5640
G01 X25.8192 Y-10.4939
G01 X25.8640 Y-10.4191
G01 X25.9013 Y-10.3402
G01 X25.9307 Y-10.2581
G01 X25.9519 Y-10.1734
G01 X25.9647 Y-10.0871
G01 X25.9690 Y-10.0000
G01 X25.9647 Y-9.9129
G01 X25.9519 Y-9.8266
G01 X25.9307 Y-9.7419
G01 X25.9013 Y-9.6598
G01 X25.8640 Y-9.5809
G01 X25.8192 Y-9.5061
G01 X25.7672 Y-9.4360
G01 X25.7086 Y-9.3714
G01 X25.6440 Y-9.3128
G01 X25.5739 Y-9.2608
G01 X25.4991 Y-9.2160
G01 X25.4202 Y-9.1787
G01 X25.3381 Y-9.1493
G01 X25.2972 Y-9.1390
G01 X23.4191 Y-7.2609
G01 X23.3636 Y-7.2107
G01 X23.3036 Y-7.1661
G01 X23.2394 Y-7.1276
G01 X23.1718 Y-7.0957
G01 X23.1013 Y-7.0704
G01 X23.0287 Y-7.0523
G01 X22.9547 Y-7.0413
G01 X22.8800 Y-7.0376
G01 X16.6728 Y-7.0376
G01 X13.7761 Y-4.1409
G01 X13.7207 Y-4.0907
G01 X13.6606 Y-4.0461
G01 X13.5964 Y-4.0076
G01 X13.5288 Y-3.9757
G01 X13.4584 Y-3.9504
G01 X13.3858 Y-3.9323
G01 X13.3118 Y-3.9213
G01 X13.2371 Y-3.9176
G01 X8.1470 Y-3.9176
G00 Z2.0000
G00 X8.6500 Y-2.1400
G01 F60.00
G01 Z-2.4000
G01 F120.00
G01 X8.6460 Y-2.0586
G01 X8.6341 Y-1.9781
G01 X8.6143 Y-1.8991
G01 X8.5868 Y-1.8224
G01 X8.5520 Y-1.7487
G01 X8.5101 Y-1.6789
G01 X8.4616 Y-1.6135
G01 X8.4069 Y-1.5531
G01 X8.3465 Y-1.4984
G01 X8.2811 Y-1.4499
G01 X8.2113 Y-1.4080
G01 X8.1376 Y-1.3732
G01 X8.0609 Y-1.3457
G01 X7.9819 Y-1.3259
G01 X7.9014 Y-1.3140
G01 X7.8200 Y-1.3100
G01 X7.7386 Y-1.3140
G01 X7.6581 Y-1.3259
G01 X7.5791 Y-1.3457
G01 X7.5024 Y-1.3732
G01 X7.4287 Y-1.4080
G01 X7.3589 Y-1.4499
G01 X7.2935 Y-1.4984
G01 X7.2331 Y-1.5531
G01 X7.1784 Y-1.6135
G01 X7.1299 Y-1.6789
G01 X7.0880 Y-1.7487
G01 X7.0532 Y-1.8224
G01 X7.0257 Y-1.8991
G01 X7.0059 Y-1.9781
G01 X6.9940 Y-2.0586
G01 X6.9900 Y-2.1400
G01 X6.9940 Y-2.2214
G01 X7.0059 Y-2.3019
G01 X7.0257 Y-2.3809
G01 X7.0532 Y-2.4576
G01 X7.0880 Y-2.5313
G01 X7.1299 Y-2.6011
G01 X7.1784 Y-2.6665
G01 X7.2331 Y-2.7269
G01 X7.2935 Y-2.7816
G01 X7.3589 Y-2.8301
G01 X7.4287 Y-2.8720
G01 X7.5024 Y-2.9068
G01 X7.5791 Y-2.9343
G01 X7.6581 Y-2.9541
G01 X7.7386 Y-2.9660
G01 X7.8200 Y-2.9700
G01 X7.9014 Y-2.9660
G01 X7.9819 Y-2.9541
G01 X8.0609 Y-2.9343
G01 X8.1376 Y-2.9068
G01 X8.2113 Y-2.8720
G01 X8.2811 Y-2.8301
G01 X8.3465 Y-2.7816
G01 X8.4069 Y-2.7269
G01 X8.4616 Y-2.6665
G01 X8.5101 Y-2.6011
G01 X8.5520 Y-2.5313
G01 X8.5868 Y-2.4576
G01 X8.6143 Y-2.3809
G01 X8.6341 Y-2.3019
G01 X8.6460 Y-2.2214
G01 X8.6500 Y-2.1400
G00 Z2.0000
G00 X8.6500 Y0.4000
G01 F60.00
G01 Z-2.4000
G01 F120.00
G01 X8.6460 Y0.4814
G01 X8.6341 Y0.5619
G01 X8.6143 Y0.6409
G01 X8.5868 Y0.7176
G01 X8.5520 Y0.7913
G01 X8.5101 Y0.8611
G01 X8.4616 Y0.9265
G01 X8.4069 Y0.9869
G01 X8.3465 Y1.0416
G01 X8.2811 Y1.0901
G01 X8.2113 Y1.1320
G01 X8.1376 Y1.1668
G01 X8.0609 Y1.1943
G01 X7.9819 Y1.2141
G01 X7.9014 Y1.2260
G01 X7.8200 Y1.2300
G01 X7.7386 Y1.2260
G01 X7.6581 Y1.2141
G01 X7.5791 Y1.1943
G01 X7.5024 Y1.1668
G01 X7.4287 Y1.1320
G01 X7.3589 Y1.0901
G01 X7.2935 Y1.0416
G01 X7.2331 Y0.9869
G01 X7.1784 Y0.9265
G01 X7.1299 Y0.8611
G01 X7.0880 Y0.7913
G01 X7.0532 Y0.7176
G01 X7.0257 Y0.6409
G01 X7.0059 Y0.5619
G01 X6.9940 Y0.4814
G01 X6.9900 Y0.4000
G01 X6.9940 Y0.3186
G01 X7.0059 Y0.2381
G01 X7.0257 Y0.1591
G01 X7.0532 Y0.0824
G01 X7.0880 Y0.0087
G01 X7.1299 Y-0.0611
G01 X7.1784 Y-0.1265
G01 X7.2331 Y-0.1869
G01 X7.2935 Y-0.2416
G01 X7.3589 Y-0.2901
G01 X7.4287 Y-0.3320
G01 X7.5024 Y-0.3668
G01 X7.5791 Y-0.3943
G01 X7.6581 Y-0.4141
G01 X7.7386 Y-0.4260
G01 X7.8200 Y-0.4300
G01 X7.9014 Y-0.4260
G01 X7.9819 Y-0.4141
G01 X8.0609 Y-0.3943
G01 X8.1376 Y-0.3668
G01 X8.2113 Y-0.3320
G01 X8.2811 Y-0.2901
G01 X8.3465 Y-0.2416
G01 X8.4069 Y-0.1869
G01 X8.4616 Y-0.1265
G01 X8.5101 Y-0.0611
G01 X8.5520 Y0.0087
G01 X8.5868 Y0.0824
G01 X8.6143 Y0.1591
G01 X8.6341 Y0.2381
G01 X8.6460 Y0.3186
G01 X8.6500 Y0.4000
G00 Z2.0000
G00 X8.1470 Y3.7024
G01 F60.00
G01 Z-2.4000
G01 F120.00
G01 X8.1376 Y3.7068
G01 X8.0609 Y3.7343
G01 X7.9819 Y3.7541
G01 X7.9014 Y3.7660
G01 X7.8200 Y3.7700
G01 X7.7386 Y3.7660
G01 X7.6581 Y3.7541
G01 X7.5791 Y3.7343
G01 X7.5024 Y3.7068
G01 X7.4287 Y3.6720
G01 X7.3589 Y3.6301
G01 X7.2935 Y3.5816
G01 X7.2331 Y3.5269
G01 X7.1784 Y3.4665
G01 X7.1299 Y3.4011
G01 X7.0880 Y3.3313
G01 X7.0532 Y3.2576
G01 X7.0257 Y3.1809
G01 X7.0059 Y3.1019
G01 X6.9940 Y3.0214
G01 X6.9900 Y2.9400
G01 X6.9940 Y2.8586
G01 X7.0059 Y2.7781
G01 X7.0257 Y2.6991
G01 X7.0532 Y2.6224
G01 X7.0880 Y2.5487
G01 X7.1299 Y2.4789
G01 X7.1784 Y2.4135
G01 X7.2331 Y2.3531
G01 X7.2935 Y2.2984
G01 X7.3589 Y2.2499
G01 X7.4287 Y2.2080
G01 X7.5024 Y2.1732
G01 X7.5791 Y2.1457
G01 X7.6581 Y2.1259
G01 X7.7386 Y2.1140
G01 X7.8200 Y2.1100
G01 X7.9014 Y2.1140
G01 X7.9819 Y2.1259
G01 X8.0609 Y2.1457
G01 X8.1376 Y2.1732
G01 X8.1470 Y2.1776
G01 X16.4840 Y2.1776
G01 X16.4840 Y1.4440
G01 X18.5160 Y1.4440
G01 X18.5160 Y3.4760
G01 X17.5622 Y3.4760
G01 X17.5036 Y3.5293
G01 X17.4436 Y3.5739
G01 X17.3794 Y3.6124
G01 X17.3118 Y3.6443
G01 X17.2413 Y3.6696
G01 X17.1687 Y3.6877
G01 X17.0947 Y3.6987
G01 X17.0200 Y3.7024
G01 X8.1470 Y3.7024
G00 Z2.0000
G00 X8.6500 Y5.4800
G01 F60.00
G01 Z-2.4000
G01 F120.00
G01 X8.6460 Y5.5614
G01 X8.6341 Y5.6419
G01 X8.6143 Y5.7209
G01 X8.5868 Y5.7976
G01 X8.5520 Y5.8713
G01 X8.5101 Y5.9411
G01 X8.4616 Y6.0065
G01 X8.4069 Y6.0669
G01 X8.3465 Y6.1216
G01 X8.2811 Y6.1701
G01 X8.2113 Y6.2120
G01 X8.1376 Y6.2468
G01 X8.0609 Y6.2743
G01 X7.9819 Y6.2941
G01 X7.9014 Y6.3060
G01 X7.8200 Y6.3100
G01 X7.7386 Y6.3060
G01 X7.6581 Y6.2941
G01 X7.5791 Y6.2743
G01 X7.5024 Y6.2468
G01 X7.4287 Y6.2120
G01 X7.3589 Y6.1701
G01 X7.2935 Y6.1216
G01 X7.2331 Y6.0669
G01 X7.1784 Y6.0065
G01 X7.1299 Y5.9411
G01 X7.0880 Y5.8713
G01 X7.0532 Y5.7976
G01 X7.0257 Y5.7209
G01 X7.0059 Y5.6419
G01 X6.9940 Y5.5614
G01 X6.9900 Y5.4800
G01 X6.9940 Y5.3986
G01 X7.0059 Y5.3181
G01 X7.0257 Y5.2391
G01 X7.0532 Y5.1624
G01 X7.0880 Y5.0887
G01 X7.1299 Y5.0189
G01 X7.1784 Y4.9535
G01 X7.2331 Y4.8931
G01 X7.2935 Y4.8384
G01 X7.3589 Y4.7899
G01 X7.4287 Y4.7480
G01 X7.5024 Y4.7132
G01 X7.5791 Y4.6857
G01 X7.6581 Y4.6659
G01 X7.7386 Y4.6540
G01 X7.8200 Y4.6500
G01 X7.9014 Y4.6540
G01 X7.9819 Y4.6659
G01 X8.0609 Y4.6857
G01 X8.1376 Y4.7132
G01 X8.2113 Y4.7480
G01 X8.2811 Y4.7899
G01 X8.3465 Y4.8384
G01 X8.4069 Y4.8931
G01 X8.4616 Y4.9535
G01 X8.5101 Y5.0189
G01 X8.5520 Y5.0887
G01 X8.5868 Y5.1624
G01 X8.6143 Y5.2391
G01 X8.6341 Y5.3181
G01 X8.6460 Y5.3986
G01 X8.6500 Y5.4800
G00 Z2.0000
G00 X8.6500 Y8.0200
G01 F60.00
G01 Z-2.4000
G01 F120.00
G01 X8.6460 Y8.1014
G01 X8.6341 Y8.1819
G01 X8.6143 Y8.2609
G01 X8.5868 Y8.3376
G01 X8.5520 Y8.4113
G01 X8.5101 Y8.4811
G01 X8.4616 Y8.5465
G01 X8.4069 Y8.6069
G01 X8.3465 Y8.6616
G01 X8.2811 Y8.7101
G01 X8.2113 Y8.7520
G01 X8.1376 Y8.7868
G01 X8.0609 Y8.8143
G01 X7.9819 Y8.8341
G01 X7.9014 Y8.8460
G01 X7.8200 Y8.8500
G01 X7.7386 Y8.8460
G01 X7.6581 Y8.8341
G01 X7.5791 Y8.8143
G01 X7.5024 Y8.7868
G01 X7.4287 Y8.7520
G01 X7.3589 Y8.7101
G01 X7.2935 Y8.6616
G01 X7.2331 Y8.6069
G01 X7.1784 Y8.5465
G01 X7.1299 Y8.4811
G01 X7.0880 Y8.4113
G01 X7.0532 Y8.3376
G01 X7.0257 Y8.2609
G01 X7.0059 Y8.1819
G01 X6.9940 Y8.1014
G01 X6.9900 Y8.0200
G01 X6.9940 Y7.9386
G01 X7.0059 Y7.8581
G01 X7.0257 Y7.7791
G01 X7.0532 Y7.7024
G01 X7.0880 Y7.6287
G01 X7.1299 Y7.5589
G01 X7.1784 Y7.4935
G01 X7.2331 Y7.4331
G01 X7.2935 Y7.3784
G01 X7.3589 Y7.3299
G01 X7.4287 Y7.2880
G01 X7.5024 Y7.2532
G01 X7.5791 Y7.2257
G01 X7.6581 Y7.2059
G01 X7.7386 Y7.1940
G01 X7.8200 Y7.1900
G01 X7.9014 Y7.1940
G01 X7.9819 Y7.2059
G01 X8.0609 Y7.2257
G01 X8.1376 Y7.2532
G01 X8.2113 Y7.2880
G01 X8.2811 Y7.3299
G01 X8.3465 Y7.3784
G01 X8.4069 Y7.4331
G01 X8.4616 Y7.4935
G01 X8.5101 Y7.5589
G01 X8.5520 Y7.6287
G01 X8.5868 Y7.7024
G01 X8.6143 Y7.7791
G01 X8.6341 Y7.8581
G01 X8.6460 Y7.9386
G01 X8.6500 Y8.0200
G00 Z2.0000
G00 X8.6500 Y10.5600
G01 F60.00
G01 Z-2.4000
G01 F120.00
G01 X8.6460 Y10.6414
G01 X8.6341 Y10.7219
G01 X8.6143 Y10.8009
G01 X8.5868 Y10.8776
G01 X8.5520 Y10.9513
G01 X8.5101 Y11.0211
G01 X8.4616 Y11.0865
G01 X8.4069 Y11.1469
G01 X8.3465 Y11.2016
G01 X8.2811 Y11.2501
G01 X8.2113 Y11.2920
G01 X8.1376 Y11.3268
G01 X8.0609 Y11.3543
G01 X7.9819 Y11.3741
G01 X7.9014 Y11.3860
G01 X7.8200 Y11.3900
G01 X7.7386 Y11.3860
G01 X7.6581 Y11.3741
G01 X7.5791 Y11.3543
G01 X7.5024 Y11.3268
G01 X7.4287 Y11.2920
G01 X7.3589 Y11.2501
G01 X7.2935 Y11.2016
G01 X7.2331 Y11.1469
G01 X7.1784 Y11.0865
G01 X7.1299 Y11.0211
G01 X7.0880 Y10.9513
G01 X7.0532 Y10.8776
G01 X7.0257 Y10.8009
G01 X7.0059 Y10.7219
G01 X6.9940 Y10.6414
G01 X6.9900 Y10.5600
G01 X6.9940 Y10.4786
G01 X7.0059 Y10.3981
G01 X7.0257 Y10.3191
G01 X7.0532 Y10.2424
G01 X7.0880 Y10.1687
G01 X7.1299 Y10.0989
G01 X7.1784 Y10.0335
G01 X7.2331 Y9.9731
G01 X7.2935 Y9.9184
G01 X7.3589 Y9.8699
G01 X7.4287 Y9.8280
G01 X7.5024 Y9.7932
G01 X7.5791 Y9.7657
G01 X7.6581 Y9.7459
G01 X7.7386 Y9.7340
G01 X7.8200 Y9.7300
G01 X7.9014 Y9.7340
G01 X7.9819 Y9.7459
G01 X8.0609 Y9.7657
G01 X8.1376 Y9.7932
G01 X8.2113 Y9.8280
G01 X8.2811 Y9.8699
G01 X8.3465 Y9.9184
G01 X8.4069 Y9.9731
G01 X8.4616 Y10.0335
G01 X8.5101 Y10.0989
G01 X8.5520 Y10.1687
G01 X8.5868 Y10.2424
G01 X8.6143 Y10.3191
G01 X8.6341 Y10.3981
G01 X8.6460 Y10.4786
G01 X8.6500 Y10.5600
G00 Z2.0000
G00 X9.1535 Y13.1000
G01 F60.00
G01 Z-2.4000
G01 F120.00
G01 X9.1471 Y13.2307
G01 X9.1279 Y13.3602
G01 X9.0961 Y13.4871
G01 X9.0520 Y13.6103
G01 X8.9960 Y13.7286
G01 X8.9288 Y13.8409
G01 X8.8508 Y13.9460
G01 X8.7629 Y14.0429
G01 X8.6660 Y14.1308
G01 X8.5609 Y14.2088
G01 X8.4486 Y14.2760
G01 X8.3303 Y14.3320
G01 X8.2071 Y14.3761
G01 X8.0802 Y14.4079
G01 X7.9507 Y14.4271
G01 X7.8200 Y14.4335
G01 X7.6893 Y14.4271
G01 X7.5598 Y14.4079
G01 X7.4329 Y14.3761
G01 X7.3097 Y14.3320
G01 X7.1914 Y14.2760
G01 X7.0791 Y14.2088
G01 X6.9740 Y14.1308
G01 X6.8771 Y14.0429
G01 X6.7892 Y13.9460
G01 X6.7112 Y13.8409
G01 X6.6440 Y13.7286
G01 X6.5880 Y13.6103
G01 X6.5439 Y13.4871
G01 X6.5121 Y13.3602
G01 X6.4929 Y13.2307
G01 X6.4865 Y13.1000
G01 X6.4929 Y12.9693
G01 X6.5121 Y12.8398
G01 X6.5439 Y12.7129
G01 X6.5880 Y12.5897
G01 X6.6440 Y12.4714
G01 X6.7112 Y12.3591
G01 X6.7892 Y12.2540
G01 X6.8771 Y12.1571
G01 X6.9740 Y12.0692
G01 X7.0791 Y11.9912
G01 X7.1914 Y11.9240
G01 X7.3097 Y11.8680
G01 X7.4329 Y11.8239
G01 X7.5598 Y11.7921
G01 X7.6893 Y11.7729
G01 X7.8200 Y11.7665
G01 X7.9507 Y11.7729
G01 X8.0802 Y11.7921
G01 X8.2071 Y11.8239
G01 X8.3303 Y11.8680
G01 X8.4486 Y11.9240
G01 X8.5609 Y11.9912
G01 X8.6660 Y12.0692
G01 X8.7629 Y12.1571
G01 X8.8508 Y12.2540
G01 X8.9288 Y12.3591
G01 X8.9960 Y12.4714
G01 X9.0520 Y12.5897
G01 X9.0961 Y12.7129
G01 X9.1279 Y12.8398
G01 X9.1471 Y12.9693
G01 X9.1535 Y13.1000
G00 Z2.0000
G00 X24.3506 Y-13.0478
G01 F60.00
G01 Z-2.4000
G01 F120.00
G01 X24.3506 Y-15.0000
G01 X24.3548 Y-15.0872
G01 X24.3676 Y-15.1735
G01 X24.3889 Y-15.2582
G01 X24.3976 Y-15.2827
G01 X24.3976 Y-17.1248
G01 X24.3760 Y-17.1609
G01 X24.3387 Y-17.2398
G01 X24.3093 Y-17.3219
G01 X24.2881 Y-17.4066
G01 X24.2753 Y-17.4929
G01 X24.2710 Y-17.5800
G01 X24.2753 Y-17.6671
G01 X24.2881 Y-17.7534
G01 X24.3093 Y-17.8381
G01 X24.3387 Y-17.9202
G01 X24.3760 Y-17.9991
G01 X24.4208 Y-18.0739
G01 X24.4728 Y-18.1440
G01 X24.5314 Y-18.2086
G01 X24.5960 Y-18.2672
G01 X24.6661 Y-18.3192
G01 X24.7409 Y-18.3640
G01 X24.8198 Y-18.4013
G01 X24.9019 Y-18.4307
G01 X24.9866 Y-18.4519
G01 X25.0729 Y-18.4647
G01 X25.1600 Y-18.4690
G01 X25.2471 Y-18.4647
G01 X25.3334 Y-18.4519
G01 X25.4181 Y-18.4307
G01 X25.5002 Y-18.4013
G01 X25.5791 Y-18.3640
G01 X25.6539 Y-18.3192
G01 X25.7240 Y-18.2672
G01 X25.7886 Y-18.2086
G01 X25.8472 Y-18.1440
G01 X25.8992 Y-18.0739
G01 X25.9440 Y-17.9991
G01 X25.9813 Y-17.9202
G01 X26.0107 Y-17.8381
G01 X26.0319 Y-17.7534
G01 X26.0447 Y-17.6671
G01 X26.0490 Y-17.5800
G01 X26.0447 Y-17.4929
G01 X26.0319 Y-17.4066
G01 X26.0107 Y-17.3219
G01 X25.9813 Y-17.2398
G01 X25.9440 Y-17.1609
G01 X25.9224 Y-17.1248
G01 X25.9224 Y-15.5700
G01 X25.9275 Y-15.5643
G01 X25.9795 Y-15.4941
G01 X26.0244 Y-15.4193
G01 X26.0617 Y-15.3404
G01 X26.0911 Y-15.2582
G01 X26.1124 Y-15.1735
G01 X26.1252 Y-15.0872
G01 X26.1294 Y-15.0000
G01 X26.1294 Y-12.7000
G01 X26.1252 Y-12.6128
G01 X26.1124 Y-12.5265
G01 X26.0911 Y-12.4418
G01 X26.0617 Y-12.3596
G01 X26.0244 Y-12.2807
G01 X25.9795 Y-12.2059
G01 X25.9275 Y-12.1357
G01 X25.8689 Y-12.0711
G01 X25.7089 Y-11.9111
G01 X25.6443 Y-11.8525
G01 X25.5741 Y-11.8005
G01 X25.4993 Y-11.7556
G01 X25.4204 Y-11.7183
G01 X25.3382 Y-11.6889
G01 X25.2535 Y-11.6676
G01 X25.1672 Y-11.6548
G01 X25.0800 Y-11.6506
G01 X24.9928 Y-11.6548
G01 X24.9065 Y-11.6676
G01 X24.8218 Y-11.6889
G01 X24.7396 Y-11.7183
G01 X24.6607 Y-11.7556
G01 X24.5859 Y-11.8005
G01 X24.5157 Y-11.8525
G01 X24.4511 Y-11.9111
G01 X24.3925 Y-11.9757
G01 X24.3405 Y-12.0459
G01 X24.2956 Y-12.1207
G01 X24.2583 Y-12.1996
G01 X24.2289 Y-12.2818
G01 X24.2076 Y-12.3665
G01 X24.1948 Y-12.4528
G01 X24.1906 Y-12.5400
G01 X24.1948 Y-12.6272
G01 X24.2076 Y-12.7135
G01 X24.2289 Y-12.7982
G01 X24.2583 Y-12.8804
G01 X24.2956 Y-12.9593
G01 X24.3405 Y-13.0341
G01 X24.3506 Y-13.0478
G00 Z2.0000
G00 X15.4552 Y-16.8176
G01 F60.00
G01 Z-2.4000
G01 F120.00
G01 X15.4191 Y-16.7960
G01 X15.3402 Y-16.7587
G01 X15.2581 Y-16.7293
G01 X15.1734 Y-16.7081
G01 X15.0871 Y-16.6953
G01 X15.0000 Y-16.6910
G01 X14.9129 Y-16.6953
G01 X14.8266 Y-16.7081
G01 X14.7419 Y-16.7293
G01 X14.6598 Y-16.7587
G01 X14.5809 Y-16.7960
G01 X14.5061 Y-16.8408
G01 X14.4360 Y-16.8928
G01 X14.3714 Y-16.9514
G01 X14.3128 Y-17.0160
G01 X14.2608 Y-17.0861
G01 X14.2160 Y-17.1609
G01 X14.1787 Y-17.2398
G01 X14.1493 Y-17.3219
G01 X14.1281 Y-17.4066
G01 X14.1153 Y-17.4929
G01 X14.1110 Y-17.5800
G01 X14.1153 Y-17.6671
G01 X14.1281 Y-17.7534
G01 X14.1493 Y-17.8381
G01 X14.1787 Y-17.9202
G01 X14.2160 Y-17.9991
G01 X14.2608 Y-18.0739
G01 X14.3128 Y-18.1440
G01 X14.3714 Y-18.2086
G01 X14.4360 Y-18.2672
G01 X14.5061 Y-18.3192
G01 X14.5809 Y-18.3640
G01 X14.6598 Y-18.4013
G01 X14.7419 Y-18.4307
G01 X14.8266 Y-18.4519
G01 X14.9129 Y-18.4647
G01 X15.0000 Y-18.4690
G01 X15.0871 Y-18.4647
G01 X15.1734 Y-18.4519
G01 X15.2581 Y-18.4307
G01 X15.3402 Y-18.4013
G01 X15.4191 Y-18.3640
G01 X15.4552 Y-18.3424
G01 X17.1715 Y-18.3424
G01 X18.2094 Y-19.3803
G01 X18.2094 Y-20.7616
G01 X18.1761 Y-20.8064
G01 X18.1376 Y-20.8706
G01 X18.1057 Y-20.9382
G01 X18.0804 Y-21.0087
G01 X18.0623 Y-21.0813
G01 X18.0513 Y-21.1553
G01 X18.0476 Y-21.2300
G01 X18.0513 Y-21.3047
G01 X18.0623 Y-21.3787
G01 X18.0804 Y-21.4513
G01 X18.1057 Y-21.5218
G01 X18.1376 Y-21.5894
G01 X18.1761 Y-21.6536
G01 X18.2207 Y-21.7136
G01 X18.2709 Y-21.7691
G01 X18.3264 Y-21.8193
G01 X18.3864 Y-21.8639
G01 X18.4506 Y-21.9024
G01 X18.5182 Y-21.9343
G01 X18.5887 Y-21.9596
G01 X18.6613 Y-21.9777
G01 X18.7353 Y-21.9887
G01 X18.8100 Y-21.9924
G01 X18.8847 Y-21.9887
G01 X18.9587 Y-21.9777
G01 X19.0313 Y-21.9596
G01 X19.1018 Y-21.9343
G01 X19.1694 Y-21.9024
G01 X19.2336 Y-21.8639
G01 X19.2936 Y-21.8193
G01 X19.3491 Y-21.7691
G01 X19.5108 Y-21.6073
G01 X19.5611 Y-21.5519
G01 X19.6056 Y-21.4918
G01 X19.6441 Y-21.4276
G01 X19.6761 Y-21.3600
G01 X19.7013 Y-21.2896
G01 X19.7195 Y-21.2170
G01 X19.7305 Y-21.1430
G01 X19.7341 Y-21.0683
G01 X19.7341 Y-19.0645
G01 X19.7305 Y-18.9898
G01 X19.7195 Y-18.9158
G01 X19.7013 Y-18.8432
G01 X19.6761 Y-18.7727
G01 X19.6441 Y-18.7051
G01 X19.6056 Y-18.6409
G01 X19.5611 Y-18.5808
G01 X19.5108 Y-18.5254
G01 X18.0263 Y-17.0409
G01 X17.9709 Y-16.9907
G01 X17.9108 Y-16.9461
G01 X17.8466 Y-16.9076
G01 X17.7790 Y-16.8757
G01 X17.7086 Y-16.8504
G01 X17.6360 Y-16.8323
G01 X17.5620 Y-16.8213
G01 X17.4872 Y-16.8176
G01 X15.4552 Y-16.8176
G00 Z2.0000
G00 X20.0800 Y-21.7376
G01 F60.00
G01 Z-2.4000
G01 F120.00
G01 X20.0053 Y-21.7413
G01 X19.9313 Y-21.7523
G01 X19.8587 Y-21.7704
G01 X19.7882 Y-21.7957
G01 X19.7206 Y-21.8276
G01 X19.6564 Y-21.8661
G01 X19.5964 Y-21.9107
G01 X19.5409 Y-21.9609
G01 X19.4907 Y-22.0164
G01 X19.4461 Y-22.0764
G01 X19.4076 Y-22.1406
G01 X19.3757 Y-22.2082
G01 X19.3504 Y-22.2787
G01 X19.3323 Y-22.3513
G01 X19.3213 Y-22.4253
G01 X19.3176 Y-22.5000
G01 X19.3213 Y-22.5747
G01 X19.3323 Y-22.6487
G01 X19.3504 Y-22.7213
G01 X19.3757 Y-22.7918
G01 X19.4076 Y-22.8594
G01 X19.4461 Y-22.9236
G01 X19.4907 Y-22.9836
G01 X19.5409 Y-23.0391
G01 X19.5964 Y-23.0893
G01 X19.6564 Y-23.1339
G01 X19.7206 Y-23.1724
G01 X19.7882 Y-23.2043
G01 X19.8587 Y-23.2296
G01 X19.9313 Y-23.2477
G01 X20.0053 Y-23.2587
G01 X20.0800 Y-23.2624
G01 X25.0000 Y-23.2624
G01 X25.0747 Y-23.2587
G01 X25.1487 Y-23.2477
G01 X25.2213 Y-23.2296
G01 X25.2918 Y-23.2043
G01 X25.3594 Y-23.1724
G01 X25.4236 Y-23.1339
G01 X25.4836 Y-23.0893
G01 X25.5391 Y-23.0391
G01 X25.5893 Y-22.9836
G01 X25.6339 Y-22.9236
G01 X25.6724 Y-22.8594
G01 X25.7043 Y-22.7918
G01 X25.7296 Y-22.7213
G01 X25.7477 Y-22.6487
G01 X25.7587 Y-22.5747
G01 X25.7624 Y-22.5000
G01 X25.7587 Y-22.4253
G01 X25.7477 Y-22.3513
G01 X25.7296 Y-22.2787
G01 X25.7043 Y-22.2082
G01 X25.6724 Y-22.1406
G01 X25.6339 Y-22.0764
G01 X25.5893 Y-22.0164
G01 X25.5391 Y-21.9609
G01 X25.4836 Y-21.9107
G01 X25.4236 Y-21.8661
G01 X25.3594 Y-21.8276
G01 X25.2918 Y-21.7957
G01 X25.2213 Y-21.7704
G01 X25.1487 Y-21.7523
G01 X25.0747 Y-21.7413
G01 X25.0000 Y-21.7376
G01 X20.0800 Y-21.7376
G00 Z2.0000
G00 X29.3176 Y-30.4952
G01 F60.00
G01 Z-2.4000
G01 F120.00
G01 X29.3176 Y-37.2600
G01 X29.3213 Y-37.3347
G01 X29.3323 Y-37.4087
G01 X29.3504 Y-37.4813
G01 X29.3757 Y-37.5518
G01 X29.4076 Y-37.6194
G01 X29.4461 Y-37.6836
G01 X29.4907 Y-37.7436
G01 X29.5409 Y-37.7991
G01 X29.6609 Y-37.9191
G01 X29.7164 Y-37.9693
G01 X29.7764 Y-38.0139
G01 X29.8406 Y-38.0524
G01 X29.9082 Y-38.0843
G01 X29.9787 Y-38.1096
G01 X30.0513 Y-38.1277
G01 X30.1253 Y-38.1387
G01 X30.2000 Y-38.1424
G01 X30.2747 Y-38.1387
G01 X30.3487 Y-38.1277
G01 X30.4213 Y-38.1096
G01 X30.4918 Y-38.0843
G01 X30.5594 Y-38.0524
G01 X30.6236 Y-38.0139
G01 X30.6836 Y-37.9693
G01 X30.7391 Y-37.9191
G01 X30.7893 Y-37.8636
G01 X30.8339 Y-37.8036
G01 X30.8724 Y-37.7394
G01 X30.9043 Y-37.6718
G01 X30.9296 Y-37.6013
G01 X30.9477 Y-37.5287
G01 X30.9587 Y-37.4547
G01 X30.9624 Y-37.3800
G01 X30.9587 Y-37.3053
G01 X30.9477 Y-37.2313
G01 X30.9296 Y-37.1587
G01 X30.9043 Y-37.0882
G01 X30.8724 Y-37.0206
G01 X30.8424 Y-36.9706
G01 X30.8424 Y-30.4952
G01 X30.8640 Y-30.4591
G01 X30.9013 Y-30.3802
G01 X30.9307 Y-30.2981
G01 X30.9519 Y-30.2134
G01 X30.9647 Y-30.1271
G01 X30.9690 Y-30.0400
G01 X30.9647 Y-29.9529
G01 X30.9519 Y-29.8666
G01 X30.9307 Y-29.7819
G01 X30.9013 Y-29.6998
G01 X30.8640 Y-29.6209
G01 X30.8192 Y-29.5461
G01 X30.7672 Y-29.4760
G01 X30.7086 Y-29.4114
G01 X30.6440 Y-29.3528
G01 X30.5739 Y-29.3008
G01 X30.4991 Y-29.2560
G01 X30.4202 Y-29.2187
G01 X30.3381 Y-29.1893
G01 X30.2534 Y-29.1681
G01 X30.1671 Y-29.1553
G01 X30.0800 Y-29.1510
G01 X29.9929 Y-29.1553
G01 X29.9066 Y-29.1681
G01 X29.8219 Y-29.1893
G01 X29.7398 Y-29.2187
G01 X29.6609 Y-29.2560
G01 X29.5861 Y-29.3008
G01 X29.5160 Y-29.3528
G01 X29.4514 Y-29.4114
G01 X29.3928 Y-29.4760
G01 X29.3408 Y-29.5461
G01 X29.2960 Y-29.6209
G01 X29.2587 Y-29.6998
G01 X29.2293 Y-29.7819
G01 X29.2081 Y-29.8666
G01 X29.1953 Y-29.9529
G01 X29.1910 Y-30.0400
G01 X29.1953 Y-30.1271
G01 X29.2081 Y-30.2134
G01 X29.2293 Y-30.2981
G01 X29.2587 Y-30.3802
G01 X29.2960 Y-30.4591
G01 X29.3176 Y-30.4952
G00 Z2.0000
G00 X34.0776 Y-43.2224
G01 F60.00
G01 Z-2.4000
G01 F120.00
G01 X34.1523 Y-43.2187
G01 X34.2263 Y-43.2077
G01 X34.2989 Y-43.1896
G01 X34.3694 Y-43.1643
G01 X34.4370 Y-43.1324
G01 X34.5012 Y-43.0939
G01 X34.5612 Y-43.0493
G01 X34.6167 Y-42.9991
G01 X35.7797 Y-41.8361
G01 X35.8299 Y-41.7806
G01 X35.8745 Y-41.7205
G01 X35.9130 Y-41.6564
G01 X35.9450 Y-41.5887
G01 X35.9702 Y-41.5183
G01 X35.9884 Y-41.4457
G01 X35.9993 Y-41.3717
G01 X36.0030 Y-41.2970
G01 X36.0030 Y-37.6606
G01 X35.9993 Y-37.5859
G01 X35.9884 Y-37.5119
G01 X35.9702 Y-37.4393
G01 X35.9654 Y-37.4259
G01 X35.9647 Y-37.4129
G01 X35.9519 Y-37.3266
G01 X35.9307 Y-37.2419
G01 X35.9013 Y-37.1598
G01 X35.8640 Y-37.0809
G01 X35.8424 Y-37.0448
G01 X35.8424 Y-32.9552
G01 X35.8640 Y-32.9191
G01 X35.9013 Y-32.8402
G01 X35.9307 Y-32.7581
G01 X35.9519 Y-32.6734
G01 X35.9647 Y-32.5871
G01 X35.9690 Y-32.5000
G01 X35.9647 Y-32.4129
G01 X35.9519 Y-32.3266
G01 X35.9307 Y-32.2419
G01 X35.9013 Y-32.1598
G01 X35.8640 Y-32.0809
G01 X35.8192 Y-32.0061
G01 X35.7672 Y-31.9360
G01 X35.7086 Y-31.8714
G01 X35.6440 Y-31.8128
G01 X35.5739 Y-31.7608
G01 X35.4991 Y-31.7160
G01 X35.4202 Y-31.6787
G01 X35.3381 Y-31.6493
G01 X35.2534 Y-31.6281
G01 X35.1671 Y-31.6153
G01 X35.0800 Y-31.6110
G01 X34.9929 Y-31.6153
G01 X34.9066 Y-31.6281
G01 X34.8219 Y-31.6493
G01 X34.7398 Y-31.6787
G01 X34.6609 Y-31.7160
G01 X34.5861 Y-31.7608
G01 X34.5160 Y-31.8128
G01 X34.4514 Y-31.8714
G01 X34.3928 Y-31.9360
G01 X34.3408 Y-32.0061
G01 X34.2960 Y-32.0809
G01 X34.2587 Y-32.1598
G01 X34.2293 Y-32.2419
G01 X34.2081 Y-32.3266
G01 X34.1953 Y-32.4129
G01 X34.1910 Y-32.5000
G01 X34.1953 Y-32.5871
G01 X34.2081 Y-32.6734
G01 X34.2293 Y-32.7581
G01 X34.2587 Y-32.8402
G01 X34.2960 Y-32.9191
G01 X34.3176 Y-32.9552
G01 X34.3176 Y-37.0448
G01 X34.2960 Y-37.0809
G01 X34.2587 Y-37.1598
G01 X34.2293 Y-37.2419
G01 X34.2081 Y-37.3266
G01 X34.1953 Y-37.4129
G01 X34.1910 Y-37.5000
G01 X34.1953 Y-37.5871
G01 X34.2081 Y-37.6734
G01 X34.2293 Y-37.7581
G01 X34.2587 Y-37.8402
G01 X34.2960 Y-37.9191
G01 X34.3408 Y-37.9939
G01 X34.3928 Y-38.0640
G01 X34.4514 Y-38.1286
G01 X34.4782 Y-38.1530
G01 X34.4782 Y-40.9812
G01 X33.7618 Y-41.6976
G01 X30.2000 Y-41.6976
G01 X30.1253 Y-41.7013
G01 X30.0513 Y-41.7123
G01 X29.9787 Y-41.7304
G01 X29.9082 Y-41.7557
G01 X29.8406 Y-41.7876
G01 X29.7764 Y-41.8261
G01 X29.7164 Y-41.8707
G01 X29.6609 Y-41.9209
G01 X29.6107 Y-41.9764
G01 X29.5661 Y-42.0364
G01 X29.5276 Y-42.1006
G01 X29.4957 Y-42.1682
G01 X29.4704 Y-42.2387
G01 X29.4523 Y-42.3113
G01 X29.4413 Y-42.3853
G01 X29.4376 Y-42.4600
G01 X29.4413 Y-42.5347
G01 X29.4523 Y-42.6087
G01 X29.4704 Y-42.6813
G01 X29.4957 Y-42.7518
G01 X29.5276 Y-42.8194
G01 X29.5661 Y-42.8836
G01 X29.6107 Y-42.9436
G01 X29.6609 Y-42.9991
G01 X29.7164 Y-43.0493
G01 X29.7764 Y-43.0939
G01 X29.8406 Y-43.1324
G01 X29.9082 Y-43.1643
G01 X29.9787 Y-43.1896
G01 X30.0513 Y-43.2077
G01 X30.1253 Y-43.2187
G01 X30.2000 Y-43.2224
G01 X34.0776 Y-43.2224
G00 Z2.0000
G00 X31.6040 Y-51.4840
G01 F60.00
G01 Z-2.4000
G01 F120.00
G01 X31.6040 Y-51.6106
G01 X27.5800 Y-51.6106
G01 X27.4928 Y-51.6148
G01 X27.4065 Y-51.6276
G01 X27.3218 Y-51.6489
