(G-CODE GENERATED BY FLATCAM v8.994 - www.flatcam.org - Version Date: 2020/11/7)

(Name: Sensor - CADCAM Bottom Copper.GBR_iso_combined_cnc)
(Type: G-code from Geometry)
(Units: MM)

(Created on Thursday, 18 April 2024 at 11:48)

(This preprocessor is the default preprocessor used by FlatCAM.)
(It is made to work with MACH3 compatible motion controllers.)

(TOOL DIAMETER: 0.2 mm)
(Feedrate_XY: 120.0 mm/min)
(Feedrate_Z: 60.0 mm/min)
(Feedrate rapids 1500.0 mm/min)

(Z_Cut: -0.18 mm)
(Z_Move: 2.0 mm)
(Z Start: None mm)
(Z End: 35.0 mm)
(X,Y End: 0.0000, 0.0000 mm)
(Steps per circle: 64)
(Preprocessor Geometry: default)

(X range:    0.8754 ...   67.3555  mm)
(Y range:    1.6376 ...   60.7920  mm)

(Spindle Speed: 0.0 RPM)
G21
G90
G94

G01 F120.00

M5
G00 Z15.0000
G00 X0.0000 Y0.0000
T1
M6    
(MSG, Change to Tool Dia = 0.2000)
M0
G00 Z15.0000

M03
G01 F120.00
G00 X4.0949 Y12.4687
G01 F60.00
G01 Z-0.1800
G01 F120.00
G01 X14.6734 Y1.8902
G01 X14.7324 Y1.8366
G01 X14.7400 Y1.8304
G01 X14.8041 Y1.7830
G01 X14.8767 Y1.7394
G01 X14.9532 Y1.7033
G01 X15.0282 Y1.6763
G01 X15.0376 Y1.6734
G01 X15.1174 Y1.6537
G01 X15.1987 Y1.6418
G01 X15.2832 Y1.6376
G01 X62.5522 Y1.6376
G01 X62.6368 Y1.6418
G01 X62.7156 Y1.6534
G01 X62.7253 Y1.6553
G01 X62.8026 Y1.6748
G01 X62.8777 Y1.7015
G01 X62.8867 Y1.7053
G01 X62.9588 Y1.7394
G01 X63.0314 Y1.7830
G01 X63.0955 Y1.8304
G01 X63.1030 Y1.8366
G01 X63.1620 Y1.8902
G01 X66.9225 Y5.6507
G01 X66.9776 Y5.7117
G01 X67.0280 Y5.7796
G01 X67.0715 Y5.8522
G01 X67.1057 Y5.9242
G01 X67.1095 Y5.9333
G01 X67.1347 Y6.0038
G01 X67.1375 Y6.0131
G01 X67.1568 Y6.0905
G01 X67.1692 Y6.1742
G01 X67.1734 Y6.2588
G01 X67.1734 Y20.7529
G01 X67.1866 Y20.7755
G01 X67.2207 Y20.8475
G01 X67.2234 Y20.8544
G01 X67.2508 Y20.9318
G01 X67.2707 Y21.0116
G01 X67.2825 Y21.0904
G01 X67.2835 Y21.1002
G01 X67.2873 Y21.1798
G01 X67.2873 Y35.7077
G01 X67.2916 Y35.7180
G01 X67.3183 Y35.7931
G01 X67.3389 Y35.8752
G01 X67.3513 Y35.9589
G01 X67.3555 Y36.0434
G01 X67.3513 Y36.1280
G01 X67.3393 Y36.2093
G01 X67.3378 Y36.2165
G01 X67.3190 Y36.2914
G01 X67.3007 Y36.3433
G01 X67.3007 Y46.7752
G01 X67.2969 Y46.8524
G01 X67.2960 Y46.8621
G01 X67.2842 Y46.9410
G01 X67.2649 Y47.0183
G01 X67.2621 Y47.0277
G01 X67.2351 Y47.1027
G01 X67.1989 Y47.1793
G01 X67.1580 Y47.2477
G01 X67.1526 Y47.2559
G01 X67.1050 Y47.3198
G01 X67.0499 Y47.3808
G01 X65.2666 Y49.1641
G01 X65.2039 Y49.2209
G01 X65.1359 Y49.2713
G01 X65.0633 Y49.3148
G01 X64.9913 Y49.3490
G01 X64.9846 Y49.3519
G01 X64.9072 Y49.3795
G01 X64.8251 Y49.4001
G01 X64.7413 Y49.4125
G01 X64.6617 Y49.4165
G01 X63.3207 Y49.4166
G01 X63.3207 Y49.5727
G01 X63.3202 Y49.5801
G01 X63.3192 Y49.5874
G01 X63.3177 Y49.5946
G01 X63.3149 Y49.6039
G01 X63.3100 Y49.6152
G01 X63.3065 Y49.6217
G01 X63.3025 Y49.6278
G01 X63.2980 Y49.6337
G01 X63.2931 Y49.6392
G01 X63.2879 Y49.6444
G01 X63.2822 Y49.6491
G01 X63.2763 Y49.6534
G01 X63.2700 Y49.6573
G01 X63.2635 Y49.6607
G01 X63.2567 Y49.6636
G01 X63.2497 Y49.6660
G01 X63.2426 Y49.6678
G01 X63.2354 Y49.6692
G01 X63.2281 Y49.6700
G01 X63.2207 Y49.6703
G01 X61.1863 Y49.6702
G01 X61.1789 Y49.6698
G01 X61.1716 Y49.6688
G01 X61.1644 Y49.6673
G01 X61.1574 Y49.6652
G01 X61.1505 Y49.6626
G01 X61.1438 Y49.6596
G01 X61.1373 Y49.6560
G01 X61.1311 Y49.6520
G01 X61.1253 Y49.6476
G01 X61.1198 Y49.6427
G01 X61.1146 Y49.6374
G01 X61.1099 Y49.6318
G01 X61.1056 Y49.6258
G01 X61.1017 Y49.6195
G01 X61.0983 Y49.6130
G01 X61.0954 Y49.6062
G01 X61.0923 Y49.5969
G01 X61.0902 Y49.5874
G01 X61.0892 Y49.5801
G01 X61.0887 Y49.5703
G01 X61.0888 Y47.5358
G01 X61.0895 Y47.5260
G01 X61.0917 Y47.5140
G01 X61.0954 Y47.5023
G01 X61.1005 Y47.4911
G01 X61.1070 Y47.4807
G01 X61.1146 Y47.4711
G01 X61.1234 Y47.4625
G01 X61.1311 Y47.4565
G01 X61.1373 Y47.4525
G01 X61.1438 Y47.4489
G01 X61.1505 Y47.4459
G01 X61.1574 Y47.4433
G01 X61.1644 Y47.4413
G01 X61.1716 Y47.4397
G01 X61.1789 Y47.4387
G01 X61.1887 Y47.4383
G01 X63.2207 Y47.4383
G01 X63.2281 Y47.4385
G01 X63.2354 Y47.4393
G01 X63.2426 Y47.4407
G01 X63.2544 Y47.4441
G01 X63.2612 Y47.4468
G01 X63.2679 Y47.4501
G01 X63.2742 Y47.4538
G01 X63.2803 Y47.4579
G01 X63.2860 Y47.4625
G01 X63.2914 Y47.4675
G01 X63.2964 Y47.4729
G01 X63.3010 Y47.4787
G01 X63.3052 Y47.4848
G01 X63.3089 Y47.4911
G01 X63.3121 Y47.4977
G01 X63.3149 Y47.5046
G01 X63.3171 Y47.5116
G01 X63.3188 Y47.5188
G01 X63.3200 Y47.5260
G01 X63.3207 Y47.5358
G01 X63.3207 Y47.6919
G01 X64.2996 Y47.6919
G01 X65.5760 Y46.4155
G01 X65.5760 Y36.9058
G01 X63.3207 Y36.9058
G01 X63.3207 Y37.0727
G01 X63.3202 Y37.0801
G01 X63.3192 Y37.0874
G01 X63.3177 Y37.0946
G01 X63.3149 Y37.1039
G01 X63.3121 Y37.1108
G01 X63.3089 Y37.1174
G01 X63.3052 Y37.1238
G01 X63.3010 Y37.1298
G01 X63.2964 Y37.1356
G01 X63.2914 Y37.1410
G01 X63.2860 Y37.1460
G01 X63.2803 Y37.1506
G01 X63.2742 Y37.1547
G01 X63.2679 Y37.1585
G01 X63.2612 Y37.1617
G01 X63.2544 Y37.1644
G01 X63.2474 Y37.1666
G01 X63.2378 Y37.1688
G01 X63.2305 Y37.1698
G01 X63.2232 Y37.1702
G01 X61.1838 Y37.1701
G01 X61.1740 Y37.1692
G01 X61.1644 Y37.1673
G01 X61.1550 Y37.1644
G01 X61.1482 Y37.1617
G01 X61.1394 Y37.1573
G01 X61.1311 Y37.1520
G01 X61.1234 Y37.1460
G01 X61.1163 Y37.1392
G01 X61.1099 Y37.1318
G01 X61.1042 Y37.1238
G01 X61.0994 Y37.1152
G01 X61.0963 Y37.1085
G01 X61.0930 Y37.0993
G01 X61.0906 Y37.0898
G01 X61.0892 Y37.0801
G01 X61.0887 Y37.0703
G01 X61.0888 Y35.0358
G01 X61.0892 Y35.0285
G01 X61.0902 Y35.0212
G01 X61.0917 Y35.0140
G01 X61.0938 Y35.0069
G01 X61.0963 Y35.0000
G01 X61.0994 Y34.9933
G01 X61.1029 Y34.9868
G01 X61.1070 Y34.9807
G01 X61.1114 Y34.9748
G01 X61.1163 Y34.9693
G01 X61.1216 Y34.9642
G01 X61.1272 Y34.9594
G01 X61.1373 Y34.9525
G01 X61.1438 Y34.9489
G01 X61.1505 Y34.9459
G01 X61.1597 Y34.9426
G01 X61.1692 Y34.9402
G01 X61.1789 Y34.9387
G01 X61.1887 Y34.9383
G01 X63.2207 Y34.9383
G01 X63.2305 Y34.9387
G01 X63.2378 Y34.9397
G01 X63.2450 Y34.9413
G01 X63.2567 Y34.9450
G01 X63.2635 Y34.9479
G01 X63.2700 Y34.9513
G01 X63.2763 Y34.9551
G01 X63.2822 Y34.9594
G01 X63.2914 Y34.9675
G01 X63.2964 Y34.9729
G01 X63.3010 Y34.9787
G01 X63.3052 Y34.9848
G01 X63.3089 Y34.9911
G01 X63.3140 Y35.0023
G01 X63.3164 Y35.0092
G01 X63.3183 Y35.0163
G01 X63.3196 Y35.0236
G01 X63.3206 Y35.0334
G01 X63.3207 Y35.1810
G01 X65.5625 Y35.1810
G01 X65.5625 Y21.9166
G01 X63.3207 Y21.9166
G01 X63.3207 Y22.0703
G01 X63.3200 Y22.0825
G01 X63.3188 Y22.0898
G01 X63.3164 Y22.0993
G01 X63.3131 Y22.1085
G01 X63.3100 Y22.1152
G01 X63.3065 Y22.1217
G01 X63.3010 Y22.1298
G01 X63.2964 Y22.1356
G01 X63.2914 Y22.1410
G01 X63.2860 Y22.1460
G01 X63.2803 Y22.1506
G01 X63.2721 Y22.1560
G01 X63.2657 Y22.1596
G01 X63.2567 Y22.1636
G01 X63.2497 Y22.1660
G01 X63.2402 Y22.1683
G01 X63.2330 Y22.1695
G01 X63.2207 Y22.1703
G01 X63.0671 Y22.1703
G01 X63.0671 Y23.5543
G01 X63.0632 Y23.6363
G01 X63.0623 Y23.6437
G01 X63.0505 Y23.7225
G01 X63.0313 Y23.7999
G01 X63.0284 Y23.8093
G01 X63.0015 Y23.8843
G01 X62.9675 Y23.9564
G01 X62.9629 Y23.9651
G01 X62.9204 Y24.0354
G01 X62.8713 Y24.1013
G01 X62.8145 Y24.1641
G01 X60.3128 Y26.6658
G01 X60.2518 Y26.7209
G01 X60.1878 Y26.7685
G01 X60.1797 Y26.7739
G01 X60.1112 Y26.8148
G01 X60.0392 Y26.8490
G01 X60.0302 Y26.8528
G01 X59.9551 Y26.8795
G01 X59.8778 Y26.8990
G01 X59.8681 Y26.9009
G01 X59.7892 Y26.9125
G01 X59.7047 Y26.9166
G01 X49.9847 Y26.9166
G01 X49.9026 Y26.9127
G01 X49.8953 Y26.9119
G01 X49.8165 Y26.9001
G01 X49.7391 Y26.8808
G01 X49.7297 Y26.8780
G01 X49.6593 Y26.8528
G01 X49.6502 Y26.8490
G01 X49.5782 Y26.8148
G01 X49.5056 Y26.7713
G01 X49.4376 Y26.7209
G01 X49.3749 Y26.6641
G01 X49.2132 Y26.5023
G01 X49.1597 Y26.4432
G01 X49.1551 Y26.4375
G01 X49.1077 Y26.3734
G01 X49.0666 Y26.3051
G01 X49.0620 Y26.2964
G01 X49.0280 Y26.2243
G01 X48.9995 Y26.1446
G01 X48.9789 Y26.0625
G01 X48.9668 Y25.9812
G01 X48.9661 Y25.9739
G01 X48.9623 Y25.8943
G01 X48.9665 Y25.8097
G01 X48.9789 Y25.7260
G01 X48.9995 Y25.6439
G01 X49.0280 Y25.5642
G01 X49.0642 Y25.4877
G01 X49.1077 Y25.4151
G01 X49.1581 Y25.3472
G01 X49.2149 Y25.2845
G01 X49.2776 Y25.2276
G01 X49.3456 Y25.1772
G01 X49.4182 Y25.1337
G01 X49.4947 Y25.0975
G01 X49.5744 Y25.0690
G01 X49.6565 Y25.0484
G01 X49.7353 Y25.0366
G01 X49.7426 Y25.0358
G01 X49.8247 Y25.0319
G01 X49.9092 Y25.0360
G01 X49.9930 Y25.0484
G01 X50.0727 Y25.0683
G01 X50.0797 Y25.0706
G01 X50.1547 Y25.0975
G01 X50.2291 Y25.1326
G01 X50.2355 Y25.1361
G01 X50.3018 Y25.1759
G01 X50.3238 Y25.1919
G01 X59.3475 Y25.1919
G01 X61.3423 Y23.1971
G01 X61.3423 Y22.1703
G01 X61.1863 Y22.1702
G01 X61.1789 Y22.1698
G01 X61.1692 Y22.1683
G01 X61.1620 Y22.1666
G01 X61.1550 Y22.1644
G01 X61.1482 Y22.1617
G01 X61.1416 Y22.1585
G01 X61.1352 Y22.1547
G01 X61.1292 Y22.1506
G01 X61.1198 Y22.1427
G01 X61.1146 Y22.1374
G01 X61.1099 Y22.1318
G01 X61.1056 Y22.1258
G01 X61.1017 Y22.1195
G01 X61.0983 Y22.1130
G01 X61.0954 Y22.1062
G01 X61.0930 Y22.0993
G01 X61.0911 Y22.0922
G01 X61.0898 Y22.0849
G01 X61.0890 Y22.0776
G01 X61.0887 Y22.0703
G01 X61.0888 Y20.0358
G01 X61.0895 Y20.0260
G01 X61.0917 Y20.0140
G01 X61.0946 Y20.0046
G01 X61.0983 Y19.9955
G01 X61.1029 Y19.9868
G01 X61.1099 Y19.9767
G01 X61.1180 Y19.9675
G01 X61.1253 Y19.9610
G01 X61.1311 Y19.9565
G01 X61.1394 Y19.9513
G01 X61.1460 Y19.9479
G01 X61.1550 Y19.9441
G01 X61.1644 Y19.9413
G01 X61.1716 Y19.9397
G01 X61.1789 Y19.9387
G01 X61.1887 Y19.9383
G01 X63.2256 Y19.9384
G01 X63.2330 Y19.9390
G01 X63.2402 Y19.9402
G01 X63.2474 Y19.9419
G01 X63.2544 Y19.9441
G01 X63.2612 Y19.9468
G01 X63.2679 Y19.9501
G01 X63.2742 Y19.9538
G01 X63.2803 Y19.9579
G01 X63.2860 Y19.9625
G01 X63.2914 Y19.9675
G01 X63.2964 Y19.9729
G01 X63.3010 Y19.9787
G01 X63.3052 Y19.9848
G01 X63.3089 Y19.9911
G01 X63.3140 Y20.0023
G01 X63.3164 Y20.0092
G01 X63.3188 Y20.0188
G01 X63.3200 Y20.0260
G01 X63.3207 Y20.0358
G01 X63.3207 Y20.1919
G01 X65.4486 Y20.1919
G01 X65.4486 Y6.6160
G01 X62.1950 Y3.3624
G01 X15.6404 Y3.3624
G01 X5.5671 Y13.4357
G01 X5.5671 Y30.6971
G01 X7.5619 Y32.6919
G01 X11.0887 Y32.6919
G01 X11.0888 Y32.5358
G01 X11.0895 Y32.5260
G01 X11.0906 Y32.5188
G01 X11.0923 Y32.5116
G01 X11.0954 Y32.5023
G01 X11.0983 Y32.4955
G01 X11.1017 Y32.4890
G01 X11.1056 Y32.4827
G01 X11.1099 Y32.4767
G01 X11.1146 Y32.4711
G01 X11.1198 Y32.4658
G01 X11.1253 Y32.4610
G01 X11.1311 Y32.4565
G01 X11.1394 Y32.4513
G01 X11.1460 Y32.4479
G01 X11.1527 Y32.4450
G01 X11.1597 Y32.4426
G01 X11.1668 Y32.4407
G01 X11.1740 Y32.4393
G01 X11.1814 Y32.4385
G01 X11.1887 Y32.4383
G01 X13.2207 Y32.4383
G01 X13.2281 Y32.4385
G01 X13.2354 Y32.4393
G01 X13.2426 Y32.4407
G01 X13.2497 Y32.4426
G01 X13.2567 Y32.4450
G01 X13.2635 Y32.4479
G01 X13.2700 Y32.4513
G01 X13.2763 Y32.4551
G01 X13.2822 Y32.4594
G01 X13.2879 Y32.4642
G01 X13.2931 Y32.4693
G01 X13.2980 Y32.4748
G01 X13.3025 Y32.4807
G01 X13.3065 Y32.4868
G01 X13.3100 Y32.4933
G01 X13.3149 Y32.5046
G01 X13.3177 Y32.5140
G01 X13.3192 Y32.5212
G01 X13.3202 Y32.5285
G01 X13.3207 Y32.5358
G01 X13.3207 Y32.6919
G01 X14.8292 Y32.6919
G01 X17.0381 Y30.4830
G01 X17.0954 Y30.4311
G01 X17.1030 Y30.4249
G01 X17.1671 Y30.3775
G01 X17.2354 Y30.3364
G01 X17.2440 Y30.3317
G01 X17.3162 Y30.2978
G01 X17.3958 Y30.2693
G01 X17.4731 Y30.2498
G01 X17.4828 Y30.2479
G01 X17.5617 Y30.2363
G01 X17.6462 Y30.2321
G01 X21.0887 Y30.2321
G01 X21.0887 Y30.1583
G01 X21.0892 Y30.1485
G01 X21.0906 Y30.1388
G01 X21.0938 Y30.1269
G01 X21.0973 Y30.1177
G01 X21.1017 Y30.1090
G01 X21.1084 Y30.0987
G01 X21.1130 Y30.0929
G01 X21.1180 Y30.0875
G01 X21.1272 Y30.0794
G01 X21.1373 Y30.0725
G01 X21.1482 Y30.0668
G01 X21.1597 Y30.0626
G01 X21.1716 Y30.0597
G01 X21.1789 Y30.0587
G01 X21.1863 Y30.0583
G01 X23.2232 Y30.0583
G01 X23.2305 Y30.0587
G01 X23.2378 Y30.0597
G01 X23.2497 Y30.0626
G01 X23.2612 Y30.0668
G01 X23.2679 Y30.0701
G01 X23.2742 Y30.0738
G01 X23.2803 Y30.0779
G01 X23.2860 Y30.0825
G01 X23.2914 Y30.0875
G01 X23.2964 Y30.0929
G01 X23.3010 Y30.0987
G01 X23.3052 Y30.1048
G01 X23.3111 Y30.1155
G01 X23.3149 Y30.1246
G01 X23.3183 Y30.1363
G01 X23.3202 Y30.1485
G01 X23.3207 Y30.1583
G01 X23.3207 Y32.1927
G01 X23.3202 Y32.2001
G01 X23.3192 Y32.2074
G01 X23.3164 Y32.2193
G01 X23.3121 Y32.2308
G01 X23.3065 Y32.2417
G01 X23.2996 Y32.2518
G01 X23.2948 Y32.2574
G01 X23.2897 Y32.2627
G01 X23.2803 Y32.2706
G01 X23.2742 Y32.2747
G01 X23.2679 Y32.2785
G01 X23.2567 Y32.2836
G01 X23.2450 Y32.2873
G01 X23.2330 Y32.2895
G01 X23.2207 Y32.2903
G01 X21.1887 Y32.2903
G01 X21.1814 Y32.2900
G01 X21.1740 Y32.2892
G01 X21.1668 Y32.2878
G01 X21.1597 Y32.2860
G01 X21.1527 Y32.2836
G01 X21.1460 Y32.2807
G01 X21.1394 Y32.2773
G01 X21.1332 Y32.2734
G01 X21.1272 Y32.2691
G01 X21.1216 Y32.2644
G01 X21.1163 Y32.2592
G01 X21.1114 Y32.2537
G01 X21.1070 Y32.2478
G01 X21.1029 Y32.2417
G01 X21.0994 Y32.2352
G01 X21.0963 Y32.2285
G01 X21.0938 Y32.2216
G01 X21.0917 Y32.2146
G01 X21.0895 Y32.2025
G01 X21.0887 Y32.1903
G01 X21.0887 Y31.9569
G01 X18.0034 Y31.9569
G01 X15.7927 Y34.1674
G01 X15.7335 Y34.2209
G01 X15.6695 Y34.2685
G01 X15.6614 Y34.2739
G01 X15.5929 Y34.3148
G01 X15.5164 Y34.3510
G01 X15.4414 Y34.3780
G01 X15.4320 Y34.3808
G01 X15.3595 Y34.3990
G01 X15.3498 Y34.4009
G01 X15.2709 Y34.4125
G01 X15.1864 Y34.4166
G01 X13.3207 Y34.4166
G01 X13.3207 Y34.5727
G01 X13.3200 Y34.5825
G01 X13.3188 Y34.5898
G01 X13.3171 Y34.5969
G01 X13.3149 Y34.6039
G01 X13.3121 Y34.6108
G01 X13.3089 Y34.6174
G01 X13.3025 Y34.6278
G01 X13.2980 Y34.6337
G01 X13.2931 Y34.6392
G01 X13.2879 Y34.6444
G01 X13.2822 Y34.6491
G01 X13.2763 Y34.6534
G01 X13.2700 Y34.6573
G01 X13.2635 Y34.6607
G01 X13.2567 Y34.6636
G01 X13.2497 Y34.6660
G01 X13.2426 Y34.6678
G01 X13.2354 Y34.6692
G01 X13.2281 Y34.6700
G01 X13.2207 Y34.6703
G01 X11.1887 Y34.6703
G01 X11.1814 Y34.6700
G01 X11.1740 Y34.6692
G01 X11.1668 Y34.6678
G01 X11.1597 Y34.6660
G01 X11.1505 Y34.6626
G01 X11.1438 Y34.6596
G01 X11.1373 Y34.6560
G01 X11.1311 Y34.6520
G01 X11.1253 Y34.6476
G01 X11.1198 Y34.6427
G01 X11.1146 Y34.6374
G01 X11.1099 Y34.6318
G01 X11.1056 Y34.6258
G01 X11.1017 Y34.6195
G01 X11.0983 Y34.6130
G01 X11.0954 Y34.6062
G01 X11.0930 Y34.5993
G01 X11.0906 Y34.5898
G01 X11.0895 Y34.5825
G01 X11.0888 Y34.5727
G01 X11.0887 Y34.4166
G01 X7.2047 Y34.4166
G01 X7.1251 Y34.4128
G01 X7.1153 Y34.4119
G01 X7.0365 Y34.4001
G01 X6.9591 Y34.3808
G01 X6.9497 Y34.3780
G01 X6.8747 Y34.3510
G01 X6.8026 Y34.3170
G01 X6.7939 Y34.3124
G01 X6.7256 Y34.2713
G01 X6.6615 Y34.2239
G01 X6.6539 Y34.2177
G01 X6.5967 Y34.1658
G01 X4.0949 Y31.6641
G01 X4.0381 Y31.6013
G01 X3.9905 Y31.5374
G01 X3.9851 Y31.5292
G01 X3.9430 Y31.4586
G01 X3.9100 Y31.3888
G01 X3.9062 Y31.3797
G01 X3.8795 Y31.3046
G01 X3.8600 Y31.2273
G01 X3.8581 Y31.2177
G01 X3.8465 Y31.1388
G01 X3.8423 Y31.0543
G01 X3.8423 Y13.0785
G01 X3.8465 Y12.9940
G01 X3.8589 Y12.9102
G01 X3.8795 Y12.8281
G01 X3.9080 Y12.7485
G01 X3.9442 Y12.6720
G01 X3.9877 Y12.5994
G01 X4.0381 Y12.5314
G01 X4.0949 Y12.4687
G00 Z2.0000
G00 X11.0887 Y19.3303
G01 F60.00
G01 Z-0.1800
G01 F120.00
G01 X11.0888 Y17.2958
G01 X11.0895 Y17.2860
G01 X11.0911 Y17.2763
G01 X11.0938 Y17.2669
G01 X11.0973 Y17.2577
G01 X11.1017 Y17.2490
G01 X11.1070 Y17.2407
G01 X11.1130 Y17.2329
G01 X11.1198 Y17.2258
G01 X11.1272 Y17.2194
G01 X11.1352 Y17.2138
G01 X11.1438 Y17.2089
G01 X11.1505 Y17.2059
G01 X11.1597 Y17.2026
G01 X11.1692 Y17.2002
G01 X11.1789 Y17.1987
G01 X11.1863 Y17.1983
G01 X13.2207 Y17.1983
G01 X13.2305 Y17.1987
G01 X13.2402 Y17.2002
G01 X13.2521 Y17.2033
G01 X13.2612 Y17.2068
G01 X13.2700 Y17.2113
G01 X13.2783 Y17.2165
G01 X13.2860 Y17.2225
G01 X13.2931 Y17.2293
G01 X13.2996 Y17.2367
G01 X13.3039 Y17.2427
G01 X13.3089 Y17.2511
G01 X13.3131 Y17.2600
G01 X13.3164 Y17.2692
G01 X13.3183 Y17.2763
G01 X13.3200 Y17.2860
G01 X13.3207 Y17.2958
G01 X13.3207 Y19.3303
G01 X13.3202 Y19.3401
G01 X13.3188 Y19.3498
G01 X13.3164 Y19.3593
G01 X13.3131 Y19.3685
G01 X13.3077 Y19.3795
G01 X13.3025 Y19.3878
G01 X13.2964 Y19.3956
G01 X13.2897 Y19.4027
G01 X13.2822 Y19.4091
G01 X13.2763 Y19.4134
G01 X13.2679 Y19.4185
G01 X13.2590 Y19.4226
G01 X13.2521 Y19.4252
G01 X13.2426 Y19.4278
G01 X13.2330 Y19.4295
G01 X13.2232 Y19.4302
G01 X11.1863 Y19.4302
G01 X11.1789 Y19.4298
G01 X11.1692 Y19.4283
G01 X11.1597 Y19.4260
G01 X11.1505 Y19.4226
G01 X11.1416 Y19.4185
G01 X11.1332 Y19.4134
G01 X11.1253 Y19.4076
G01 X11.1180 Y19.4010
G01 X11.1114 Y19.3937
G01 X11.1056 Y19.3858
G01 X11.1005 Y19.3774
G01 X11.0963 Y19.3685
G01 X11.0930 Y19.3593
G01 X11.0906 Y19.3498
G01 X11.0892 Y19.3401
G01 X11.0887 Y19.3303
G00 Z2.0000
G00 X11.1887 Y22.2783
G01 F60.00
G01 Z-0.1800
G01 F120.00
G01 X13.2207 Y22.2783
G01 X13.2305 Y22.2787
G01 X13.2402 Y22.2802
G01 X13.2474 Y22.2819
G01 X13.2544 Y22.2841
G01 X13.2612 Y22.2868
G01 X13.2679 Y22.2901
G01 X13.2742 Y22.2938
G01 X13.2803 Y22.2979
G01 X13.2860 Y22.3025
G01 X13.2914 Y22.3075
G01 X13.2964 Y22.3129
G01 X13.3010 Y22.3187
G01 X13.3052 Y22.3248
G01 X13.3089 Y22.3311
G01 X13.3121 Y22.3377
G01 X13.3149 Y22.3446
G01 X13.3171 Y22.3516
G01 X13.3188 Y22.3588
G01 X13.3202 Y22.3685
G01 X13.3207 Y22.3783
G01 X13.3207 Y22.6919
G01 X21.0887 Y22.6919
G01 X21.0888 Y22.5358
G01 X21.0892 Y22.5285
G01 X21.0906 Y22.5188
G01 X21.0923 Y22.5116
G01 X21.0946 Y22.5046
G01 X21.0994 Y22.4933
G01 X21.1029 Y22.4868
G01 X21.1070 Y22.4807
G01 X21.1114 Y22.4748
G01 X21.1163 Y22.4693
G01 X21.1253 Y22.4610
G01 X21.1311 Y22.4565
G01 X21.1373 Y22.4525
G01 X21.1482 Y22.4468
G01 X21.1550 Y22.4441
G01 X21.1620 Y22.4419
G01 X21.1692 Y22.4402
G01 X21.1765 Y22.4390
G01 X21.1887 Y22.4383
G01 X23.2207 Y22.4383
G01 X23.2281 Y22.4385
G01 X23.2354 Y22.4393
G01 X23.2426 Y22.4407
G01 X23.2497 Y22.4426
G01 X23.2567 Y22.4450
G01 X23.2635 Y22.4479
G01 X23.2700 Y22.4513
G01 X23.2763 Y22.4551
G01 X23.2822 Y22.4594
G01 X23.2879 Y22.4642
G01 X23.2931 Y22.4693
G01 X23.2980 Y22.4748
G01 X23.3039 Y22.4827
G01 X23.3077 Y22.4890
G01 X23.3111 Y22.4955
G01 X23.3140 Y22.5023
G01 X23.3171 Y22.5116
G01 X23.3188 Y22.5188
G01 X23.3200 Y22.5260
G01 X23.3207 Y22.5358
G01 X23.3207 Y22.6919
G01 X25.6582 Y22.6919
G01 X25.7353 Y22.6957
G01 X25.7451 Y22.6966
G01 X25.8240 Y22.7084
G01 X25.9037 Y22.7283
G01 X25.9107 Y22.7306
G01 X25.9857 Y22.7575
G01 X26.0578 Y22.7915
G01 X26.0665 Y22.7961
G01 X26.1348 Y22.8372
G01 X26.1989 Y22.8846
G01 X26.2065 Y22.8908
G01 X26.2637 Y22.9428
G01 X30.8892 Y27.5682
G01 X34.5810 Y27.5682
G01 X34.6656 Y27.5724
G01 X34.7445 Y27.5839
G01 X34.7541 Y27.5859
G01 X34.8314 Y27.6053
G01 X34.9065 Y27.6321
G01 X34.9156 Y27.6358
G01 X34.9876 Y27.6700
G01 X35.0560 Y27.7109
G01 X35.0642 Y27.7164
G01 X35.1243 Y27.7609
G01 X35.1319 Y27.7672
G01 X35.1908 Y27.8208
G01 X35.1979 Y27.8280
G01 X35.2513 Y27.8872
G01 X35.3018 Y27.9551
G01 X35.3429 Y28.0235
G01 X35.3475 Y28.0321
G01 X35.3815 Y28.1042
G01 X35.4100 Y28.1839
G01 X35.4305 Y28.2660
G01 X35.4429 Y28.3497
G01 X35.4471 Y28.4343
G01 X35.4429 Y28.5188
G01 X35.4305 Y28.6025
G01 X35.4107 Y28.6822
G01 X35.3832 Y28.7597
G01 X35.3795 Y28.7688
G01 X35.3453 Y28.8408
G01 X35.3018 Y28.9134
G01 X35.2544 Y28.9775
G01 X35.2481 Y28.9851
G01 X35.1945 Y29.0441
G01 X35.1318 Y29.1009
G01 X35.0678 Y29.1485
G01 X35.0597 Y29.1539
G01 X34.9912 Y29.1948
G01 X34.9147 Y29.2310
G01 X34.8351 Y29.2595
G01 X34.7578 Y29.2790
G01 X34.7481 Y29.2809
G01 X34.6692 Y29.2925
G01 X34.5847 Y29.2966
G01 X34.5076 Y29.2930
G01 X30.5296 Y29.2929
G01 X30.4475 Y29.2888
G01 X30.3638 Y29.2764
G01 X30.2817 Y29.2558
G01 X30.2020 Y29.2273
G01 X30.1255 Y29.1911
G01 X30.0529 Y29.1476
G01 X29.9850 Y29.0972
G01 X29.9222 Y29.0404
G01 X25.2985 Y24.4166
G01 X23.3207 Y24.4166
G01 X23.3207 Y24.5727
G01 X23.3202 Y24.5801
G01 X23.3188 Y24.5898
G01 X23.3171 Y24.5969
G01 X23.3140 Y24.6062
G01 X23.3111 Y24.6130
G01 X23.3077 Y24.6195
G01 X23.3039 Y24.6258
G01 X23.2996 Y24.6318
G01 X23.2948 Y24.6374
G01 X23.2897 Y24.6427
G01 X23.2842 Y24.6476
G01 X23.2783 Y24.6520
G01 X23.2721 Y24.6560
G01 X23.2635 Y24.6607
G01 X23.2567 Y24.6636
G01 X23.2497 Y24.6660
G01 X23.2426 Y24.6678
G01 X23.2354 Y24.6692
G01 X23.2281 Y24.6700
G01 X23.2207 Y24.6703
G01 X21.1887 Y24.6703
G01 X21.1765 Y24.6695
G01 X21.1692 Y24.6683
G01 X21.1620 Y24.6666
G01 X21.1550 Y24.6644
G01 X21.1482 Y24.6617
G01 X21.1373 Y24.6560
G01 X21.1311 Y24.6520
G01 X21.1253 Y24.6476
G01 X21.1198 Y24.6427
G01 X21.1146 Y24.6374
G01 X21.1070 Y24.6278
G01 X21.1005 Y24.6174
G01 X21.0973 Y24.6108
G01 X21.0946 Y24.6039
G01 X21.0923 Y24.5969
G01 X21.0902 Y24.5874
G01 X21.0892 Y24.5801
G01 X21.0888 Y24.5727
G01 X21.0887 Y24.4166
G01 X13.3205 Y24.4166
G01 X13.3196 Y24.4249
G01 X13.3177 Y24.4346
G01 X13.3149 Y24.4439
G01 X13.3121 Y24.4508
G01 X13.3077 Y24.4595
G01 X13.3025 Y24.4678
G01 X13.2980 Y24.4737
G01 X13.2914 Y24.4810
G01 X13.2860 Y24.4860
G01 X13.2783 Y24.4920
G01 X13.2700 Y24.4973
G01 X13.2612 Y24.5017
G01 X13.2521 Y24.5052
G01 X13.2426 Y24.5078
G01 X13.2330 Y24.5095
G01 X13.2256 Y24.5101
G01 X11.1887 Y24.5103
G01 X11.1765 Y24.5095
G01 X11.1692 Y24.5083
G01 X11.1620 Y24.5066
G01 X11.1550 Y24.5044
G01 X11.1460 Y24.5007
G01 X11.1394 Y24.4973
G01 X11.1332 Y24.4934
G01 X11.1272 Y24.4891
G01 X11.1216 Y24.4844
G01 X11.1163 Y24.4792
G01 X11.1099 Y24.4718
G01 X11.1042 Y24.4638
G01 X11.1005 Y24.4574
G01 X11.0973 Y24.4508
G01 X11.0946 Y24.4439
G01 X11.0923 Y24.4369
G01 X11.0906 Y24.4298
G01 X11.0892 Y24.4201
G01 X11.0888 Y24.4127
G01 X11.0887 Y22.3783
G01 X11.0892 Y22.3685
G01 X11.0906 Y22.3588
G01 X11.0930 Y22.3492
G01 X11.0963 Y22.3400
G01 X11.1005 Y22.3311
G01 X11.1056 Y22.3227
G01 X11.1114 Y22.3148
G01 X11.1180 Y22.3075
G01 X11.1253 Y22.3010
G01 X11.1332 Y22.2951
G01 X11.1416 Y22.2901
G01 X11.1505 Y22.2859
G01 X11.1597 Y22.2826
G01 X11.1692 Y22.2802
G01 X11.1789 Y22.2787
G01 X11.1887 Y22.2783
G00 Z2.0000
G00 X11.1887 Y24.8183
G01 F60.00
G01 Z-0.1800
G01 F120.00
G01 X13.2207 Y24.8183
G01 X13.2305 Y24.8187
G01 X13.2402 Y24.8202
G01 X13.2474 Y24.8219
G01 X13.2544 Y24.8241
G01 X13.2612 Y24.8268
G01 X13.2679 Y24.8301
G01 X13.2742 Y24.8338
G01 X13.2803 Y24.8379
G01 X13.2860 Y24.8425
G01 X13.2914 Y24.8475
G01 X13.2964 Y24.8529
G01 X13.3010 Y24.8587
G01 X13.3052 Y24.8648
G01 X13.3089 Y24.8711
G01 X13.3121 Y24.8777
G01 X13.3149 Y24.8846
G01 X13.3171 Y24.8916
G01 X13.3188 Y24.8988
G01 X13.3202 Y24.9085
G01 X13.3207 Y24.9183
G01 X13.3207 Y25.2319
G01 X21.0887 Y25.2319
G01 X21.0888 Y25.0758
G01 X21.0892 Y25.0685
G01 X21.0906 Y25.0588
G01 X21.0923 Y25.0516
G01 X21.0946 Y25.0446
G01 X21.0973 Y25.0377
G01 X21.1005 Y25.0311
G01 X21.1042 Y25.0248
G01 X21.1084 Y25.0187
G01 X21.1163 Y25.0093
G01 X21.1216 Y25.0042
G01 X21.1272 Y24.9994
G01 X21.1373 Y24.9925
G01 X21.1438 Y24.9889
G01 X21.1505 Y24.9859
G01 X21.1620 Y24.9819
G01 X21.1692 Y24.9802
G01 X21.1765 Y24.9790
G01 X21.1887 Y24.9783
G01 X23.2207 Y24.9783
G01 X23.2281 Y24.9785
G01 X23.2354 Y24.9793
G01 X23.2474 Y24.9819
G01 X23.2544 Y24.9841
G01 X23.2612 Y24.9868
G01 X23.2679 Y24.9901
G01 X23.2742 Y24.9938
G01 X23.2803 Y24.9979
G01 X23.2860 Y25.0025
G01 X23.2914 Y25.0075
G01 X23.2964 Y25.0129
G01 X23.3010 Y25.0187
G01 X23.3052 Y25.0248
G01 X23.3089 Y25.0311
G01 X23.3121 Y25.0377
G01 X23.3149 Y25.0446
G01 X23.3171 Y25.0516
G01 X23.3188 Y25.0588
G01 X23.3200 Y25.0660
G01 X23.3207 Y25.0783
G01 X23.3207 Y25.5947
G01 X25.1075 Y25.5947
G01 X25.1896 Y25.5986
G01 X25.2709 Y25.6104
G01 X25.2806 Y25.6123
G01 X25.3579 Y25.6318
G01 X25.4375 Y25.6603
G01 X25.5097 Y25.6943
G01 X25.5183 Y25.6989
G01 X25.5866 Y25.7400
G01 X25.6527 Y25.7889
G01 X25.6583 Y25.7936
G01 X25.7173 Y25.8473
G01 X30.0619 Y30.1919
G01 X34.2241 Y30.1919
G01 X34.2570 Y30.1766
G01 X34.3297 Y30.1506
G01 X34.3367 Y30.1483
G01 X34.4165 Y30.1284
G01 X34.4978 Y30.1163
G01 X34.5798 Y30.1120
G01 X34.5896 Y30.1120
G01 X34.6692 Y30.1160
G01 X34.7530 Y30.1284
G01 X34.8351 Y30.1490
G01 X34.9147 Y30.1775
G01 X34.9912 Y30.2137
G01 X35.0638 Y30.2572
G01 X35.1318 Y30.3076
G01 X35.1945 Y30.3645
G01 X35.2513 Y30.4272
G01 X35.2989 Y30.4911
G01 X35.3044 Y30.4993
G01 X35.3453 Y30.5677
G01 X35.3795 Y30.6398
G01 X35.3832 Y30.6488
G01 X35.4100 Y30.7239
G01 X35.4295 Y30.8012
G01 X35.4314 Y30.8109
G01 X35.4423 Y30.8849
G01 X35.4433 Y30.8946
G01 X35.4471 Y30.9743
G01 X35.4429 Y31.0588
G01 X35.4305 Y31.1425
G01 X35.4107 Y31.2222
G01 X35.3832 Y31.2997
G01 X35.3795 Y31.3088
G01 X35.3453 Y31.3808
G01 X35.3044 Y31.4492
G01 X35.3004 Y31.4554
G01 X35.2513 Y31.5213
G01 X35.1962 Y31.5823
G01 X35.1128 Y31.6658
G01 X35.0518 Y31.7209
G01 X34.9878 Y31.7685
G01 X34.9797 Y31.7739
G01 X34.9112 Y31.8148
G01 X34.8347 Y31.8510
G01 X34.7551 Y31.8795
G01 X34.6778 Y31.8990
G01 X34.6681 Y31.9009
G01 X34.5892 Y31.9125
G01 X34.5047 Y31.9166
G01 X29.7047 Y31.9166
G01 X29.6202 Y31.9125
G01 X29.5365 Y31.9001
G01 X29.4544 Y31.8795
G01 X29.3793 Y31.8528
G01 X29.3702 Y31.8490
G01 X29.2982 Y31.8148
G01 X29.2256 Y31.7713
G01 X29.1576 Y31.7209
G01 X29.0949 Y31.6641
G01 X24.7503 Y27.3194
G01 X22.5651 Y27.3194
G01 X22.4879 Y27.3156
G01 X22.4781 Y27.3147
G01 X22.3993 Y27.3029
G01 X22.3219 Y27.2836
G01 X22.3125 Y27.2808
G01 X22.2375 Y27.2538
G01 X22.1632 Y27.2187
G01 X22.1485 Y27.2103
G01 X21.1887 Y27.2103
G01 X21.1789 Y27.2098
G01 X21.1716 Y27.2088
G01 X21.1644 Y27.2073
G01 X21.1574 Y27.2052
G01 X21.1505 Y27.2026
G01 X21.1438 Y27.1996
G01 X21.1373 Y27.1960
G01 X21.1272 Y27.1891
G01 X21.1216 Y27.1844
G01 X21.1163 Y27.1792
G01 X21.1084 Y27.1698
G01 X21.1042 Y27.1638
G01 X21.1005 Y27.1574
G01 X21.0973 Y27.1508
G01 X21.0946 Y27.1439
G01 X21.0923 Y27.1369
G01 X21.0906 Y27.1298
G01 X21.0895 Y27.1225
G01 X21.0888 Y27.1127
G01 X21.0887 Y26.9566
G01 X13.3205 Y26.9566
G01 X13.3196 Y26.9649
G01 X13.3177 Y26.9746
G01 X13.3157 Y26.9816
G01 X13.3121 Y26.9908
G01 X13.3077 Y26.9995
G01 X13.3025 Y27.0078
G01 X13.2980 Y27.0137
G01 X13.2914 Y27.0210
G01 X13.2842 Y27.0276
G01 X13.2763 Y27.0334
G01 X13.2679 Y27.0385
G01 X13.2612 Y27.0417
G01 X13.2521 Y27.0452
G01 X13.2426 Y27.0478
G01 X13.2354 Y27.0492
G01 X13.2256 Y27.0501
G01 X11.1887 Y27.0503
G01 X11.1765 Y27.0495
G01 X11.1692 Y27.0483
G01 X11.1620 Y27.0466
G01 X11.1550 Y27.0444
G01 X11.1460 Y27.0407
G01 X11.1394 Y27.0373
G01 X11.1332 Y27.0334
G01 X11.1272 Y27.0291
G01 X11.1216 Y27.0244
G01 X11.1163 Y27.0192
G01 X11.1099 Y27.0118
G01 X11.1042 Y27.0038
G01 X11.1005 Y26.9974
G01 X11.0973 Y26.9908
G01 X11.0946 Y26.9839
G01 X11.0923 Y26.9769
G01 X11.0906 Y26.9698
G01 X11.0892 Y26.9601
G01 X11.0888 Y26.9527
G01 X11.0887 Y24.9183
G01 X11.0892 Y24.9085
G01 X11.0906 Y24.8988
G01 X11.0930 Y24.8892
G01 X11.0963 Y24.8800
G01 X11.1005 Y24.8711
G01 X11.1056 Y24.8627
G01 X11.1114 Y24.8548
G01 X11.1180 Y24.8475
G01 X11.1253 Y24.8410
G01 X11.1332 Y24.8351
G01 X11.1416 Y24.8301
G01 X11.1505 Y24.8259
G01 X11.1597 Y24.8226
G01 X11.1692 Y24.8202
G01 X11.1789 Y24.8187
G01 X11.1887 Y24.8183
G00 Z2.0000
G00 X11.0887 Y29.4903
G01 F60.00
G01 Z-0.1800
G01 F120.00
G01 X11.0888 Y27.4558
G01 X11.0895 Y27.4460
G01 X11.0911 Y27.4363
G01 X11.0938 Y27.4269
G01 X11.0973 Y27.4177
G01 X11.1017 Y27.4090
G01 X11.1070 Y27.4007
G01 X11.1130 Y27.3929
G01 X11.1198 Y27.3858
G01 X11.1272 Y27.3794
G01 X11.1352 Y27.3738
G01 X11.1438 Y27.3689
G01 X11.1505 Y27.3659
G01 X11.1597 Y27.3626
G01 X11.1692 Y27.3602
G01 X11.1789 Y27.3587
G01 X11.1863 Y27.3583
G01 X13.2207 Y27.3583
G01 X13.2305 Y27.3587
G01 X13.2402 Y27.3602
G01 X13.2521 Y27.3633
G01 X13.2612 Y27.3668
G01 X13.2700 Y27.3713
G01 X13.2783 Y27.3765
G01 X13.2860 Y27.3825
G01 X13.2931 Y27.3893
G01 X13.2996 Y27.3967
G01 X13.3039 Y27.4027
G01 X13.3089 Y27.4111
G01 X13.3131 Y27.4200
G01 X13.3164 Y27.4292
G01 X13.3183 Y27.4363
G01 X13.3200 Y27.4460
G01 X13.3207 Y27.4558
G01 X13.3207 Y29.4903
G01 X13.3202 Y29.5001
G01 X13.3188 Y29.5098
G01 X13.3164 Y29.5193
G01 X13.3131 Y29.5285
G01 X13.3077 Y29.5395
G01 X13.3025 Y29.5478
G01 X13.2964 Y29.5556
G01 X13.2897 Y29.5627
G01 X13.2822 Y29.5691
G01 X13.2763 Y29.5734
G01 X13.2679 Y29.5785
G01 X13.2590 Y29.5826
G01 X13.2521 Y29.5852
G01 X13.2426 Y29.5878
G01 X13.2330 Y29.5895
G01 X13.2232 Y29.5902
G01 X11.1863 Y29.5902
G01 X11.1765 Y29.5895
G01 X11.1668 Y29.5878
G01 X11.1597 Y29.5860
G01 X11.1505 Y29.5826
G01 X11.1416 Y29.5785
G01 X11.1332 Y29.5734
G01 X11.1253 Y29.5676
G01 X11.1180 Y29.5610
G01 X11.1114 Y29.5537
G01 X11.1056 Y29.5458
G01 X11.1005 Y29.5374
G01 X11.0963 Y29.5285
G01 X11.0930 Y29.5193
G01 X11.0906 Y29.5098
G01 X11.0892 Y29.5001
G01 X11.0887 Y29.4903
G00 Z2.0000
G00 X7.7312 Y30.4416
G01 F60.00
G01 Z-0.1800
G01 F120.00
G01 X7.7312 Y22.1980
G01 X7.7350 Y22.1184
G01 X7.7360 Y22.1086
G01 X7.7478 Y22.0298
G01 X7.7670 Y21.9524
G01 X7.7699 Y21.9430
G01 X7.7969 Y21.8680
G01 X7.8308 Y21.7959
G01 X7.8342 Y21.7894
G01 X7.8765 Y21.7189
G01 X7.9239 Y21.6548
G01 X7.9302 Y21.6472
G01 X7.9838 Y21.5882
G01 X9.3276 Y20.2445
G01 X9.3903 Y20.1876
G01 X9.4542 Y20.1400
G01 X9.4624 Y20.1346
G01 X9.5308 Y20.0937
G01 X9.6029 Y20.0595
G01 X9.6119 Y20.0558
G01 X9.6824 Y20.0306
G01 X9.6918 Y20.0277
G01 X9.7691 Y20.0084
G01 X9.8528 Y19.9960
G01 X9.9374 Y19.9919
G01 X11.0887 Y19.9919
G01 X11.0888 Y19.8358
G01 X11.0892 Y19.8285
G01 X11.0902 Y19.8212
G01 X11.0917 Y19.8140
G01 X11.0938 Y19.8069
G01 X11.0983 Y19.7955
G01 X11.1017 Y19.7890
G01 X11.1056 Y19.7827
G01 X11.1130 Y19.7729
G01 X11.1180 Y19.7675
G01 X11.1234 Y19.7625
G01 X11.1332 Y19.7551
G01 X11.1394 Y19.7513
G01 X11.1460 Y19.7479
G01 X11.1527 Y19.7450
G01 X11.1597 Y19.7426
G01 X11.1716 Y19.7397
G01 X11.1814 Y19.7385
G01 X11.1887 Y19.7383
G01 X13.2207 Y19.7383
G01 X13.2305 Y19.7387
G01 X13.2402 Y19.7402
G01 X13.2474 Y19.7419
G01 X13.2544 Y19.7441
G01 X13.2612 Y19.7468
G01 X13.2679 Y19.7501
G01 X13.2742 Y19.7538
G01 X13.2803 Y19.7579
G01 X13.2860 Y19.7625
G01 X13.2914 Y19.7675
G01 X13.2964 Y19.7729
G01 X13.3010 Y19.7787
G01 X13.3052 Y19.7848
G01 X13.3089 Y19.7911
G01 X13.3121 Y19.7977
G01 X13.3149 Y19.8046
G01 X13.3171 Y19.8116
G01 X13.3188 Y19.8188
G01 X13.3202 Y19.8285
G01 X13.3207 Y19.8383
G01 X13.3207 Y20.1519
G01 X17.9153 Y20.1519
G01 X17.9153 Y12.5133
G01 X17.9191 Y12.4336
G01 X17.9201 Y12.4239
G01 X17.9319 Y12.3450
G01 X17.9511 Y12.2677
G01 X17.9540 Y12.2583
G01 X17.9809 Y12.1833
G01 X18.0149 Y12.1111
G01 X18.0195 Y12.1025
G01 X18.0606 Y12.0342
G01 X18.1080 Y11.9701
G01 X18.1143 Y11.9625
G01 X18.1662 Y11.9052
G01 X19.6669 Y10.4045
G01 X19.7296 Y10.3476
G01 X19.7956 Y10.2986
G01 X19.8017 Y10.2946
G01 X19.8702 Y10.2537
G01 X19.9422 Y10.2195
G01 X19.9513 Y10.2158
G01 X20.0264 Y10.1890
G01 X20.1037 Y10.1695
G01 X20.1133 Y10.1676
G01 X20.1897 Y10.1563
G01 X20.1971 Y10.1557
G01 X20.2767 Y10.1519
G01 X21.0887 Y10.1519
G01 X21.0887 Y9.9983
G01 X21.0895 Y9.9860
G01 X21.0911 Y9.9763
G01 X21.0930 Y9.9692
G01 X21.0954 Y9.9623
G01 X21.0983 Y9.9555
G01 X21.1017 Y9.9490
G01 X21.1070 Y9.9407
G01 X21.1114 Y9.9348
G01 X21.1180 Y9.9275
G01 X21.1253 Y9.9210
G01 X21.1311 Y9.9165
G01 X21.1373 Y9.9125
G01 X21.1460 Y9.9079
G01 X21.1527 Y9.9050
G01 X21.1597 Y9.9026
G01 X21.1692 Y9.9002
G01 X21.1765 Y9.8990
G01 X21.1887 Y9.8983
G01 X21.3423 Y9.8983
G01 X21.3423 Y9.5903
G01 X21.1863 Y9.5902
G01 X21.1789 Y9.5898
G01 X21.1692 Y9.5883
G01 X21.1620 Y9.5866
G01 X21.1550 Y9.5844
G01 X21.1482 Y9.5817
G01 X21.1416 Y9.5785
G01 X21.1352 Y9.5747
G01 X21.1292 Y9.5706
G01 X21.1234 Y9.5660
G01 X21.1180 Y9.5610
G01 X21.1130 Y9.5556
G01 X21.1084 Y9.5498
G01 X21.1042 Y9.5438
G01 X21.1005 Y9.5374
G01 X21.0973 Y9.5308
G01 X21.0946 Y9.5239
G01 X21.0911 Y9.5122
G01 X21.0898 Y9.5049
G01 X21.0890 Y9.4976
G01 X21.0887 Y9.4903
G01 X21.0888 Y7.4558
G01 X21.0892 Y7.4485
G01 X21.0902 Y7.4412
G01 X21.0917 Y7.4340
G01 X21.0938 Y7.4269
G01 X21.0963 Y7.4200
G01 X21.0994 Y7.4133
G01 X21.1029 Y7.4068
G01 X21.1070 Y7.4007
G01 X21.1114 Y7.3948
G01 X21.1163 Y7.3893
G01 X21.1216 Y7.3842
G01 X21.1272 Y7.3794
G01 X21.1332 Y7.3751
G01 X21.1394 Y7.3713
G01 X21.1460 Y7.3679
G01 X21.1527 Y7.3650
G01 X21.1597 Y7.3626
G01 X21.1692 Y7.3602
G01 X21.1789 Y7.3587
G01 X21.1887 Y7.3583
G01 X23.2232 Y7.3583
G01 X23.2354 Y7.3593
G01 X23.2426 Y7.3607
G01 X23.2497 Y7.3626
G01 X23.2567 Y7.3650
G01 X23.2635 Y7.3679
G01 X23.2700 Y7.3713
G01 X23.2763 Y7.3751
G01 X23.2860 Y7.3825
G01 X23.2914 Y7.3875
G01 X23.2964 Y7.3929
G01 X23.3010 Y7.3987
G01 X23.3052 Y7.4048
G01 X23.3111 Y7.4155
G01 X23.3157 Y7.4269
G01 X23.3183 Y7.4363
G01 X23.3202 Y7.4485
G01 X23.3207 Y7.4583
G01 X23.3207 Y9.4903
G01 X23.3202 Y9.5001
G01 X23.3183 Y9.5122
G01 X23.3164 Y9.5193
G01 X23.3140 Y9.5262
G01 X23.3111 Y9.5330
G01 X23.3077 Y9.5395
G01 X23.3039 Y9.5458
G01 X23.2996 Y9.5518
G01 X23.2948 Y9.5574
G01 X23.2897 Y9.5627
G01 X23.2842 Y9.5676
G01 X23.2783 Y9.5720
G01 X23.2721 Y9.5760
G01 X23.2657 Y9.5796
G01 X23.2544 Y9.5844
G01 X23.2450 Y9.5873
G01 X23.2378 Y9.5888
G01 X23.2305 Y9.5898
G01 X23.2232 Y9.5902
G01 X23.0671 Y9.5903
G01 X23.0671 Y9.8983
G01 X23.2232 Y9.8983
G01 X23.2305 Y9.8987
G01 X23.2402 Y9.9002
G01 X23.2474 Y9.9019
G01 X23.2544 Y9.9041
G01 X23.2612 Y9.9068
G01 X23.2679 Y9.9101
G01 X23.2783 Y9.9165
G01 X23.2842 Y9.9210
G01 X23.2897 Y9.9258
G01 X23.2948 Y9.9311
G01 X23.2996 Y9.9367
G01 X23.3065 Y9.9468
G01 X23.3100 Y9.9533
G01 X23.3131 Y9.9600
G01 X23.3171 Y9.9716
G01 X23.3188 Y9.9788
G01 X23.3200 Y9.9860
G01 X23.3207 Y9.9983
G01 X23.3207 Y12.0303
G01 X23.3200 Y12.0425
G01 X23.3188 Y12.0498
G01 X23.3164 Y12.0593
G01 X23.3140 Y12.0662
G01 X23.3100 Y12.0752
G01 X23.3065 Y12.0817
G01 X23.3010 Y12.0898
G01 X23.2948 Y12.0974
G01 X23.2879 Y12.1044
G01 X23.2822 Y12.1091
G01 X23.2742 Y12.1147
G01 X23.2679 Y12.1185
G01 X23.2590 Y12.1226
G01 X23.2497 Y12.1260
G01 X23.2426 Y12.1278
G01 X23.2330 Y12.1295
G01 X23.2256 Y12.1301
G01 X21.1887 Y12.1303
G01 X21.1814 Y12.1300
G01 X21.1740 Y12.1292
G01 X21.1668 Y12.1278
G01 X21.1597 Y12.1260
G01 X21.1527 Y12.1236
G01 X21.1460 Y12.1207
G01 X21.1394 Y12.1173
G01 X21.1332 Y12.1134
G01 X21.1272 Y12.1091
G01 X21.1216 Y12.1044
G01 X21.1163 Y12.0992
G01 X21.1084 Y12.0898
G01 X21.1042 Y12.0838
G01 X21.1005 Y12.0774
G01 X21.0973 Y12.0708
G01 X21.0946 Y12.0639
G01 X21.0923 Y12.0569
G01 X21.0902 Y12.0474
G01 X21.0892 Y12.0401
G01 X21.0888 Y12.0327
G01 X21.0887 Y11.8766
G01 X20.6339 Y11.8766
G01 X19.6401 Y12.8705
G01 X19.6401 Y20.1519
G01 X21.0887 Y20.1519
G01 X21.0888 Y19.9958
G01 X21.0892 Y19.9885
G01 X21.0906 Y19.9788
G01 X21.0923 Y19.9716
G01 X21.0946 Y19.9646
G01 X21.0973 Y19.9577
G01 X21.1005 Y19.9511
G01 X21.1042 Y19.9448
G01 X21.1084 Y19.9387
G01 X21.1130 Y19.9329
G01 X21.1180 Y19.9275
G01 X21.1234 Y19.9225
G01 X21.1292 Y19.9179
G01 X21.1352 Y19.9138
G01 X21.1416 Y19.9101
G01 X21.1482 Y19.9068
G01 X21.1550 Y19.9041
G01 X21.1668 Y19.9007
G01 X21.1740 Y19.8993
G01 X21.1814 Y19.8985
G01 X21.1887 Y19.8983
G01 X23.2207 Y19.8983
G01 X23.2281 Y19.8985
G01 X23.2354 Y19.8993
G01 X23.2426 Y19.9007
G01 X23.2497 Y19.9026
G01 X23.2567 Y19.9050
G01 X23.2635 Y19.9079
G01 X23.2700 Y19.9113
G01 X23.2763 Y19.9151
G01 X23.2822 Y19.9194
G01 X23.2879 Y19.9242
G01 X23.2931 Y19.9293
G01 X23.2980 Y19.9348
G01 X23.3039 Y19.9427
G01 X23.3077 Y19.9490
G01 X23.3111 Y19.9555
G01 X23.3140 Y19.9623
G01 X23.3171 Y19.9716
G01 X23.3188 Y19.9788
G01 X23.3200 Y19.9860
G01 X23.3207 Y19.9958
G01 X23.3207 Y20.1519
G01 X26.7113 Y20.1519
G01 X26.7934 Y20.1560
G01 X26.8771 Y20.1684
G01 X26.9592 Y20.1890
G01 X27.0366 Y20.2166
G01 X27.0434 Y20.2195
G01 X27.1154 Y20.2537
G01 X27.1880 Y20.2972
G01 X27.2560 Y20.3476
G01 X27.3187 Y20.4045
G01 X31.9424 Y25.0282
G01 X34.3468 Y25.0282
G01 X34.3931 Y25.0119
G01 X34.4681 Y24.9931
G01 X34.4753 Y24.9916
G01 X34.5566 Y24.9796
G01 X34.6411 Y24.9755
G01 X38.5114 Y24.9755
G01 X43.2842 Y20.2028
G01 X43.3452 Y20.1476
G01 X43.4091 Y20.1000
G01 X43.4173 Y20.0946
G01 X43.4857 Y20.0537
G01 X43.5577 Y20.0195
G01 X43.5668 Y20.0158
G01 X43.6419 Y19.9890
G01 X43.7192 Y19.9695
G01 X43.7288 Y19.9676
G01 X43.8077 Y19.9560
G01 X43.8923 Y19.9519
G01 X49.4808 Y19.9519
G01 X49.5216 Y19.9219
G01 X49.5879 Y19.8822
G01 X49.5943 Y19.8786
G01 X49.6686 Y19.8436
G01 X49.7460 Y19.8158
G01 X49.8256 Y19.7956
G01 X49.8353 Y19.7937
G01 X49.9141 Y19.7821
G01 X49.9938 Y19.7781
G01 X53.7797 Y19.7779
G01 X53.7798 Y12.9500
G01 X53.7839 Y12.8680
G01 X53.7955 Y12.7891
G01 X53.7974 Y12.7794
G01 X53.8169 Y12.7021
G01 X53.8454 Y12.6225
G01 X53.8794 Y12.5503
G01 X53.8840 Y12.5417
G01 X53.9265 Y12.4713
G01 X53.9755 Y12.4054
G01 X54.0323 Y12.3427
G01 X55.6922 Y10.6828
G01 X55.7532 Y10.6277
G01 X55.8212 Y10.5773
G01 X55.8937 Y10.5338
G01 X55.9658 Y10.4996
G01 X55.9748 Y10.4958
G01 X56.0499 Y10.4691
G01 X56.1320 Y10.4485
G01 X56.2157 Y10.4361
G01 X56.2978 Y10.4320
G01 X58.5887 Y10.4319
G01 X58.5887 Y10.0383
G01 X58.5892 Y10.0285
G01 X58.5902 Y10.0212
G01 X58.5917 Y10.0140
G01 X58.5938 Y10.0069
G01 X58.5963 Y10.0000
G01 X58.6005 Y9.9911
G01 X58.6042 Y9.9848
G01 X58.6084 Y9.9787
G01 X58.6146 Y9.9711
G01 X58.6198 Y9.9658
G01 X58.6272 Y9.9594
G01 X58.6332 Y9.9551
G01 X58.6394 Y9.9513
G01 X58.6482 Y9.9468
G01 X58.6550 Y9.9441
G01 X58.6644 Y9.9413
G01 X58.6716 Y9.9397
G01 X58.6789 Y9.9387
G01 X58.6887 Y9.9383
G01 X60.7232 Y9.9383
G01 X60.7305 Y9.9387
G01 X60.7378 Y9.9397
G01 X60.7450 Y9.9413
G01 X60.7521 Y9.9433
G01 X60.7590 Y9.9459
G01 X60.7657 Y9.9489
G01 X60.7721 Y9.9525
G01 X60.7783 Y9.9565
G01 X60.7842 Y9.9610
G01 X60.7897 Y9.9658
G01 X60.7948 Y9.9711
G01 X60.7996 Y9.9767
G01 X60.8039 Y9.9827
G01 X60.8077 Y9.9890
G01 X60.8111 Y9.9955
G01 X60.8140 Y10.0023
G01 X60.8171 Y10.0116
G01 X60.8192 Y10.0212
G01 X60.8202 Y10.0285
G01 X60.8207 Y10.0383
G01 X60.8207 Y12.0727
G01 X60.8196 Y12.0849
G01 X60.8171 Y12.0969
G01 X60.8131 Y12.1085
G01 X60.8077 Y12.1195
G01 X60.8010 Y12.1298
G01 X60.7931 Y12.1392
G01 X60.7842 Y12.1476
G01 X60.7742 Y12.1547
G01 X60.7635 Y12.1607
G01 X60.7567 Y12.1636
G01 X60.7497 Y12.1660
G01 X60.7426 Y12.1678
G01 X60.7354 Y12.1692
G01 X60.7281 Y12.1700
G01 X60.7207 Y12.1703
G01 X58.6887 Y12.1703
G01 X58.6765 Y12.1695
G01 X58.6692 Y12.1683
G01 X58.6620 Y12.1666
G01 X58.6505 Y12.1626
G01 X58.6385 Y12.1567
G01 X56.6575 Y12.1567
G01 X55.5045 Y13.3097
G01 X55.5045 Y20.1575
G01 X55.5155 Y20.1763
G01 X55.5538 Y20.2574
G01 X55.5567 Y20.2641
G01 X55.5885 Y20.3532
G01 X55.6116 Y20.4450
G01 X55.6257 Y20.5385
G01 X55.6267 Y20.5483
G01 X55.6311 Y20.6403
G01 X55.6267 Y20.7324
G01 X55.6257 Y20.7421
G01 X55.6121 Y20.8333
G01 X55.5898 Y20.9227
G01 X55.5870 Y20.9321
G01 X55.5558 Y21.0188
G01 X55.5165 Y21.1021
G01 X55.5119 Y21.1108
G01 X55.4671 Y21.1856
G01 X55.4616 Y21.1938
G01 X55.4066 Y21.2677
G01 X55.3448 Y21.3361
G01 X55.3379 Y21.3430
G01 X55.2695 Y21.4048
G01 X55.1916 Y21.4626
G01 X55.1126 Y21.5101
G01 X55.1039 Y21.5147
G01 X55.0183 Y21.5549
G01 X54.9292 Y21.5867
G01 X54.8351 Y21.6103
G01 X54.7390 Y21.6246
G01 X54.6421 Y21.6293
G01 X54.5501 Y21.6249
G01 X54.5403 Y21.6240
G01 X54.4492 Y21.6103
G01 X54.3597 Y21.5880
G01 X54.3504 Y21.5852
G01 X54.2636 Y21.5540
G01 X54.1781 Y21.5137
G01 X54.1592 Y21.5027
G01 X50.3426 Y21.5027
G01 X50.3018 Y21.5326
G01 X50.2355 Y21.5724
G01 X50.2291 Y21.5759
G01 X50.1547 Y21.6110
G01 X50.0774 Y21.6388
G01 X49.9978 Y21.6590
G01 X49.9881 Y21.6609
G01 X49.9092 Y21.6725
G01 X49.8272 Y21.6766
G01 X44.2495 Y21.6766
G01 X39.4784 Y26.4477
G01 X39.4195 Y26.5013
G01 X39.4119 Y26.5075
G01 X39.3478 Y26.5549
G01 X39.2752 Y26.5984
G01 X39.1987 Y26.6346
G01 X39.1236 Y26.6616
G01 X39.1143 Y26.6644
G01 X39.0369 Y26.6837
G01 X38.9580 Y26.6955
G01 X38.9483 Y26.6964
G01 X38.8711 Y26.7002
G01 X34.8893 Y26.7002
G01 X34.8351 Y26.7195
G01 X34.7578 Y26.7390
G01 X34.7505 Y26.7405
G01 X34.6692 Y26.7525
G01 X34.5847 Y26.7566
G01 X34.5076 Y26.7530
G01 X31.5828 Y26.7529
G01 X31.5056 Y26.7492
G01 X31.4958 Y26.7482
G01 X31.4170 Y26.7364
G01 X31.3396 Y26.7171
G01 X31.3302 Y26.7143
G01 X31.2552 Y26.6873
G01 X31.1831 Y26.6533
G01 X31.1744 Y26.6487
G01 X31.1061 Y26.6076
G01 X31.0420 Y26.5602
G01 X31.0344 Y26.5540
G01 X30.9754 Y26.5004
G01 X26.3517 Y21.8766
G01 X23.3207 Y21.8766
G01 X23.3207 Y22.0327
G01 X23.3202 Y22.0401
G01 X23.3192 Y22.0474
G01 X23.3171 Y22.0569
G01 X23.3149 Y22.0639
G01 X23.3121 Y22.0708
G01 X23.3089 Y22.0774
G01 X23.3025 Y22.0878
G01 X23.2948 Y22.0974
G01 X23.2897 Y22.1027
G01 X23.2842 Y22.1076
G01 X23.2742 Y22.1147
G01 X23.2679 Y22.1185
G01 X23.2612 Y22.1217
G01 X23.2544 Y22.1244
G01 X23.2474 Y22.1266
G01 X23.2402 Y22.1283
G01 X23.2330 Y22.1295
G01 X23.2207 Y22.1303
G01 X21.1887 Y22.1303
G01 X21.1814 Y22.1300
G01 X21.1740 Y22.1292
G01 X21.1668 Y22.1278
G01 X21.1597 Y22.1260
G01 X21.1527 Y22.1236
G01 X21.1460 Y22.1207
G01 X21.1394 Y22.1173
G01 X21.1332 Y22.1134
G01 X21.1272 Y22.1091
G01 X21.1216 Y22.1044
G01 X21.1163 Y22.0992
G01 X21.1114 Y22.0937
G01 X21.1056 Y22.0858
G01 X21.1017 Y22.0795
G01 X21.0983 Y22.0730
G01 X21.0954 Y22.0662
G01 X21.0923 Y22.0569
G01 X21.0906 Y22.0498
G01 X21.0895 Y22.0425
G01 X21.0888 Y22.0327
G01 X21.0887 Y21.8766
G01 X13.3205 Y21.8766
G01 X13.3196 Y21.8849
G01 X13.3177 Y21.8946
G01 X13.3157 Y21.9016
G01 X13.3121 Y21.9108
G01 X13.3089 Y21.9174
G01 X13.3039 Y21.9258
G01 X13.2980 Y21.9337
G01 X13.2914 Y21.9410
G01 X13.2842 Y21.9476
G01 X13.2783 Y21.9520
G01 X13.2700 Y21.9573
G01 X13.2612 Y21.9617
G01 X13.2521 Y21.9652
G01 X13.2426 Y21.9678
G01 X13.2354 Y21.9692
G01 X13.2256 Y21.9701
G01 X11.1863 Y21.9702
G01 X11.1789 Y21.9698
G01 X11.1716 Y21.9688
G01 X11.1644 Y21.9673
G01 X11.1574 Y21.9652
G01 X11.1505 Y21.9626
G01 X11.1438 Y21.9596
G01 X11.1373 Y21.9560
G01 X11.1311 Y21.9520
G01 X11.1253 Y21.9476
G01 X11.1198 Y21.9427
G01 X11.1146 Y21.9374
G01 X11.1099 Y21.9318
G01 X11.1056 Y21.9258
G01 X11.1017 Y21.9195
G01 X11.0983 Y21.9130
G01 X11.0954 Y21.9062
G01 X11.0923 Y21.8969
G01 X11.0906 Y21.8898
G01 X11.0895 Y21.8825
G01 X11.0888 Y21.8727
G01 X11.0887 Y21.7166
G01 X10.2946 Y21.7166
G01 X9.4560 Y22.5552
G01 X9.4560 Y30.2456
G01 X11.0887 Y30.2456
G01 X11.0887 Y29.9983
G01 X11.0895 Y29.9860
G01 X11.0917 Y29.9740
G01 X11.0938 Y29.9669
G01 X11.0973 Y29.9577
G01 X11.1005 Y29.9511
G01 X11.1042 Y29.9448
G01 X11.1084 Y29.9387
G01 X11.1130 Y29.9329
G01 X11.1180 Y29.9275
G01 X11.1234 Y29.9225
G01 X11.1292 Y29.9179
G01 X11.1352 Y29.9138
G01 X11.1416 Y29.9101
G01 X11.1482 Y29.9068
G01 X11.1550 Y29.9041
G01 X11.1620 Y29.9019
G01 X11.1716 Y29.8997
G01 X11.1789 Y29.8987
G01 X11.1887 Y29.8983
G01 X13.2207 Y29.8983
G01 X13.2330 Y29.8990
G01 X13.2426 Y29.9007
G01 X13.2521 Y29.9033
G01 X13.2635 Y29.9079
G01 X13.2742 Y29.9138
G01 X13.2803 Y29.9179
G01 X13.2860 Y29.9225
G01 X13.2914 Y29.9275
G01 X13.2964 Y29.9329
G01 X13.3039 Y29.9427
G01 X13.3077 Y29.9490
G01 X13.3111 Y29.9555
G01 X13.3140 Y29.9623
G01 X13.3164 Y29.9692
G01 X13.3192 Y29.9812
G01 X13.3202 Y29.9885
G01 X13.3207 Y29.9958
G01 X13.3207 Y32.0303
G01 X13.3204 Y32.0376
G01 X13.3196 Y32.0449
G01 X13.3183 Y32.0522
G01 X13.3164 Y32.0593
G01 X13.3140 Y32.0662
G01 X13.3100 Y32.0752
G01 X13.3065 Y32.0817
G01 X13.3025 Y32.0878
G01 X13.2980 Y32.0937
G01 X13.2914 Y32.1010
G01 X13.2860 Y32.1060
G01 X13.2803 Y32.1106
G01 X13.2742 Y32.1147
G01 X13.2679 Y32.1185
G01 X13.2612 Y32.1217
G01 X13.2544 Y32.1244
G01 X13.2474 Y32.1266
G01 X13.2378 Y32.1288
G01 X13.2305 Y32.1298
G01 X13.2232 Y32.1302
G01 X11.1838 Y32.1301
G01 X11.1716 Y32.1288
G01 X11.1597 Y32.1260
G01 X11.1482 Y32.1217
G01 X11.1373 Y32.1160
G01 X11.1272 Y32.1091
G01 X11.1180 Y32.1010
G01 X11.1099 Y32.0918
G01 X11.1029 Y32.0817
G01 X11.0983 Y32.0730
G01 X11.0946 Y32.0639
G01 X11.0917 Y32.0546
G01 X11.0895 Y32.0425
G01 X11.0887 Y32.0303
G01 X11.0887 Y31.9704
G01 X8.9435 Y31.9704
G01 X8.9246 Y31.9813
G01 X8.8413 Y32.0207
G01 X8.8345 Y32.0235
G01 X8.7477 Y32.0544
G01 X8.6535 Y32.0780
G01 X8.5575 Y32.0922
G01 X8.4606 Y32.0970
G01 X8.3637 Y32.0922
G01 X8.2677 Y32.0780
G01 X8.1759 Y32.0551
G01 X8.1688 Y32.0529
G01 X8.0821 Y32.0217
G01 X7.9988 Y31.9824
G01 X7.9901 Y31.9778
G01 X7.9111 Y31.9303
G01 X7.8371 Y31.8755
G01 X7.8295 Y31.8693
G01 X7.7613 Y31.8073
G01 X7.6993 Y31.7391
G01 X7.6931 Y31.7315
G01 X7.6383 Y31.6574
G01 X7.5908 Y31.5785
G01 X7.5862 Y31.5698
G01 X7.5469 Y31.4865
G01 X7.5157 Y31.3997
G01 X7.5135 Y31.3927
G01 X7.4917 Y31.3057
G01 X7.4898 Y31.2961
G01 X7.4764 Y31.2049
G01 X7.4717 Y31.1129
G01 X7.4717 Y31.1031
G01 X7.4764 Y31.0110
G01 X7.4898 Y30.9199
G01 X7.4911 Y30.9126
G01 X7.5129 Y30.8256
G01 X7.5157 Y30.8162
G01 X7.5469 Y30.7295
G01 X7.5872 Y30.6439
G01 X7.6357 Y30.5627
G01 X7.6397 Y30.5565
G01 X7.6946 Y30.4825
G01 X7.7312 Y30.4416
G00 Z2.0000
G00 X1.3423 Y31.5371
G01 F60.00
G01 Z-0.1800
G01 F120.00
G01 X1.3314 Y31.5183
G01 X1.2920 Y31.4350
G01 X1.2892 Y31.4282
G01 X1.2583 Y31.3414
G01 X1.2347 Y31.2472
G01 X1.2205 Y31.1512
G01 X1.2157 Y31.0543
G01 X1.2205 Y30.9573
G01 X1.2347 Y30.8613
G01 X1.2583 Y30.7672
G01 X1.2910 Y30.6758
G01 X1.3325 Y30.5880
G01 X1.3824 Y30.5048
G01 X1.4402 Y30.4268
G01 X1.5054 Y30.3549
G01 X1.5773 Y30.2898
G01 X1.6553 Y30.2319
G01 X1.7385 Y30.1820
G01 X1.8262 Y30.1405
G01 X1.9176 Y30.1078
G01 X2.0118 Y30.0843
G01 X2.1078 Y30.0700
G01 X2.2047 Y30.0653
G01 X2.3017 Y30.0700
G01 X2.3977 Y30.0843
G01 X2.4918 Y30.1078
G01 X2.5832 Y30.1405
G01 X2.6709 Y30.1820
G01 X2.7542 Y30.2319
G01 X2.8321 Y30.2898
G01 X2.9040 Y30.3549
G01 X2.9692 Y30.4268
G01 X3.0270 Y30.5048
G01 X3.0769 Y30.5880
G01 X3.1184 Y30.6758
G01 X3.1496 Y30.7625
G01 X3.1524 Y30.7719
G01 X3.1747 Y30.8613
G01 X3.1884 Y30.9524
G01 X3.1893 Y30.9622
G01 X3.1937 Y31.0543
G01 X3.1893 Y31.1463
G01 X3.1884 Y31.1561
G01 X3.1747 Y31.2472
G01 X3.1524 Y31.3366
G01 X3.1496 Y31.3460
G01 X3.1184 Y31.4327
G01 X3.0781 Y31.5183
G01 X3.0671 Y31.5371
G01 X3.0671 Y40.6971
G01 X4.9731 Y42.6030
G01 X4.9942 Y42.6086
G01 X5.0809 Y42.6396
G01 X5.0877 Y42.6425
G01 X5.1709 Y42.6820
G01 X5.2542 Y42.7319
G01 X5.3321 Y42.7898
G01 X5.4040 Y42.8549
G01 X5.4692 Y42.9268
G01 X5.5270 Y43.0048
G01 X5.5745 Y43.0838
G01 X5.5781 Y43.0902
G01 X5.6184 Y43.1758
G01 X5.6496 Y43.2625
G01 X5.6524 Y43.2719
G01 X5.6736 Y43.3565
G01 X5.6756 Y43.3662
G01 X5.6890 Y43.4573
G01 X5.6936 Y43.5494
G01 X5.6936 Y43.5592
G01 X5.6890 Y43.6512
G01 X5.6747 Y43.7472
G01 X5.6511 Y43.8414
G01 X5.6184 Y43.9327
G01 X5.5769 Y44.0205
G01 X5.5297 Y44.0996
G01 X5.5242 Y44.1077
G01 X5.4692 Y44.1817
G01 X5.4074 Y44.2500
G01 X5.4005 Y44.2570
G01 X5.3359 Y44.3156
G01 X5.3283 Y44.3218
G01 X5.2542 Y44.3766
G01 X5.1709 Y44.4265
G01 X5.0832 Y44.4680
G01 X4.9965 Y44.4991
G01 X4.9895 Y44.5014
G01 X4.9025 Y44.5232
G01 X4.8928 Y44.5251
G01 X4.8017 Y44.5385
G01 X4.7096 Y44.5431
G01 X4.6998 Y44.5431
G01 X4.6078 Y44.5385
G01 X4.5118 Y44.5243
G01 X4.4224 Y44.5020
G01 X4.4130 Y44.4991
G01 X4.3262 Y44.4680
G01 X4.2429 Y44.4287
G01 X4.2342 Y44.4241
G01 X4.1553 Y44.3766
G01 X4.0812 Y44.3218
G01 X4.0736 Y44.3156
G01 X4.0054 Y44.2536
G01 X3.9434 Y44.1854
G01 X3.9372 Y44.1778
G01 X3.8811 Y44.1017
G01 X3.8325 Y44.0205
G01 X3.7920 Y43.9350
G01 X3.7892 Y43.9282
G01 X3.7590 Y43.8437
G01 X3.7535 Y43.8226
G01 X1.5932 Y41.6623
G01 X1.5413 Y41.6051
G01 X1.5351 Y41.5975
G01 X1.4877 Y41.5334
G01 X1.4466 Y41.4651
G01 X1.4420 Y41.4564
G01 X1.4080 Y41.3843
G01 X1.3810 Y41.3093
G01 X1.3788 Y41.3022
G01 X1.3589 Y41.2225
G01 X1.3471 Y41.1437
G01 X1.3461 Y41.1339
G01 X1.3423 Y41.0543
G01 X1.3423 Y31.5371
G00 Z2.0000
G00 X0.9408 Y46.4112
G01 F60.00
G01 Z-0.1800
G01 F120.00
G01 X0.9739 Y46.3401
G01 X1.0160 Y46.2684
G01 X1.0649 Y46.2010
G01 X1.1167 Y46.1422
G01 X1.1235 Y46.1353
G01 X1.1773 Y46.0851
G01 X1.1846 Y46.0789
G01 X1.2469 Y46.0313
G01 X1.3176 Y45.9873
G01 X1.3921 Y45.9503
G01 X3.2293 Y45.1465
G01 X3.2537 Y45.1141
G01 X3.3139 Y45.0476
G01 X3.3191 Y45.0423
G01 X3.3892 Y44.9789
G01 X3.4632 Y44.9239
G01 X3.4692 Y44.9197
G01 X3.5504 Y44.8711
G01 X3.6382 Y44.8297
G01 X3.7295 Y44.7970
G01 X3.8213 Y44.7739
G01 X3.8285 Y44.7725
G01 X3.9197 Y44.7591
G01 X4.0166 Y44.7544
G01 X4.1136 Y44.7591
G01 X4.2096 Y44.7734
G01 X4.3037 Y44.7970
G01 X4.3951 Y44.8297
G01 X4.4829 Y44.8711
G01 X4.5661 Y44.9210
G01 X4.6441 Y44.9789
G01 X4.7160 Y45.0440
G01 X4.7811 Y45.1160
G01 X4.8390 Y45.1939
G01 X4.8889 Y45.2772
G01 X4.9304 Y45.3649
G01 X4.9631 Y45.4563
G01 X4.9861 Y45.5480
G01 X5.0003 Y45.6416
G01 X5.0012 Y45.6513
G01 X5.0056 Y45.7434
G01 X5.0009 Y45.8403
G01 X4.9866 Y45.9363
G01 X4.9644 Y46.0257
G01 X4.9615 Y46.0351
G01 X4.9304 Y46.1218
G01 X4.8889 Y46.2096
G01 X4.8416 Y46.2887
G01 X4.8361 Y46.2968
G01 X4.7811 Y46.3708
G01 X4.7194 Y46.4391
G01 X4.7124 Y46.4461
G01 X4.6441 Y46.5079
G01 X4.5701 Y46.5629
G01 X4.5620 Y46.5683
G01 X4.4829 Y46.6156
G01 X4.3996 Y46.6551
G01 X4.3905 Y46.6589
G01 X4.3084 Y46.6882
G01 X4.2990 Y46.6911
G01 X4.2096 Y46.7134
G01 X4.1136 Y46.7276
G01 X4.0166 Y46.7324
G01 X3.9187 Y46.7275
G01 X2.6001 Y47.3044
G01 X2.6001 Y57.9675
G01 X3.6999 Y59.0673
G01 X49.0326 Y59.0673
G01 X51.7228 Y56.3770
G01 X51.7228 Y52.1566
G01 X49.8247 Y52.1566
G01 X49.7426 Y52.1527
G01 X49.6613 Y52.1409
G01 X49.6517 Y52.1390
G01 X49.5744 Y52.1195
G01 X49.4947 Y52.0910
G01 X49.4182 Y52.0548
G01 X49.3498 Y52.0139
G01 X49.3416 Y52.0085
G01 X49.2815 Y51.9639
G01 X49.2739 Y51.9577
G01 X49.2149 Y51.9041
G01 X49.1613 Y51.8451
G01 X49.1551 Y51.8375
G01 X49.1077 Y51.7734
G01 X49.0642 Y51.7008
G01 X49.0300 Y51.6288
G01 X49.0262 Y51.6197
G01 X49.0010 Y51.5493
G01 X48.9982 Y51.5399
G01 X48.9789 Y51.4625
G01 X48.9665 Y51.3788
G01 X48.9623 Y51.2943
G01 X48.9661 Y51.2146
G01 X48.9671 Y51.2049
G01 X48.9781 Y51.1309
G01 X48.9800 Y51.1212
G01 X48.9995 Y51.0439
G01 X49.0262 Y50.9688
G01 X49.0300 Y50.9598
G01 X49.0620 Y50.8921
G01 X49.0666 Y50.8835
G01 X49.1077 Y50.8151
G01 X49.1581 Y50.7472
G01 X49.2149 Y50.6845
G01 X49.2739 Y50.6308
G01 X49.2815 Y50.6246
G01 X49.3456 Y50.5772
G01 X49.4182 Y50.5337
G01 X49.4902 Y50.4995
G01 X49.4993 Y50.4958
G01 X49.5744 Y50.4690
G01 X49.6517 Y50.4495
G01 X49.6613 Y50.4476
G01 X49.7402 Y50.4360
G01 X49.8198 Y50.4320
G01 X51.7264 Y50.4319
G01 X51.7804 Y50.4064
G01 X51.8601 Y50.3779
G01 X51.9422 Y50.3574
G01 X52.0235 Y50.3452
G01 X52.0308 Y50.3446
G01 X52.1105 Y50.3408
G01 X52.1901 Y50.3446
G01 X52.1999 Y50.3455
G01 X52.2739 Y50.3565
G01 X52.2835 Y50.3584
G01 X52.3608 Y50.3779
G01 X52.4359 Y50.4047
G01 X52.4450 Y50.4084
G01 X52.5126 Y50.4404
G01 X52.5213 Y50.4450
G01 X52.5896 Y50.4861
G01 X52.6537 Y50.5335
G01 X52.6594 Y50.5381
G01 X52.7203 Y50.5934
G01 X53.1967 Y51.0699
G01 X53.2487 Y51.1271
G01 X53.2549 Y51.1347
G01 X53.3023 Y51.1988
G01 X53.3446 Y51.2693
G01 X53.3480 Y51.2758
G01 X53.3820 Y51.3479
G01 X53.4089 Y51.4229
G01 X53.4118 Y51.4323
G01 X53.4310 Y51.5097
G01 X53.4429 Y51.5885
G01 X53.4438 Y51.5983
G01 X53.4476 Y51.6755
G01 X53.4476 Y56.7342
G01 X53.4435 Y56.8187
G01 X53.4310 Y56.9024
G01 X53.4105 Y56.9845
G01 X53.3837 Y57.0596
G01 X53.3800 Y57.0687
G01 X53.3458 Y57.1407
G01 X53.3049 Y57.2092
G01 X53.2994 Y57.2173
G01 X53.2519 Y57.2813
G01 X53.1967 Y57.3422
G01 X49.9996 Y60.5394
G01 X49.9369 Y60.5963
G01 X49.8689 Y60.6467
G01 X49.7963 Y60.6902
G01 X49.7243 Y60.7244
G01 X49.7152 Y60.7282
G01 X49.6448 Y60.7534
G01 X49.6354 Y60.7562
G01 X49.5580 Y60.7755
G01 X49.4792 Y60.7873
G01 X49.4719 Y60.7881
G01 X49.3898 Y60.7920
G01 X3.3427 Y60.7920
G01 X3.2582 Y60.7879
G01 X3.1745 Y60.7755
G01 X3.0971 Y60.7562
G01 X3.0877 Y60.7534
G01 X3.0127 Y60.7264
G01 X2.9406 Y60.6924
G01 X2.9319 Y60.6878
G01 X2.8636 Y60.6467
G01 X2.7995 Y60.5993
G01 X2.7919 Y60.5931
G01 X2.7329 Y60.5394
G01 X1.1280 Y58.9345
G01 X1.0743 Y58.8755
G01 X1.0681 Y58.8679
G01 X1.0207 Y58.8038
G01 X0.9772 Y58.7312
G01 X0.9410 Y58.6547
G01 X0.9141 Y58.5797
G01 X0.9112 Y58.5703
G01 X0.8930 Y58.4977
G01 X0.8911 Y58.4881
G01 X0.8795 Y58.4092
G01 X0.8754 Y58.3247
G01 X0.8754 Y46.7404
G01 X0.8794 Y46.6573
G01 X0.8914 Y46.5749
G01 X0.9113 Y46.4941
G01 X0.9372 Y46.4201
G01 X0.9408 Y46.4112
G00 Z2.0000
G00 X5.4015 Y46.7356
G01 F60.00
G01 Z-0.1800
G01 F120.00
G01 X9.3003 Y46.7356
G01 X12.2527 Y43.7832
G01 X12.2528 Y41.0769
G01 X12.2568 Y40.9973
G01 X12.2684 Y40.9184
G01 X12.2703 Y40.9088
G01 X12.2898 Y40.8315
G01 X12.3183 Y40.7518
G01 X12.3523 Y40.6797
G01 X12.3569 Y40.6710
G01 X12.3954 Y40.6068
G01 X12.4008 Y40.5987
G01 X12.4484 Y40.5347
G01 X12.5053 Y40.4720
G01 X15.8334 Y37.1440
G01 X15.8926 Y37.0906
G01 X15.9605 Y37.0401
G01 X16.0331 Y36.9966
G01 X16.1096 Y36.9605
G01 X16.1893 Y36.9319
G01 X16.2714 Y36.9114
G01 X16.3551 Y36.8990
G01 X16.4372 Y36.8948
G01 X16.5193 Y36.8986
G01 X16.5291 Y36.8996
G01 X16.6079 Y36.9114
G01 X16.6876 Y36.9313
G01 X16.7651 Y36.9587
G01 X16.7719 Y36.9614
G01 X16.8462 Y36.9966
G01 X16.8984 Y37.0278
G01 X23.0913 Y37.0278
G01 X23.1734 Y37.0319
G01 X23.2523 Y37.0435
G01 X23.2619 Y37.0454
G01 X23.3392 Y37.0649
G01 X23.4143 Y37.0917
G01 X23.4234 Y37.0954
G01 X23.4932 Y37.1285
G01 X23.5638 Y37.1705
G01 X23.5720 Y37.1760
G01 X23.6360 Y37.2235
G01 X23.6987 Y37.2804
G01 X31.7702 Y45.3519
G01 X34.5847 Y45.3519
G01 X34.6692 Y45.3560
G01 X34.7481 Y45.3676
G01 X34.7554 Y45.3690
G01 X34.8351 Y45.3890
G01 X34.9147 Y45.4175
G01 X34.9912 Y45.4537
G01 X35.0597 Y45.4946
G01 X35.0678 Y45.5000
G01 X35.1279 Y45.5446
G01 X35.1355 Y45.5508
G01 X35.1945 Y45.6045
G01 X35.2513 Y45.6672
G01 X35.3018 Y45.7351
G01 X35.3429 Y45.8035
G01 X35.3475 Y45.8121
G01 X35.3795 Y45.8798
G01 X35.3832 Y45.8888
G01 X35.4100 Y45.9639
G01 X35.4305 Y46.0460
G01 X35.4429 Y46.1297
G01 X35.4471 Y46.2118
G01 X35.4470 Y46.2192
G01 X35.4429 Y46.2988
G01 X35.4314 Y46.3777
G01 X35.4295 Y46.3873
G01 X35.4113 Y46.4599
G01 X35.4084 Y46.4693
G01 X35.3815 Y46.5443
G01 X35.3453 Y46.6208
G01 X35.3018 Y46.6934
G01 X35.2513 Y46.7613
G01 X35.1945 Y46.8241
G01 X35.1318 Y46.8809
G01 X35.0638 Y46.9313
G01 X34.9955 Y46.9724
G01 X34.9869 Y46.9770
G01 X34.9192 Y47.0090
G01 X34.9102 Y47.0128
G01 X34.8351 Y47.0395
G01 X34.7578 Y47.0590
G01 X34.7505 Y47.0605
G01 X34.6692 Y47.0725
G01 X34.5847 Y47.0766
G01 X31.4105 Y47.0766
G01 X31.3284 Y47.0725
G01 X31.2447 Y47.0601
G01 X31.1626 Y47.0395
G01 X31.0852 Y47.0119
G01 X31.0785 Y47.0090
G01 X31.0064 Y46.9748
G01 X30.9338 Y46.9313
G01 X30.8659 Y46.8809
G01 X30.8032 Y46.8241
G01 X22.7317 Y38.7526
G01 X16.6639 Y38.7526
G01 X13.9774 Y41.4390
G01 X13.9773 Y44.1453
G01 X13.9733 Y44.2250
G01 X13.9617 Y44.3038
G01 X13.9598 Y44.3135
G01 X13.9403 Y44.3908
G01 X13.9136 Y44.4659
G01 X13.9098 Y44.4749
G01 X13.8756 Y44.5470
G01 X13.8321 Y44.6195
G01 X13.7817 Y44.6875
G01 X13.7248 Y44.7502
G01 X10.2673 Y48.2078
G01 X10.2045 Y48.2646
G01 X10.1386 Y48.3137
G01 X10.0683 Y48.3562
G01 X10.0596 Y48.3608
G01 X9.9875 Y48.3948
G01 X9.9078 Y48.4233
G01 X9.8305 Y48.4428
G01 X9.8209 Y48.4447
G01 X9.7420 Y48.4562
G01 X9.6599 Y48.4604
G01 X5.4015 Y48.4604
G01 X5.3827 Y48.4714
G01 X5.2971 Y48.5117
G01 X5.2104 Y48.5429
G01 X5.2010 Y48.5457
G01 X5.1116 Y48.5680
G01 X5.0205 Y48.5817
G01 X5.0107 Y48.5826
G01 X4.9186 Y48.5870
G01 X4.8266 Y48.5826
G01 X4.8168 Y48.5817
G01 X4.7257 Y48.5680
G01 X4.6363 Y48.5457
G01 X4.6269 Y48.5429
G01 X4.5402 Y48.5117
G01 X4.4524 Y48.4702
G01 X4.3692 Y48.4203
G01 X4.2912 Y48.3625
G01 X4.2193 Y48.2973
G01 X4.1541 Y48.2254
G01 X4.0963 Y48.1475
G01 X4.0464 Y48.0642
G01 X4.0049 Y47.9765
G01 X3.9722 Y47.8851
G01 X3.9486 Y47.7910
G01 X3.9344 Y47.6950
G01 X3.9296 Y47.5980
G01 X3.9344 Y47.5011
G01 X3.9486 Y47.4051
G01 X3.9722 Y47.3109
G01 X4.0049 Y47.2195
G01 X4.0464 Y47.1318
G01 X4.0963 Y47.0486
G01 X4.1541 Y46.9706
G01 X4.2193 Y46.8987
G01 X4.2912 Y46.8335
G01 X4.3692 Y46.7757
G01 X4.4524 Y46.7258
G01 X4.5402 Y46.6843
G01 X4.6315 Y46.6516
G01 X4.7257 Y46.6280
G01 X4.8217 Y46.6138
G01 X4.9186 Y46.6090
G01 X5.0156 Y46.6138
G01 X5.1116 Y46.6280
G01 X5.2057 Y46.6516
G01 X5.2925 Y46.6825
G01 X5.2994 Y46.6853
G01 X5.3827 Y46.7247
G01 X5.4015 Y46.7356
G00 Z2.0000
G00 X23.8844 Y48.5492
G01 F60.00
G01 Z-0.1800
G01 F120.00
G01 X23.8633 Y48.5437
G01 X23.7766 Y48.5126
G01 X23.7698 Y48.5097
G01 X23.6865 Y48.4702
G01 X23.6033 Y48.4203
G01 X23.5253 Y48.3625
G01 X23.4534 Y48.2973
G01 X23.3882 Y48.2254
G01 X23.3304 Y48.1475
G01 X23.2805 Y48.0642
G01 X23.2390 Y47.9765
G01 X23.2063 Y47.8851
G01 X23.1828 Y47.7910
G01 X23.1685 Y47.6950
G01 X23.1638 Y47.5980
G01 X23.1685 Y47.5011
G01 X23.1828 Y47.4051
G01 X23.2063 Y47.3109
G01 X23.2390 Y47.2195
G01 X23.2805 Y47.1318
G01 X23.3304 Y47.0486
G01 X23.3882 Y46.9706
G01 X23.4534 Y46.8987
G01 X23.5253 Y46.8335
G01 X23.6033 Y46.7757
G01 X23.6865 Y46.7258
G01 X23.7743 Y46.6843
G01 X23.8657 Y46.6516
G01 X23.9598 Y46.6280
G01 X24.0558 Y46.6138
G01 X24.1528 Y46.6090
G01 X24.2497 Y46.6138
G01 X24.3457 Y46.6280
G01 X24.4398 Y46.6516
G01 X24.5266 Y46.6825
G01 X24.5357 Y46.6863
G01 X24.6190 Y46.7258
G01 X24.6981 Y46.7731
G01 X24.7062 Y46.7785
G01 X24.7802 Y46.8335
G01 X24.8521 Y46.8987
G01 X24.9141 Y46.9669
G01 X24.9203 Y46.9745
G01 X24.9751 Y47.0486
G01 X25.0226 Y47.1275
G01 X25.0272 Y47.1362
G01 X25.0665 Y47.2195
G01 X25.0984 Y47.3086
G01 X25.1040 Y47.3297
G01 X31.0262 Y53.2519
G01 X33.9475 Y53.2519
G01 X33.9767 Y53.2228
G01 X34.0358 Y53.1692
G01 X34.0415 Y53.1646
G01 X34.1077 Y53.1159
G01 X34.1782 Y53.0737
G01 X34.2502 Y53.0395
G01 X34.2593 Y53.0358
G01 X34.3320 Y53.0098
G01 X34.3391 Y53.0077
G01 X34.4165 Y52.9884
G01 X34.4953 Y52.9766
G01 X34.5051 Y52.9757
G01 X34.5847 Y52.9719
G01 X34.6644 Y52.9757
G01 X34.6741 Y52.9766
G01 X34.7554 Y52.9890
G01 X34.8303 Y53.0077
G01 X34.8397 Y53.0106
G01 X34.9147 Y53.0375
G01 X34.9869 Y53.0715
G01 X34.9955 Y53.0761
G01 X35.0638 Y53.1172
G01 X35.1318 Y53.1676
G01 X35.1945 Y53.2245
G01 X35.2481 Y53.2835
G01 X35.2544 Y53.2910
G01 X35.2989 Y53.3511
G01 X35.3044 Y53.3593
G01 X35.3453 Y53.4277
G01 X35.3795 Y53.4998
G01 X35.3832 Y53.5088
G01 X35.4100 Y53.5839
G01 X35.4305 Y53.6660
G01 X35.4429 Y53.7497
G01 X35.4470 Y53.8294
G01 X35.4470 Y53.8392
G01 X35.4433 Y53.9139
G01 X35.4423 Y53.9237
G01 X35.4305 Y54.0025
G01 X35.4113 Y54.0799
G01 X35.4084 Y54.0893
G01 X35.3815 Y54.1643
G01 X35.3464 Y54.2386
G01 X35.3044 Y54.3092
G01 X35.2989 Y54.3174
G01 X35.2513 Y54.3813
G01 X35.1979 Y54.4405
G01 X34.9145 Y54.7240
G01 X34.8555 Y54.7777
G01 X34.8499 Y54.7824
G01 X34.7838 Y54.8313
G01 X34.7155 Y54.8724
G01 X34.7069 Y54.8770
G01 X34.6347 Y54.9110
G01 X34.5597 Y54.9380
G01 X34.5503 Y54.9408
G01 X34.4730 Y54.9601
G01 X34.3917 Y54.9722
G01 X34.3844 Y54.9728
G01 X34.3047 Y54.9766
G01 X30.6665 Y54.9766
G01 X30.5845 Y54.9725
G01 X30.5056 Y54.9609
G01 X30.4959 Y54.9590
G01 X30.4186 Y54.9395
G01 X30.3435 Y54.9128
G01 X30.3345 Y54.9090
G01 X30.2646 Y54.8759
G01 X30.1940 Y54.8339
G01 X30.1859 Y54.8285
G01 X30.1219 Y54.7809
G01 X30.0592 Y54.7240
G01 X23.8844 Y48.5492
G00 Z2.0000
G00 X24.9483 Y46.5545
G01 F60.00
G01 Z-0.1800
G01 F120.00
G01 X24.9272 Y46.5489
G01 X24.8404 Y46.5179
G01 X24.8337 Y46.5150
G01 X24.7504 Y46.4755
G01 X24.6672 Y46.4256
G01 X24.5892 Y46.3678
G01 X24.5173 Y46.3026
G01 X24.4521 Y46.2307
G01 X24.3943 Y46.1527
G01 X24.3444 Y46.0695
G01 X24.3029 Y45.9817
G01 X24.2702 Y45.8904
G01 X24.2466 Y45.7962
G01 X24.2324 Y45.7002
G01 X24.2276 Y45.6033
G01 X24.2324 Y45.5063
G01 X24.2466 Y45.4103
G01 X24.2702 Y45.3162
G01 X24.3029 Y45.2248
G01 X24.3444 Y45.1370
G01 X24.3943 Y45.0538
G01 X24.4521 Y44.9758
G01 X24.5173 Y44.9039
G01 X24.5892 Y44.8388
G01 X24.6672 Y44.7809
G01 X24.7504 Y44.7310
G01 X24.8381 Y44.6895
G01 X24.9295 Y44.6568
G01 X25.0237 Y44.6333
G01 X25.1197 Y44.6190
G01 X25.2166 Y44.6143
G01 X25.3136 Y44.6190
G01 X25.4096 Y44.6333
G01 X25.5037 Y44.6568
G01 X25.5905 Y44.6878
G01 X25.5996 Y44.6915
G01 X25.6828 Y44.7310
G01 X25.7619 Y44.7783
G01 X25.7701 Y44.7838
G01 X25.8440 Y44.8388
G01 X25.9159 Y44.9039
G01 X25.9779 Y44.9721
G01 X25.9841 Y44.9797
G01 X26.0389 Y45.0538
G01 X26.0864 Y45.1328
G01 X26.0910 Y45.1414
G01 X26.1303 Y45.2248
G01 X26.1623 Y45.3138
G01 X26.1678 Y45.3349
G01 X31.4251 Y50.5922
G01 X34.0852 Y50.5922
G01 X34.1077 Y50.5759
G01 X34.1760 Y50.5349
G01 X34.1826 Y50.5315
G01 X34.2524 Y50.4985
G01 X34.2593 Y50.4958
G01 X34.3344 Y50.4690
G01 X34.4117 Y50.4495
G01 X34.4189 Y50.4480
G01 X34.4953 Y50.4366
G01 X34.5051 Y50.4357
G01 X34.5847 Y50.4319
G01 X34.6644 Y50.4357
G01 X34.6741 Y50.4366
G01 X34.7530 Y50.4484
G01 X34.8327 Y50.4683
G01 X34.8397 Y50.4706
G01 X34.9147 Y50.4975
G01 X34.9912 Y50.5337
G01 X35.0638 Y50.5772
G01 X35.1279 Y50.6246
G01 X35.1355 Y50.6308
G01 X35.1945 Y50.6845
G01 X35.2481 Y50.7435
G01 X35.2544 Y50.7510
G01 X35.2989 Y50.8111
G01 X35.3044 Y50.8193
G01 X35.3453 Y50.8877
G01 X35.3815 Y50.9642
G01 X35.4100 Y51.0439
G01 X35.4305 Y51.1260
G01 X35.4429 Y51.2097
G01 X35.4470 Y51.2894
G01 X35.4470 Y51.2992
G01 X35.4433 Y51.3739
G01 X35.4423 Y51.3837
G01 X35.4305 Y51.4625
G01 X35.4113 Y51.5399
G01 X35.4084 Y51.5493
G01 X35.3815 Y51.6243
G01 X35.3464 Y51.6986
G01 X35.3044 Y51.7692
G01 X35.2989 Y51.7774
G01 X35.2513 Y51.8413
G01 X35.1962 Y51.9023
G01 X35.0307 Y52.0677
G01 X34.9715 Y52.1212
G01 X34.9075 Y52.1688
G01 X34.8994 Y52.1742
G01 X34.8309 Y52.2151
G01 X34.7589 Y52.2493
G01 X34.7498 Y52.2531
G01 X34.6747 Y52.2798
G01 X34.5974 Y52.2993
G01 X34.5878 Y52.3012
G01 X34.5089 Y52.3128
G01 X34.4244 Y52.3170
G01 X31.0655 Y52.3169
G01 X30.9834 Y52.3128
G01 X30.9045 Y52.3012
G01 X30.8949 Y52.2993
G01 X30.8176 Y52.2798
G01 X30.7425 Y52.2531
G01 X30.7334 Y52.2493
G01 X30.6636 Y52.2163
G01 X30.5930 Y52.1742
G01 X30.5848 Y52.1688
G01 X30.5208 Y52.1212
G01 X30.4581 Y52.0644
G01 X24.9483 Y46.5545
G00 Z2.0000
G00 X24.5026 Y42.7461
G01 F60.00
G01 Z-0.1800
G01 F120.00
G01 X26.2854 Y42.7462
G01 X26.3601 Y42.7499
G01 X26.3699 Y42.7509
G01 X26.4487 Y42.7627
G01 X26.5261 Y42.7819
G01 X26.5355 Y42.7848
G01 X26.6105 Y42.8118
G01 X26.6826 Y42.8457
G01 X26.6913 Y42.8504
G01 X26.7596 Y42.8914
G01 X26.8237 Y42.9388
G01 X26.8313 Y42.9451
G01 X26.8903 Y42.9987
G01 X31.7835 Y47.8919
G01 X34.5872 Y47.8919
G01 X34.6692 Y47.8960
G01 X34.7481 Y47.9076
G01 X34.7578 Y47.9095
G01 X34.8303 Y47.9277
G01 X34.8397 Y47.9306
G01 X34.9102 Y47.9558
G01 X34.9192 Y47.9595
G01 X34.9912 Y47.9937
G01 X35.0597 Y48.0346
G01 X35.0678 Y48.0400
G01 X35.1318 Y48.0876
G01 X35.1910 Y48.1411
G01 X35.1979 Y48.1480
G01 X35.2513 Y48.2072
G01 X35.3018 Y48.2751
G01 X35.3453 Y48.3477
G01 X35.3815 Y48.4242
G01 X35.4100 Y48.5039
G01 X35.4295 Y48.5812
G01 X35.4314 Y48.5909
G01 X35.4423 Y48.6649
G01 X35.4433 Y48.6746
G01 X35.4471 Y48.7543
G01 X35.4433 Y48.8339
G01 X35.4423 Y48.8437
G01 X35.4305 Y48.9225
G01 X35.4100 Y49.0046
G01 X35.3815 Y49.0843
G01 X35.3475 Y49.1564
G01 X35.3429 Y49.1651
G01 X35.3018 Y49.2334
G01 X35.2544 Y49.2975
G01 X35.2481 Y49.3051
G01 X35.1979 Y49.3605
G01 X35.1910 Y49.3674
G01 X35.1318 Y49.4209
G01 X35.0638 Y49.4713
G01 X34.9955 Y49.5124
G01 X34.9869 Y49.5170
G01 X34.9147 Y49.5510
G01 X34.8397 Y49.5780
G01 X34.8303 Y49.5808
G01 X34.7530 Y49.6001
G01 X34.6741 Y49.6119
G01 X34.6668 Y49.6127
G01 X34.5847 Y49.6166
G01 X31.4238 Y49.6166
G01 X31.3466 Y49.6128
G01 X31.3369 Y49.6119
G01 X31.2580 Y49.6001
G01 X31.1807 Y49.5808
G01 X31.1713 Y49.5780
G01 X31.0963 Y49.5510
G01 X31.0241 Y49.5170
G01 X31.0155 Y49.5124
G01 X30.9472 Y49.4713
G01 X30.8831 Y49.4239
G01 X30.8755 Y49.4177
G01 X30.8165 Y49.3641
G01 X25.9233 Y44.4709
G01 X24.5026 Y44.4709
G01 X24.4881 Y44.4795
G01 X24.4816 Y44.4829
G01 X24.4027 Y44.5202
G01 X24.3937 Y44.5240
G01 X24.3069 Y44.5549
G01 X24.2127 Y44.5785
G01 X24.1216 Y44.5921
G01 X24.1118 Y44.5931
G01 X24.0198 Y44.5975
G01 X23.9253 Y44.5929
G01 X23.9180 Y44.5921
G01 X23.8268 Y44.5785
G01 X23.7374 Y44.5562
G01 X23.7280 Y44.5534
G01 X23.6459 Y44.5240
G01 X23.6368 Y44.5202
G01 X23.5536 Y44.4807
G01 X23.4703 Y44.4308
G01 X23.3924 Y44.3730
G01 X23.3240 Y44.3112
G01 X23.3187 Y44.3061
G01 X23.2553 Y44.2359
G01 X23.1974 Y44.1579
G01 X23.1475 Y44.0747
G01 X23.1080 Y43.9915
G01 X23.1043 Y43.9824
G01 X23.0749 Y43.9002
G01 X23.0720 Y43.8909
G01 X23.0498 Y43.8014
G01 X23.0361 Y43.7103
G01 X23.0352 Y43.7005
G01 X23.0308 Y43.6085
G01 X23.0355 Y43.5116
G01 X23.0498 Y43.4155
G01 X23.0734 Y43.3214
G01 X23.1061 Y43.2300
G01 X23.1475 Y43.1423
G01 X23.1974 Y43.0590
G01 X23.2522 Y42.9849
G01 X23.2585 Y42.9774
G01 X23.3171 Y42.9127
G01 X23.3240 Y42.9058
G01 X23.3924 Y42.8440
G01 X23.4663 Y42.7890
G01 X23.4745 Y42.7835
G01 X23.5536 Y42.7363
G01 X23.6413 Y42.6948
G01 X23.7327 Y42.6621
G01 X23.8268 Y42.6385
G01 X23.9228 Y42.6243
G01 X24.0198 Y42.6195
G01 X24.1167 Y42.6243
G01 X24.2079 Y42.6377
G01 X24.2175 Y42.6396
G01 X24.3069 Y42.6621
G01 X24.3937 Y42.6930
G01 X24.4027 Y42.6968
G01 X24.4816 Y42.7341
G01 X24.4881 Y42.7375
G01 X24.5026 Y42.7461
G00 Z2.0000
G00 X24.9936 Y52.5276
G01 F60.00
G01 Z-0.1800
G01 F120.00
G01 X24.9077 Y52.4967
G01 X24.8199 Y52.4552
G01 X24.7367 Y52.4053
G01 X24.6587 Y52.3475
G01 X24.5868 Y52.2823
G01 X24.5217 Y52.2104
G01 X24.4638 Y52.1324
G01 X24.4139 Y52.0492
G01 X24.3724 Y51.9615
G01 X24.3397 Y51.8701
G01 X24.3162 Y51.7759
G01 X24.3019 Y51.6799
G01 X24.2972 Y51.5830
G01 X24.3019 Y51.4861
G01 X24.3162 Y51.3900
G01 X24.3397 Y51.2959
G01 X24.3724 Y51.2045
G01 X24.4139 Y51.1168
G01 X24.4638 Y51.0335
G01 X24.5217 Y50.9556
G01 X24.5868 Y50.8837
G01 X24.6587 Y50.8185
G01 X24.7367 Y50.7607
G01 X24.8199 Y50.7108
G01 X24.9077 Y50.6693
G01 X24.9991 Y50.6366
G01 X25.0932 Y50.6130
G01 X25.1892 Y50.5988
G01 X25.2862 Y50.5940
G01 X25.3831 Y50.5988
G01 X25.4791 Y50.6130
G01 X25.5733 Y50.6366
G01 X25.6601 Y50.6675
G01 X25.6691 Y50.6713
G01 X25.7524 Y50.7108
G01 X25.8315 Y50.7580
G01 X25.8396 Y50.7635
G01 X25.9136 Y50.8185
G01 X25.9855 Y50.8837
G01 X26.0475 Y50.9519
G01 X26.0537 Y50.9594
G01 X26.1085 Y51.0335
G01 X26.1572 Y51.1146
G01 X26.1979 Y51.2000
G01 X26.2008 Y51.2068
G01 X26.2318 Y51.2936
G01 X26.2432 Y51.3380
G01 X32.1954 Y57.2896
G01 X44.7267 Y57.2896
G01 X45.5034 Y56.5129
G01 X45.5034 Y55.1912
G01 X45.5074 Y55.1091
G01 X45.5082 Y55.1018
G01 X45.5200 Y55.0230
G01 X45.5392 Y54.9456
G01 X45.5421 Y54.9362
G01 X45.5691 Y54.8612
G01 X45.6030 Y54.7891
G01 X45.6077 Y54.7804
G01 X45.6487 Y54.7121
G01 X45.6992 Y54.6441
G01 X45.7560 Y54.5814
G01 X45.8150 Y54.5278
G01 X45.8226 Y54.5216
G01 X45.8867 Y54.4742
G01 X45.9470 Y54.4379
G01 X47.1604 Y53.2245
G01 X47.2212 Y53.1692
G01 X47.2871 Y53.1200
G01 X47.2952 Y53.1146
G01 X47.3637 Y53.0737
G01 X47.4402 Y53.0375
G01 X47.5152 Y53.0106
G01 X47.5246 Y53.0077
G01 X47.6020 Y52.9884
G01 X47.6808 Y52.9766
G01 X47.6906 Y52.9757
G01 X47.7702 Y52.9719
G01 X49.8247 Y52.9719
G01 X49.8349 Y52.9723
G01 X50.5867 Y52.9723
G01 X50.5990 Y52.9730
G01 X50.6110 Y52.9753
G01 X50.6227 Y52.9790
G01 X50.6339 Y52.9841
G01 X50.6443 Y52.9905
G01 X50.6502 Y52.9950
G01 X50.6557 Y52.9998
G01 X50.6640 Y53.0088
G01 X50.6712 Y53.0188
G01 X50.6771 Y53.0295
G01 X50.6800 Y53.0363
G01 X50.6824 Y53.0432
G01 X50.6852 Y53.0552
G01 X50.6862 Y53.0625
G01 X50.6867 Y53.0698
G01 X50.6867 Y53.8240
G01 X50.6871 Y53.8343
G01 X50.6867 Y53.8445
G01 X50.6867 Y54.5963
G01 X50.6864 Y54.6036
G01 X50.6852 Y54.6134
G01 X50.6831 Y54.6229
G01 X50.6809 Y54.6299
G01 X50.6771 Y54.6390
G01 X50.6725 Y54.6477
G01 X50.6685 Y54.6538
G01 X50.6624 Y54.6616
G01 X50.6557 Y54.6687
G01 X50.6502 Y54.6736
G01 X50.6423 Y54.6794
G01 X50.6339 Y54.6845
G01 X50.6250 Y54.6886
G01 X50.6157 Y54.6920
G01 X50.6062 Y54.6943
G01 X50.5965 Y54.6958
G01 X50.5892 Y54.6962
G01 X49.8349 Y54.6963
G01 X49.8247 Y54.6966
G01 X48.1274 Y54.6966
G01 X47.2282 Y55.5959
G01 X47.2282 Y56.8701
G01 X47.2242 Y56.9522
G01 X47.2234 Y56.9595
G01 X47.2116 Y57.0384
G01 X47.1923 Y57.1158
G01 X47.1895 Y57.1251
G01 X47.1625 Y57.2002
G01 X47.1285 Y57.2723
G01 X47.1239 Y57.2809
G01 X47.0828 Y57.3493
G01 X47.0324 Y57.4172
G01 X46.9756 Y57.4799
G01 X45.6937 Y58.7618
G01 X45.6347 Y58.8154
G01 X45.6271 Y58.8217
G01 X45.5630 Y58.8691
G01 X45.4947 Y58.9102
G01 X45.4861 Y58.9148
G01 X45.4139 Y58.9488
G01 X45.3389 Y58.9757
G01 X45.3295 Y58.9786
G01 X45.2546 Y58.9973
G01 X45.2473 Y58.9987
G01 X45.1684 Y59.0102
G01 X45.0839 Y59.0144
G01 X31.8463 Y59.0144
G01 X31.8379 Y59.0147
G01 X31.7559 Y59.0107
G01 X31.7485 Y59.0099
G01 X31.6697 Y58.9981
G01 X31.5923 Y58.9789
G01 X31.5829 Y58.9760
G01 X31.5125 Y58.9508
G01 X31.5034 Y58.9471
G01 X31.4314 Y58.9129
G01 X31.3588 Y58.8694
G01 X31.2909 Y58.8189
G01 X31.2299 Y58.7638
G01 X24.9936 Y52.5276
G00 Z2.0000
G00 X35.4466 Y56.3792
G01 F60.00
G01 Z-0.1800
G01 F120.00
G01 X35.4426 Y56.4588
G01 X35.4302 Y56.5424
G01 X35.4096 Y56.6245
G01 X35.3811 Y56.7041
G01 X35.3449 Y56.7806
G01 X35.3014 Y56.8532
G01 X35.2511 Y56.9211
G01 X35.1942 Y56.9838
G01 X35.1316 Y57.0406
G01 X35.0636 Y57.0910
G01 X34.9911 Y57.1345
G01 X34.9146 Y57.1706
G01 X34.8349 Y57.1991
G01 X34.7529 Y57.2197
G01 X34.6692 Y57.2321
G01 X34.5847 Y57.2363
G01 X34.5002 Y57.2321
G01 X34.4166 Y57.2197
G01 X34.3345 Y57.1991
G01 X34.2548 Y57.1706
G01 X34.1784 Y57.1345
G01 X34.1058 Y57.0910
G01 X34.0379 Y57.0406
G01 X33.9752 Y56.9838
G01 X33.9184 Y56.9211
G01 X33.8680 Y56.8532
G01 X33.8245 Y56.7806
G01 X33.7883 Y56.7041
G01 X33.7598 Y56.6245
G01 X33.7393 Y56.5424
G01 X33.7269 Y56.4588
G01 X33.7227 Y56.3743
G01 X33.7269 Y56.2898
G01 X33.7393 Y56.2061
G01 X33.7598 Y56.1240
G01 X33.7883 Y56.0444
G01 X33.8245 Y55.9679
G01 X33.8680 Y55.8954
G01 X33.9184 Y55.8274
G01 X33.9752 Y55.7647
G01 X34.0379 Y55.7079
G01 X34.1058 Y55.6575
G01 X34.1784 Y55.6140
G01 X34.2548 Y55.5779
G01 X34.3345 Y55.5494
G01 X34.4166 Y55.5288
G01 X34.5002 Y55.5164
G01 X34.5847 Y55.5123
G01 X34.6692 Y55.5164
G01 X34.7529 Y55.5288
G01 X34.8349 Y55.5494
G01 X34.9146 Y55.5779
G01 X34.9911 Y55.6140
G01 X35.0636 Y55.6575
G01 X35.1316 Y55.7079
G01 X35.1942 Y55.7647
G01 X35.2511 Y55.8274
G01 X35.3014 Y55.8954
G01 X35.3449 Y55.9679
G01 X35.3811 Y56.0444
G01 X35.4096 Y56.1240
G01 X35.4302 Y56.2061
G01 X35.4426 Y56.2898
G01 X35.4466 Y56.3694
G01 X35.4466 Y56.3792
G00 Z2.0000
G00 X35.4466 Y43.6792
G01 F60.00
G01 Z-0.1800
G01 F120.00
G01 X35.4426 Y43.7588
G01 X35.4302 Y43.8424
G01 X35.4096 Y43.9245
G01 X35.3811 Y44.0041
G01 X35.3449 Y44.0806
G01 X35.3014 Y44.1532
G01 X35.2511 Y44.2211
G01 X35.1942 Y44.2838
G01 X35.1316 Y44.3406
G01 X35.0636 Y44.3910
G01 X34.9911 Y44.4345
G01 X34.9146 Y44.4706
G01 X34.8349 Y44.4991
G01 X34.7529 Y44.5197
G01 X34.6692 Y44.5321
G01 X34.5847 Y44.5363
G01 X34.5002 Y44.5321
G01 X34.4166 Y44.5197
G01 X34.3345 Y44.4991
G01 X34.2548 Y44.4706
G01 X34.1784 Y44.4345
G01 X34.1058 Y44.3910
G01 X34.0379 Y44.3406
G01 X33.9752 Y44.2838
G01 X33.9184 Y44.2211
G01 X33.8680 Y44.1532
G01 X33.8245 Y44.0806
G01 X33.7883 Y44.0041
G01 X33.7598 Y43.9245
G01 X33.7393 Y43.8424
G01 X33.7269 Y43.7588
G01 X33.7227 Y43.6743
G01 X33.7269 Y43.5898
G01 X33.7393 Y43.5061
G01 X33.7598 Y43.4240
G01 X33.7883 Y43.3444
G01 X33.8245 Y43.2679
G01 X33.8680 Y43.1954
G01 X33.9184 Y43.1274
G01 X33.9752 Y43.0647
G01 X34.0379 Y43.0079
G01 X34.1058 Y42.9575
G01 X34.1784 Y42.9140
G01 X34.2548 Y42.8779
G01 X34.3345 Y42.8494
G01 X34.4166 Y42.8288
G01 X34.5002 Y42.8164
G01 X34.5847 Y42.8123
G01 X34.6692 Y42.8164
G01 X34.7529 Y42.8288
G01 X34.8349 Y42.8494
G01 X34.9146 Y42.8779
G01 X34.9911 Y42.9140
G01 X35.0636 Y42.9575
G01 X35.1316 Y43.0079
G01 X35.1942 Y43.0647
G01 X35.2511 Y43.1274
G01 X35.3014 Y43.1954
G01 X35.3449 Y43.2679
G01 X35.3811 Y43.3444
G01 X35.4096 Y43.4240
G01 X35.4302 Y43.5061
G01 X35.4426 Y43.5898
G01 X35.4466 Y43.6694
G01 X35.4466 Y43.6792
G00 Z2.0000
G00 X35.4466 Y41.1392
G01 F60.00
G01 Z-0.1800
G01 F120.00
G01 X35.4426 Y41.2188
G01 X35.4302 Y41.3024
G01 X35.4096 Y41.3845
G01 X35.3811 Y41.4641
G01 X35.3449 Y41.5406
G01 X35.3014 Y41.6132
G01 X35.2511 Y41.6811
G01 X35.1942 Y41.7438
G01 X35.1316 Y41.8006
G01 X35.0636 Y41.8510
G01 X34.9911 Y41.8945
G01 X34.9146 Y41.9306
G01 X34.8349 Y41.9591
G01 X34.7529 Y41.9797
G01 X34.6692 Y41.9921
G01 X34.5847 Y41.9963
G01 X34.5002 Y41.9921
G01 X34.4166 Y41.9797
G01 X34.3345 Y41.9591
G01 X34.2548 Y41.9306
G01 X34.1784 Y41.8945
G01 X34.1058 Y41.8510
G01 X34.0379 Y41.8006
G01 X33.9752 Y41.7438
G01 X33.9184 Y41.6811
G01 X33.8680 Y41.6132
G01 X33.8245 Y41.5406
G01 X33.7883 Y41.4641
G01 X33.7598 Y41.3845
G01 X33.7393 Y41.3024
G01 X33.7269 Y41.2188
G01 X33.7227 Y41.1343
G01 X33.7269 Y41.0498
G01 X33.7393 Y40.9661
G01 X33.7598 Y40.8840
G01 X33.7883 Y40.8044
G01 X33.8245 Y40.7279
G01 X33.8680 Y40.6554
G01 X33.9184 Y40.5874
G01 X33.9752 Y40.5247
G01 X34.0379 Y40.4679
G01 X34.1058 Y40.4175
G01 X34.1784 Y40.3740
G01 X34.2548 Y40.3379
G01 X34.3345 Y40.3094
G01 X34.4166 Y40.2888
G01 X34.5002 Y40.2764
G01 X34.5847 Y40.2723
G01 X34.6692 Y40.2764
G01 X34.7529 Y40.2888
G01 X34.8349 Y40.3094
G01 X34.9146 Y40.3379
G01 X34.9911 Y40.3740
G01 X35.0636 Y40.4175
G01 X35.1316 Y40.4679
G01 X35.1942 Y40.5247
G01 X35.2511 Y40.5874
G01 X35.3014 Y40.6554
G01 X35.3449 Y40.7279
G01 X35.3811 Y40.8044
G01 X35.4096 Y40.8840
G01 X35.4302 Y40.9661
G01 X35.4426 Y41.0498
G01 X35.4466 Y41.1294
G01 X35.4466 Y41.1392
G00 Z2.0000
G00 X35.4466 Y38.5992
G01 F60.00
G01 Z-0.1800
G01 F120.00
G01 X35.4426 Y38.6788
G01 X35.4302 Y38.7624
G01 X35.4096 Y38.8445
G01 X35.3811 Y38.9241
G01 X35.3449 Y39.0006
G01 X35.3014 Y39.0732
G01 X35.2511 Y39.1411
G01 X35.1942 Y39.2038
G01 X35.1316 Y39.2606
G01 X35.0636 Y39.3110
G01 X34.9911 Y39.3545
G01 X34.9146 Y39.3906
G01 X34.8349 Y39.4191
G01 X34.7529 Y39.4397
G01 X34.6692 Y39.4521
G01 X34.5847 Y39.4563
G01 X34.5002 Y39.4521
G01 X34.4166 Y39.4397
G01 X34.3345 Y39.4191
G01 X34.2548 Y39.3906
G01 X34.1784 Y39.3545
G01 X34.1058 Y39.3110
G01 X34.0379 Y39.2606
G01 X33.9752 Y39.2038
G01 X33.9184 Y39.1411
G01 X33.8680 Y39.0732
G01 X33.8245 Y39.0006
G01 X33.7883 Y38.9241
G01 X33.7598 Y38.8445
G01 X33.7393 Y38.7624
G01 X33.7269 Y38.6788
G01 X33.7227 Y38.5943
G01 X33.7269 Y38.5098
G01 X33.7393 Y38.4261
G01 X33.7598 Y38.3440
G01 X33.7883 Y38.2644
G01 X33.8245 Y38.1879
G01 X33.8680 Y38.1154
G01 X33.9184 Y38.0474
G01 X33.9752 Y37.9847
G01 X34.0379 Y37.9279
G01 X34.1058 Y37.8775
G01 X34.1784 Y37.8340
G01 X34.2548 Y37.7979
G01 X34.3345 Y37.7694
G01 X34.4166 Y37.7488
G01 X34.5002 Y37.7364
G01 X34.5847 Y37.7323
G01 X34.6692 Y37.7364
G01 X34.7529 Y37.7488
G01 X34.8349 Y37.7694
G01 X34.9146 Y37.7979
G01 X34.9911 Y37.8340
G01 X35.0636 Y37.8775
G01 X35.1316 Y37.9279
G01 X35.1942 Y37.9847
G01 X35.2511 Y38.0474
G01 X35.3014 Y38.1154
G01 X35.3449 Y38.1879
G01 X35.3811 Y38.2644
G01 X35.4096 Y38.3440
G01 X35.4302 Y38.4261
G01 X35.4426 Y38.5098
G01 X35.4466 Y38.5894
G01 X35.4466 Y38.5992
G00 Z2.0000
G00 X35.4466 Y36.0592
G01 F60.00
G01 Z-0.1800
G01 F120.00
G01 X35.4426 Y36.1388
G01 X35.4302 Y36.2224
G01 X35.4096 Y36.3045
G01 X35.3811 Y36.3841
G01 X35.3449 Y36.4606
G01 X35.3014 Y36.5332
G01 X35.2511 Y36.6011
G01 X35.1942 Y36.6638
G01 X35.1316 Y36.7206
G01 X35.0636 Y36.7710
G01 X34.9911 Y36.8145
G01 X34.9146 Y36.8506
G01 X34.8349 Y36.8791
G01 X34.7529 Y36.8997
G01 X34.6692 Y36.9121
G01 X34.5847 Y36.9163
G01 X34.5002 Y36.9121
G01 X34.4166 Y36.8997
G01 X34.3345 Y36.8791
G01 X34.2548 Y36.8506
G01 X34.1784 Y36.8145
G01 X34.1058 Y36.7710
G01 X34.0379 Y36.7206
G01 X33.9752 Y36.6638
G01 X33.9184 Y36.6011
G01 X33.8680 Y36.5332
G01 X33.8245 Y36.4606
G01 X33.7883 Y36.3841
G01 X33.7598 Y36.3045
G01 X33.7393 Y36.2224
G01 X33.7269 Y36.1388
G01 X33.7227 Y36.0543
G01 X33.7269 Y35.9698
G01 X33.7393 Y35.8861
G01 X33.7598 Y35.8040
G01 X33.7883 Y35.7244
G01 X33.8245 Y35.6479
G01 X33.8680 Y35.5754
G01 X33.9184 Y35.5074
G01 X33.9752 Y35.4447
G01 X34.0379 Y35.3879
G01 X34.1058 Y35.3375
G01 X34.1784 Y35.2940
G01 X34.2548 Y35.2579
G01 X34.3345 Y35.2294
G01 X34.4166 Y35.2088
G01 X34.5002 Y35.1964
G01 X34.5847 Y35.1923
G01 X34.6692 Y35.1964
G01 X34.7529 Y35.2088
G01 X34.8349 Y35.2294
G01 X34.9146 Y35.2579
G01 X34.9911 Y35.2940
G01 X35.0636 Y35.3375
G01 X35.1316 Y35.3879
G01 X35.1942 Y35.4447
G01 X35.2511 Y35.5074
G01 X35.3014 Y35.5754
G01 X35.3449 Y35.6479
G01 X35.3811 Y35.7244
G01 X35.4096 Y35.8040
G01 X35.4302 Y35.8861
G01 X35.4426 Y35.9698
G01 X35.4466 Y36.0494
G01 X35.4466 Y36.0592
G00 Z2.0000
G00 X35.4466 Y33.5192
G01 F60.00
G01 Z-0.1800
G01 F120.00
G01 X35.4426 Y33.5988
G01 X35.4302 Y33.6824
G01 X35.4096 Y33.7645
G01 X35.3811 Y33.8441
G01 X35.3449 Y33.9206
G01 X35.3014 Y33.9932
G01 X35.2511 Y34.0611
G01 X35.1942 Y34.1238
G01 X35.1316 Y34.1806
G01 X35.0636 Y34.2310
G01 X34.9911 Y34.2745
G01 X34.9146 Y34.3106
G01 X34.8349 Y34.3391
G01 X34.7529 Y34.3597
G01 X34.6692 Y34.3721
G01 X34.5847 Y34.3763
G01 X34.5002 Y34.3721
G01 X34.4166 Y34.3597
G01 X34.3345 Y34.3391
G01 X34.2548 Y34.3106
G01 X34.1784 Y34.2745
G01 X34.1058 Y34.2310
G01 X34.0379 Y34.1806
G01 X33.9752 Y34.1238
G01 X33.9184 Y34.0611
G01 X33.8680 Y33.9932
G01 X33.8245 Y33.9206
G01 X33.7883 Y33.8441
G01 X33.7598 Y33.7645
G01 X33.7393 Y33.6824
G01 X33.7269 Y33.5988
G01 X33.7227 Y33.5143
G01 X33.7269 Y33.4298
G01 X33.7393 Y33.3461
G01 X33.7598 Y33.2640
G01 X33.7883 Y33.1844
G01 X33.8245 Y33.1079
G01 X33.8680 Y33.0354
G01 X33.9184 Y32.9674
G01 X33.9752 Y32.9047
G01 X34.0379 Y32.8479
G01 X34.1058 Y32.7975
G01 X34.1784 Y32.7540
G01 X34.2548 Y32.7179
G01 X34.3345 Y32.6894
G01 X34.4166 Y32.6688
G01 X34.5002 Y32.6564
G01 X34.5847 Y32.6523
G01 X34.6692 Y32.6564
G01 X34.7529 Y32.6688
G01 X34.8349 Y32.6894
G01 X34.9146 Y32.7179
G01 X34.9911 Y32.7540
G01 X35.0636 Y32.7975
G01 X35.1316 Y32.8479
G01 X35.1942 Y32.9047
G01 X35.2511 Y32.9674
G01 X35.3014 Y33.0354
G01 X35.3449 Y33.1079
G01 X35.3811 Y33.1844
G01 X35.4096 Y33.2640
G01 X35.4302 Y33.3461
G01 X35.4426 Y33.4298
G01 X35.4466 Y33.5094
G01 X35.4466 Y33.5192
G00 Z2.0000
G00 X35.4466 Y23.3592
G01 F60.00
G01 Z-0.1800
G01 F120.00
G01 X35.4426 Y23.4388
G01 X35.4302 Y23.5224
G01 X35.4096 Y23.6045
G01 X35.3811 Y23.6841
G01 X35.3449 Y23.7606
G01 X35.3014 Y23.8332
G01 X35.2511 Y23.9011
G01 X35.1942 Y23.9638
G01 X35.1316 Y24.0206
G01 X35.0636 Y24.0710
G01 X34.9911 Y24.1145
G01 X34.9146 Y24.1506
G01 X34.8349 Y24.1791
G01 X34.7529 Y24.1997
G01 X34.6692 Y24.2121
G01 X34.5847 Y24.2163
G01 X34.5002 Y24.2121
G01 X34.4166 Y24.1997
G01 X34.3345 Y24.1791
G01 X34.2548 Y24.1506
G01 X34.1784 Y24.1145
G01 X34.1058 Y24.0710
G01 X34.0379 Y24.0206
G01 X33.9752 Y23.9638
G01 X33.9184 Y23.9011
G01 X33.8680 Y23.8332
G01 X33.8245 Y23.7606
G01 X33.7883 Y23.6841
G01 X33.7598 Y23.6045
G01 X33.7393 Y23.5224
G01 X33.7269 Y23.4388
G01 X33.7227 Y23.3543
G01 X33.7269 Y23.2698
G01 X33.7393 Y23.1861
G01 X33.7598 Y23.1040
G01 X33.7883 Y23.0244
G01 X33.8245 Y22.9479
G01 X33.8680 Y22.8754
G01 X33.9184 Y22.8074
G01 X33.9752 Y22.7447
G01 X34.0379 Y22.6879
G01 X34.1058 Y22.6375
G01 X34.1784 Y22.5940
G01 X34.2548 Y22.5579
G01 X34.3345 Y22.5294
G01 X34.4166 Y22.5088
G01 X34.5002 Y22.4964
G01 X34.5847 Y22.4923
G01 X34.6692 Y22.4964
G01 X34.7529 Y22.5088
G01 X34.8349 Y22.5294
G01 X34.9146 Y22.5579
G01 X34.9911 Y22.5940
G01 X35.0636 Y22.6375
G01 X35.1316 Y22.6879
G01 X35.1942 Y22.7447
G01 X35.2511 Y22.8074
G01 X35.3014 Y22.8754
G01 X35.3449 Y22.9479
G01 X35.3811 Y23.0244
G01 X35.4096 Y23.1040
G01 X35.4302 Y23.1861
G01 X35.4426 Y23.2698
G01 X35.4466 Y23.3494
G01 X35.4466 Y23.3592
G00 Z2.0000
G00 X35.4466 Y15.7392
G01 F60.00
G01 Z-0.1800
G01 F120.00
G01 X35.4426 Y15.8188
G01 X35.4302 Y15.9024
G01 X35.4096 Y15.9845
G01 X35.3811 Y16.0641
G01 X35.3449 Y16.1406
G01 X35.3014 Y16.2132
G01 X35.2511 Y16.2811
G01 X35.1942 Y16.3438
G01 X35.1316 Y16.4006
G01 X35.0636 Y16.4510
G01 X34.9911 Y16.4945
G01 X34.9146 Y16.5306
G01 X34.8349 Y16.5591
G01 X34.7529 Y16.5797
G01 X34.6692 Y16.5921
G01 X34.5847 Y16.5963
G01 X34.5002 Y16.5921
G01 X34.4166 Y16.5797
G01 X34.3345 Y16.5591
G01 X34.2548 Y16.5306
G01 X34.1784 Y16.4945
G01 X34.1058 Y16.4510
G01 X34.0379 Y16.4006
G01 X33.9752 Y16.3438
G01 X33.9184 Y16.2811
G01 X33.8680 Y16.2132
G01 X33.8245 Y16.1406
G01 X33.7883 Y16.0641
G01 X33.7598 Y15.9845
G01 X33.7393 Y15.9024
G01 X33.7269 Y15.8188
G01 X33.7227 Y15.7343
G01 X33.7269 Y15.6498
G01 X33.7393 Y15.5661
G01 X33.7598 Y15.4840
G01 X33.7883 Y15.4044
G01 X33.8245 Y15.3279
G01 X33.8680 Y15.2554
G01 X33.9184 Y15.1874
G01 X33.9752 Y15.1247
G01 X34.0379 Y15.0679
G01 X34.1058 Y15.0175
G01 X34.1784 Y14.9740
G01 X34.2548 Y14.9379
G01 X34.3345 Y14.9094
G01 X34.4166 Y14.8888
G01 X34.5002 Y14.8764
G01 X34.5847 Y14.8723
G01 X34.6692 Y14.8764
G01 X34.7529 Y14.8888
G01 X34.8349 Y14.9094
G01 X34.9146 Y14.9379
G01 X34.9911 Y14.9740
G01 X35.0636 Y15.0175
G01 X35.1316 Y15.0679
G01 X35.1942 Y15.1247
G01 X35.2511 Y15.1874
G01 X35.3014 Y15.2554
G01 X35.3449 Y15.3279
G01 X35.3811 Y15.4044
G01 X35.4096 Y15.4840
G01 X35.4302 Y15.5661
G01 X35.4426 Y15.6498
G01 X35.4466 Y15.7294
G01 X35.4466 Y15.7392
G00 Z2.0000
G00 X32.7663 Y8.6792
G01 F60.00
G01 Z-0.1800
G01 F120.00
G01 X32.7645 Y8.6667
G01 X32.7638 Y8.6538
G01 X32.7645 Y8.6409
G01 X32.7664 Y8.6281
G01 X32.7695 Y8.6156
G01 X32.7739 Y8.6034
G01 X32.7794 Y8.5917
G01 X32.7860 Y8.5806
G01 X32.7937 Y8.5702
G01 X32.8024 Y8.5606
G01 X32.8120 Y8.5519
G01 X32.8224 Y8.5442
G01 X32.8335 Y8.5376
G01 X32.8452 Y8.5321
G01 X32.8574 Y8.5277
G01 X32.8699 Y8.5246
G01 X32.8827 Y8.5227
G01 X32.8956 Y8.5220
G01 X33.5783 Y8.5220
G01 X33.5771 Y8.5119
G01 X33.5767 Y8.4989
G01 X33.5773 Y8.4885
G01 X33.5791 Y8.4760
G01 X33.5773 Y8.4635
G01 X33.5766 Y8.4506
G01 X33.5773 Y8.4377
G01 X33.5791 Y8.4252
G01 X33.5773 Y8.4127
G01 X33.5766 Y8.3998
G01 X33.5773 Y8.3869
G01 X33.5791 Y8.3744
G01 X33.5773 Y8.3619
G01 X33.5766 Y8.3490
G01 X33.5773 Y8.3361
G01 X33.5791 Y8.3236
G01 X33.5773 Y8.3111
G01 X33.5766 Y8.2982
G01 X33.5773 Y8.2853
G01 X33.5791 Y8.2728
G01 X33.5773 Y8.2603
G01 X33.5766 Y8.2474
G01 X33.5773 Y8.2345
G01 X33.5791 Y8.2220
G01 X33.5773 Y8.2095
G01 X33.5766 Y8.1966
G01 X33.5773 Y8.1837
G01 X33.5791 Y8.1712
G01 X33.5773 Y8.1587
G01 X33.5766 Y8.1458
G01 X33.5773 Y8.1329
G01 X33.5791 Y8.1204
G01 X33.5773 Y8.1079
G01 X33.5766 Y8.0950
G01 X33.5773 Y8.0821
G01 X33.5791 Y8.0696
G01 X33.5773 Y8.0571
G01 X33.5766 Y8.0442
G01 X33.5773 Y8.0313
G01 X33.5791 Y8.0188
G01 X33.5773 Y8.0063
G01 X33.5766 Y7.9934
G01 X33.5773 Y7.9805
G01 X33.5791 Y7.9680
G01 X33.5773 Y7.9555
G01 X33.5766 Y7.9426
G01 X33.5773 Y7.9297
G01 X33.5791 Y7.9172
G01 X33.5773 Y7.9047
G01 X33.5766 Y7.8918
G01 X33.5773 Y7.8789
G01 X33.5791 Y7.8664
G01 X33.5773 Y7.8539
G01 X33.5766 Y7.8410
G01 X33.5773 Y7.8281
G01 X33.5791 Y7.8156
G01 X33.5773 Y7.8031
G01 X33.5766 Y7.7902
G01 X33.5773 Y7.7773
G01 X33.5791 Y7.7648
G01 X33.5773 Y7.7523
G01 X33.5766 Y7.7394
G01 X33.5773 Y7.7265
G01 X33.5791 Y7.7140
G01 X33.5773 Y7.7015
G01 X33.5766 Y7.6886
G01 X33.5773 Y7.6757
G01 X33.5791 Y7.6632
G01 X33.5773 Y7.6507
G01 X33.5766 Y7.6378
G01 X33.5773 Y7.6249
G01 X33.5791 Y7.6124
G01 X33.5773 Y7.5999
G01 X33.5766 Y7.5870
G01 X33.5773 Y7.5741
G01 X33.5791 Y7.5616
G01 X33.5773 Y7.5491
G01 X33.5766 Y7.5362
G01 X33.5773 Y7.5233
G01 X33.5791 Y7.5108
G01 X33.5773 Y7.4983
G01 X33.5766 Y7.4854
G01 X33.5773 Y7.4725
G01 X33.5791 Y7.4600
G01 X33.5773 Y7.4475
G01 X33.5766 Y7.4346
G01 X33.5773 Y7.4217
G01 X33.5791 Y7.4092
G01 X33.5773 Y7.3967
G01 X33.5766 Y7.3838
G01 X33.5773 Y7.3709
G01 X33.5791 Y7.3584
G01 X33.5773 Y7.3459
G01 X33.5766 Y7.3330
G01 X33.5773 Y7.3201
G01 X33.5791 Y7.3076
G01 X33.5773 Y7.2951
G01 X33.5766 Y7.2822
G01 X33.5773 Y7.2693
G01 X33.5791 Y7.2568
G01 X33.5773 Y7.2443
G01 X33.5766 Y7.2314
G01 X33.5773 Y7.2185
G01 X33.5791 Y7.2060
G01 X33.5773 Y7.1935
G01 X33.5766 Y7.1806
G01 X33.5773 Y7.1677
G01 X33.5791 Y7.1552
G01 X33.5773 Y7.1427
G01 X33.5766 Y7.1298
G01 X33.5773 Y7.1169
G01 X33.5791 Y7.1044
G01 X33.5773 Y7.0919
G01 X33.5766 Y7.0790
G01 X33.5773 Y7.0661
G01 X33.5791 Y7.0536
G01 X33.5773 Y7.0411
G01 X33.5766 Y7.0282
G01 X33.5773 Y7.0153
G01 X33.5791 Y7.0028
G01 X33.5773 Y6.9903
G01 X33.5766 Y6.9774
G01 X33.5773 Y6.9645
G01 X33.5791 Y6.9520
G01 X33.5773 Y6.9395
G01 X33.5766 Y6.9266
G01 X33.5773 Y6.9137
G01 X33.5791 Y6.9012
G01 X33.5773 Y6.8887
G01 X33.5766 Y6.8758
G01 X33.5773 Y6.8629
G01 X33.5791 Y6.8504
G01 X33.5773 Y6.8379
G01 X33.5766 Y6.8250
G01 X33.5773 Y6.8121
G01 X33.5791 Y6.7996
G01 X33.5773 Y6.7871
G01 X33.5766 Y6.7742
G01 X33.5773 Y6.7613
G01 X33.5791 Y6.7488
G01 X33.5773 Y6.7363
G01 X33.5766 Y6.7234
G01 X33.5773 Y6.7105
G01 X33.5791 Y6.6980
G01 X33.5773 Y6.6855
G01 X33.5766 Y6.6726
G01 X33.5773 Y6.6597
G01 X33.5791 Y6.6472
G01 X33.5773 Y6.6347
G01 X33.5766 Y6.6218
G01 X33.5773 Y6.6089
G01 X33.5791 Y6.5964
G01 X33.5773 Y6.5839
G01 X33.5766 Y6.5710
G01 X33.5773 Y6.5581
G01 X33.5791 Y6.5456
G01 X33.5773 Y6.5331
G01 X33.5766 Y6.5202
G01 X33.5773 Y6.5073
G01 X33.5791 Y6.4948
G01 X33.5773 Y6.4823
G01 X33.5766 Y6.4694
G01 X33.5773 Y6.4565
G01 X33.5791 Y6.4440
G01 X33.5773 Y6.4315
G01 X33.5766 Y6.4186
G01 X33.5773 Y6.4057
G01 X33.5791 Y6.3932
G01 X33.5773 Y6.3807
G01 X33.5766 Y6.3678
G01 X33.5773 Y6.3549
G01 X33.5791 Y6.3424
G01 X33.5773 Y6.3299
G01 X33.5766 Y6.3170
G01 X33.5773 Y6.3041
G01 X33.5791 Y6.2916
G01 X33.5773 Y6.2791
G01 X33.5766 Y6.2662
G01 X33.5773 Y6.2533
G01 X33.5791 Y6.2408
G01 X33.5773 Y6.2283
G01 X33.5766 Y6.2154
G01 X33.5771 Y6.2049
G01 X33.5779 Y6.1976
G01 X33.5792 Y6.1897
G01 X33.5816 Y6.1795
G01 X33.5838 Y6.1725
G01 X33.5876 Y6.1627
G01 X33.5922 Y6.1533
G01 X33.5975 Y6.1443
G01 X33.6017 Y6.1382
G01 X33.6081 Y6.1299
G01 X33.6152 Y6.1222
G01 X33.6229 Y6.1151
G01 X33.6287 Y6.1105
G01 X33.6373 Y6.1045
G01 X33.6463 Y6.0992
G01 X33.6557 Y6.0946
G01 X33.6626 Y6.0919
G01 X33.6725 Y6.0886
G01 X33.6827 Y6.0862
G01 X33.6930 Y6.0845
G01 X33.7084 Y6.0836
G01 X34.1681 Y6.0837
G01 X34.1834 Y6.0849
G01 X34.1913 Y6.0862
G01 X34.2015 Y6.0886
G01 X34.2160 Y6.0937
G01 X34.2299 Y6.1004
G01 X34.2428 Y6.1087
G01 X34.2492 Y6.1135
G01 X34.2570 Y6.1205
G01 X34.2675 Y6.1318
G01 X34.2738 Y6.1402
G01 X34.2778 Y6.1463
G01 X34.2818 Y6.1533
G01 X34.2864 Y6.1627
G01 X34.2917 Y6.1772
G01 X34.2943 Y6.1873
G01 X34.2957 Y6.1945
G01 X34.2967 Y6.2025
G01 X34.2973 Y6.2129
G01 X34.2967 Y6.2283
G01 X34.2949 Y6.2408
G01 X34.2967 Y6.2533
G01 X34.2974 Y6.2662
G01 X34.2967 Y6.2791
G01 X34.2949 Y6.2916
G01 X34.2967 Y6.3041
G01 X34.2974 Y6.3170
G01 X34.2967 Y6.3299
G01 X34.2949 Y6.3424
G01 X34.2967 Y6.3549
G01 X34.2974 Y6.3678
G01 X34.2967 Y6.3807
G01 X34.2949 Y6.3932
G01 X34.2967 Y6.4057
G01 X34.2974 Y6.4186
G01 X34.2967 Y6.4315
G01 X34.2949 Y6.4440
G01 X34.2967 Y6.4565
G01 X34.2974 Y6.4694
G01 X34.2967 Y6.4823
G01 X34.2949 Y6.4948
G01 X34.2967 Y6.5073
G01 X34.2974 Y6.5202
G01 X34.2967 Y6.5331
G01 X34.2949 Y6.5456
G01 X34.2967 Y6.5581
G01 X34.2974 Y6.5710
G01 X34.2967 Y6.5839
G01 X34.2949 Y6.5964
G01 X34.2967 Y6.6089
G01 X34.2974 Y6.6218
G01 X34.2967 Y6.6347
G01 X34.2949 Y6.6472
G01 X34.2967 Y6.6597
G01 X34.2974 Y6.6726
G01 X34.2967 Y6.6855
G01 X34.2949 Y6.6980
G01 X34.2967 Y6.7105
G01 X34.2974 Y6.7234
G01 X34.2967 Y6.7363
G01 X34.2949 Y6.7488
G01 X34.2967 Y6.7613
G01 X34.2974 Y6.7742
G01 X34.2967 Y6.7871
G01 X34.2949 Y6.7996
G01 X34.2967 Y6.8121
G01 X34.2974 Y6.8250
G01 X34.2967 Y6.8379
G01 X34.2949 Y6.8504
G01 X34.2967 Y6.8629
G01 X34.2974 Y6.8758
G01 X34.2967 Y6.8887
G01 X34.2949 Y6.9012
G01 X34.2967 Y6.9137
G01 X34.2974 Y6.9266
G01 X34.2967 Y6.9395
G01 X34.2949 Y6.9520
G01 X34.2967 Y6.9645
G01 X34.2974 Y6.9774
G01 X34.2967 Y6.9903
G01 X34.2949 Y7.0028
G01 X34.2967 Y7.0153
G01 X34.2974 Y7.0282
G01 X34.2967 Y7.0411
G01 X34.2949 Y7.0536
G01 X34.2967 Y7.0661
G01 X34.2974 Y7.0790
G01 X34.2967 Y7.0919
G01 X34.2949 Y7.1044
G01 X34.2967 Y7.1169
G01 X34.2974 Y7.1298
G01 X34.2967 Y7.1427
G01 X34.2949 Y7.1552
G01 X34.2967 Y7.1677
G01 X34.2974 Y7.1806
G01 X34.2967 Y7.1935
G01 X34.2949 Y7.2060
G01 X34.2967 Y7.2185
G01 X34.2974 Y7.2314
G01 X34.2967 Y7.2443
G01 X34.2949 Y7.2568
G01 X34.2967 Y7.2693
G01 X34.2974 Y7.2822
G01 X34.2967 Y7.2951
G01 X34.2949 Y7.3076
G01 X34.2967 Y7.3201
G01 X34.2974 Y7.3330
G01 X34.2967 Y7.3459
G01 X34.2949 Y7.3584
G01 X34.2967 Y7.3709
G01 X34.2974 Y7.3838
G01 X34.2967 Y7.3967
G01 X34.2949 Y7.4092
G01 X34.2967 Y7.4217
G01 X34.2974 Y7.4346
G01 X34.2967 Y7.4475
G01 X34.2949 Y7.4600
G01 X34.2967 Y7.4725
G01 X34.2974 Y7.4854
G01 X34.2967 Y7.4983
G01 X34.2949 Y7.5108
G01 X34.2967 Y7.5233
G01 X34.2974 Y7.5362
G01 X34.2967 Y7.5491
G01 X34.2949 Y7.5616
G01 X34.2967 Y7.5741
G01 X34.2974 Y7.5870
G01 X34.2967 Y7.5999
G01 X34.2949 Y7.6124
G01 X34.2967 Y7.6249
G01 X34.2974 Y7.6378
G01 X34.2967 Y7.6507
G01 X34.2949 Y7.6632
G01 X34.2967 Y7.6757
G01 X34.2974 Y7.6886
G01 X34.2967 Y7.7015
G01 X34.2949 Y7.7140
G01 X34.2967 Y7.7265
G01 X34.2974 Y7.7394
G01 X34.2967 Y7.7523
G01 X34.2949 Y7.7648
G01 X34.2967 Y7.7773
G01 X34.2974 Y7.7902
G01 X34.2967 Y7.8031
G01 X34.2949 Y7.8156
G01 X34.2967 Y7.8281
G01 X34.2974 Y7.8410
G01 X34.2967 Y7.8539
G01 X34.2949 Y7.8664
G01 X34.2967 Y7.8789
G01 X34.2974 Y7.8918
G01 X34.2967 Y7.9047
G01 X34.2949 Y7.9172
G01 X34.2967 Y7.9297
G01 X34.2974 Y7.9426
G01 X34.2967 Y7.9555
G01 X34.2949 Y7.9680
G01 X34.2967 Y7.9805
G01 X34.2974 Y7.9934
G01 X34.2967 Y8.0063
G01 X34.2949 Y8.0188
G01 X34.2967 Y8.0313
G01 X34.2974 Y8.0442
G01 X34.2967 Y8.0571
G01 X34.2949 Y8.0696
G01 X34.2967 Y8.0821
G01 X34.2974 Y8.0950
G01 X34.2967 Y8.1079
G01 X34.2949 Y8.1204
G01 X34.2967 Y8.1329
G01 X34.2974 Y8.1458
G01 X34.2967 Y8.1587
G01 X34.2949 Y8.1712
G01 X34.2967 Y8.1837
G01 X34.2974 Y8.1966
G01 X34.2967 Y8.2095
G01 X34.2949 Y8.2220
G01 X34.2967 Y8.2345
G01 X34.2974 Y8.2474
G01 X34.2967 Y8.2603
G01 X34.2949 Y8.2728
G01 X34.2967 Y8.2853
G01 X34.2974 Y8.2982
G01 X34.2967 Y8.3111
G01 X34.2949 Y8.3236
G01 X34.2967 Y8.3361
G01 X34.2974 Y8.3490
G01 X34.2967 Y8.3619
G01 X34.2949 Y8.3744
G01 X34.2967 Y8.3869
G01 X34.2974 Y8.3998
G01 X34.2967 Y8.4127
G01 X34.2949 Y8.4252
G01 X34.2967 Y8.4377
G01 X34.2974 Y8.4506
G01 X34.2967 Y8.4635
G01 X34.2949 Y8.4760
G01 X34.2967 Y8.4885
G01 X34.2973 Y8.4989
G01 X34.2969 Y8.5119
G01 X34.2957 Y8.5220
G01 X34.9809 Y8.5221
G01 X34.9913 Y8.5227
G01 X34.9993 Y8.5237
G01 X35.0065 Y8.5251
G01 X35.0166 Y8.5277
G01 X35.0265 Y8.5312
G01 X35.0333 Y8.5341
G01 X35.0405 Y8.5376
G01 X35.0495 Y8.5429
G01 X35.0620 Y8.5519
G01 X35.0716 Y8.5606
G01 X35.0818 Y8.5721
G01 X35.0906 Y8.5847
G01 X35.0946 Y8.5917
G01 X35.0981 Y8.5989
G01 X35.1038 Y8.6132
G01 X35.1076 Y8.6281
G01 X35.1095 Y8.6409
G01 X35.1101 Y8.6513
G01 X35.1100 Y8.6587
G01 X35.1093 Y8.6692
G01 X35.1077 Y8.6792
G01 X35.1095 Y8.6917
G01 X35.1101 Y8.7071
G01 X35.1095 Y8.7175
G01 X35.1077 Y8.7300
G01 X35.1095 Y8.7425
G01 X35.1101 Y8.7579
G01 X35.1095 Y8.7683
G01 X35.1077 Y8.7808
G01 X35.1095 Y8.7933
G01 X35.1102 Y8.8062
G01 X35.1095 Y8.8191
G01 X35.1077 Y8.8316
G01 X35.1095 Y8.8441
G01 X35.1102 Y8.8570
G01 X35.1095 Y8.8699
G01 X35.1077 Y8.8824
G01 X35.1095 Y8.8949
G01 X35.1102 Y8.9078
G01 X35.1095 Y8.9207
G01 X35.1077 Y8.9332
G01 X35.1097 Y8.9481
G01 X35.1100 Y8.9635
G01 X35.1095 Y8.9715
G01 X35.1085 Y8.9795
G01 X35.1052 Y8.9945
G01 X35.1001 Y9.0090
G01 X35.0934 Y9.0229
G01 X35.0851 Y9.0358
G01 X35.0803 Y9.0422
G01 X35.0733 Y9.0500
G01 X35.0620 Y9.0605
G01 X35.0536 Y9.0668
G01 X35.0475 Y9.0708
G01 X35.0405 Y9.0748
G01 X35.0311 Y9.0794
G01 X35.0166 Y9.0847
G01 X35.0065 Y9.0873
G01 X34.9993 Y9.0887
G01 X34.9913 Y9.0897
G01 X34.9809 Y9.0903
G01 X32.8956 Y9.0904
G01 X32.8851 Y9.0899
G01 X32.8778 Y9.0891
G01 X32.8699 Y9.0878
G01 X32.8597 Y9.0854
G01 X32.8527 Y9.0832
G01 X32.8429 Y9.0794
G01 X32.8335 Y9.0748
G01 X32.8245 Y9.0695
G01 X32.8184 Y9.0653
G01 X32.8101 Y9.0589
G01 X32.8024 Y9.0518
G01 X32.7953 Y9.0441
G01 X32.7907 Y9.0383
G01 X32.7847 Y9.0297
G01 X32.7794 Y9.0207
G01 X32.7748 Y9.0113
G01 X32.7721 Y9.0044
G01 X32.7688 Y8.9945
G01 X32.7664 Y8.9843
G01 X32.7651 Y8.9764
G01 X32.7643 Y8.9691
G01 X32.7638 Y8.9586
G01 X32.7645 Y8.9457
G01 X32.7663 Y8.9332
G01 X32.7645 Y8.9207
G01 X32.7638 Y8.9078
G01 X32.7645 Y8.8949
G01 X32.7663 Y8.8824
G01 X32.7645 Y8.8699
G01 X32.7639 Y8.8595
G01 X32.7645 Y8.8441
G01 X32.7663 Y8.8316
G01 X32.7645 Y8.8191
G01 X32.7639 Y8.8087
G01 X32.7645 Y8.7933
G01 X32.7663 Y8.7808
G01 X32.7645 Y8.7683
G01 X32.7639 Y8.7529
G01 X32.7645 Y8.7425
G01 X32.7663 Y8.7300
G01 X32.7645 Y8.7175
G01 X32.7638 Y8.7046
G01 X32.7645 Y8.6917
G01 X32.7663 Y8.6792
G00 Z2.0000
G00 X30.9429 Y8.5220
G01 F60.00
G01 Z-0.1800
G01 F120.00
G01 X30.9441 Y8.5119
G01 X30.9446 Y8.5014
G01 X30.9439 Y8.4885
G01 X30.9421 Y8.4760
G01 X30.9439 Y8.4635
G01 X30.9446 Y8.4506
G01 X30.9439 Y8.4377
G01 X30.9421 Y8.4252
G01 X30.9439 Y8.4127
G01 X30.9446 Y8.3998
G01 X30.9439 Y8.3869
G01 X30.9421 Y8.3744
G01 X30.9439 Y8.3619
G01 X30.9446 Y8.3490
G01 X30.9439 Y8.3361
G01 X30.9421 Y8.3236
G01 X30.9439 Y8.3111
G01 X30.9446 Y8.2982
G01 X30.9439 Y8.2853
G01 X30.9421 Y8.2728
G01 X30.9439 Y8.2603
G01 X30.9446 Y8.2474
G01 X30.9439 Y8.2345
G01 X30.9421 Y8.2220
G01 X30.9439 Y8.2095
G01 X30.9446 Y8.1966
G01 X30.9439 Y8.1837
G01 X30.9421 Y8.1712
G01 X30.9439 Y8.1587
G01 X30.9446 Y8.1458
G01 X30.9439 Y8.1329
G01 X30.9421 Y8.1204
G01 X30.9439 Y8.1079
G01 X30.9446 Y8.0950
G01 X30.9439 Y8.0821
G01 X30.9421 Y8.0696
G01 X30.9439 Y8.0571
G01 X30.9446 Y8.0442
G01 X30.9439 Y8.0313
G01 X30.9421 Y8.0188
G01 X30.9439 Y8.0063
G01 X30.9446 Y7.9934
G01 X30.9439 Y7.9805
G01 X30.9421 Y7.9680
G01 X30.9439 Y7.9555
G01 X30.9446 Y7.9426
G01 X30.9439 Y7.9297
G01 X30.9421 Y7.9172
G01 X30.9439 Y7.9047
G01 X30.9446 Y7.8918
G01 X30.9439 Y7.8789
G01 X30.9421 Y7.8664
G01 X30.9439 Y7.8539
G01 X30.9446 Y7.8410
G01 X30.9439 Y7.8281
G01 X30.9421 Y7.8156
G01 X30.9439 Y7.8031
G01 X30.9446 Y7.7902
G01 X30.9439 Y7.7773
G01 X30.9421 Y7.7648
G01 X30.9439 Y7.7523
G01 X30.9446 Y7.7394
G01 X30.9439 Y7.7265
G01 X30.9421 Y7.7140
G01 X30.9439 Y7.7015
G01 X30.9446 Y7.6886
G01 X30.9439 Y7.6757
G01 X30.9421 Y7.6632
G01 X30.9439 Y7.6507
G01 X30.9446 Y7.6378
G01 X30.9439 Y7.6249
G01 X30.9421 Y7.6124
G01 X30.9439 Y7.5999
G01 X30.9446 Y7.5870
G01 X30.9439 Y7.5741
G01 X30.9421 Y7.5616
G01 X30.9439 Y7.5491
G01 X30.9446 Y7.5362
G01 X30.9439 Y7.5233
G01 X30.9421 Y7.5108
G01 X30.9439 Y7.4983
G01 X30.9446 Y7.4854
G01 X30.9439 Y7.4725
G01 X30.9421 Y7.4600
G01 X30.9439 Y7.4475
G01 X30.9446 Y7.4346
G01 X30.9439 Y7.4217
G01 X30.9421 Y7.4092
G01 X30.9439 Y7.3967
G01 X30.9446 Y7.3838
G01 X30.9439 Y7.3709
G01 X30.9421 Y7.3584
G01 X30.9439 Y7.3459
G01 X30.9446 Y7.3330
G01 X30.9439 Y7.3201
G01 X30.9421 Y7.3076
G01 X30.9439 Y7.2951
G01 X30.9446 Y7.2822
G01 X30.9439 Y7.2693
G01 X30.9421 Y7.2568
G01 X30.9439 Y7.2443
G01 X30.9446 Y7.2314
G01 X30.9439 Y7.2185
G01 X30.9421 Y7.2060
G01 X30.9439 Y7.1935
G01 X30.9446 Y7.1806
G01 X30.9439 Y7.1677
G01 X30.9421 Y7.1552
G01 X30.9439 Y7.1427
G01 X30.9446 Y7.1298
G01 X30.9439 Y7.1169
G01 X30.9421 Y7.1044
G01 X30.9439 Y7.0919
G01 X30.9446 Y7.0790
G01 X30.9439 Y7.0661
G01 X30.9421 Y7.0536
G01 X30.9439 Y7.0411
G01 X30.9446 Y7.0282
G01 X30.9439 Y7.0153
G01 X30.9421 Y7.0028
G01 X30.9439 Y6.9903
G01 X30.9446 Y6.9774
G01 X30.9439 Y6.9645
G01 X30.9421 Y6.9520
G01 X30.9439 Y6.9395
G01 X30.9446 Y6.9266
G01 X30.9439 Y6.9137
G01 X30.9421 Y6.9012
G01 X30.9439 Y6.8887
G01 X30.9446 Y6.8758
G01 X30.9439 Y6.8629
G01 X30.9421 Y6.8504
G01 X30.9439 Y6.8379
G01 X30.9446 Y6.8250
G01 X30.9439 Y6.8121
G01 X30.9421 Y6.7996
G01 X30.9439 Y6.7871
G01 X30.9446 Y6.7742
G01 X30.9439 Y6.7613
G01 X30.9421 Y6.7488
G01 X30.9439 Y6.7363
G01 X30.9446 Y6.7234
G01 X30.9439 Y6.7105
G01 X30.9421 Y6.6980
G01 X30.9439 Y6.6855
G01 X30.9445 Y6.6751
G01 X30.9441 Y6.6621
G01 X30.9429 Y6.6520
G01 X31.3693 Y6.6520
G01 X31.3800 Y6.6642
G01 X31.3915 Y6.6744
G01 X31.4000 Y6.6806
G01 X31.4068 Y6.6848
G01 X31.4133 Y6.6883
G01 X31.4228 Y6.6927
G01 X31.4326 Y6.6964
G01 X31.4397 Y6.6984
G01 X31.4499 Y6.7007
G01 X31.4603 Y6.7021
G01 X31.4732 Y6.7028
G01 X31.5217 Y6.7028
G01 X31.5307 Y6.7132
G01 X31.5401 Y6.7221
G01 X31.5504 Y6.7300
G01 X31.5592 Y6.7356
G01 X31.5657 Y6.7391
G01 X31.5752 Y6.7435
G01 X31.5897 Y6.7486
G01 X31.5999 Y6.7510
G01 X31.6078 Y6.7523
G01 X31.6232 Y6.7535
G01 X31.6323 Y6.7640
G01 X31.6436 Y6.7745
G01 X31.6540 Y6.7822
G01 X31.6673 Y6.7899
G01 X31.6814 Y6.7961
G01 X31.6890 Y6.7987
G01 X31.6967 Y6.8008
G01 X31.7118 Y6.8035
G01 X31.7248 Y6.8043
G01 X31.7339 Y6.8148
G01 X31.7433 Y6.8237
G01 X31.7536 Y6.8316
G01 X31.7646 Y6.8384
G01 X31.7729 Y6.8514
G01 X31.7777 Y6.8578
G01 X31.7847 Y6.8656
G01 X31.7923 Y6.8729
G01 X31.7979 Y6.8776
G01 X31.8064 Y6.8838
G01 X31.8154 Y6.8892
G01 X31.8237 Y6.9022
G01 X31.8285 Y6.9086
G01 X31.8355 Y6.9164
G01 X31.8431 Y6.9237
G01 X31.8487 Y6.9284
G01 X31.8572 Y6.9346
G01 X31.8662 Y6.9400
G01 X31.8745 Y6.9530
G01 X31.8793 Y6.9594
G01 X31.8863 Y6.9672
G01 X31.8939 Y6.9745
G01 X31.8995 Y6.9792
G01 X31.9080 Y6.9854
G01 X31.9170 Y6.9908
G01 X31.9238 Y7.0018
G01 X31.9317 Y7.0121
G01 X31.9406 Y7.0215
G01 X31.9511 Y7.0306
G01 X31.9517 Y7.0411
G01 X31.9536 Y7.0539
G01 X31.9567 Y7.0664
G01 X31.9611 Y7.0786
G01 X31.9655 Y7.0881
G01 X31.9690 Y7.0946
G01 X31.9732 Y7.1014
G01 X31.9794 Y7.1099
G01 X31.9896 Y7.1214
G01 X32.0019 Y7.1322
G01 X32.0027 Y7.1452
G01 X32.0054 Y7.1603
G01 X32.0075 Y7.1680
G01 X32.0101 Y7.1756
G01 X32.0163 Y7.1897
G01 X32.0240 Y7.2030
G01 X32.0317 Y7.2134
G01 X32.0422 Y7.2247
G01 X32.0527 Y7.2338
G01 X32.0533 Y7.2443
G01 X32.0551 Y7.2568
G01 X32.0535 Y7.2668
G01 X32.0528 Y7.2773
G01 X32.0527 Y7.2847
G01 X32.0533 Y7.2951
G01 X32.0547 Y7.3055
G01 X32.0570 Y7.3157
G01 X32.0590 Y7.3228
G01 X32.0627 Y7.3326
G01 X32.0671 Y7.3421
G01 X32.0706 Y7.3486
G01 X32.0748 Y7.3554
G01 X32.0810 Y7.3639
G01 X32.0912 Y7.3754
G01 X32.1035 Y7.3862
G01 X32.1041 Y7.3967
G01 X32.1059 Y7.4092
G01 X32.1041 Y7.4217
G01 X32.1034 Y7.4346
G01 X32.1041 Y7.4475
G01 X32.1059 Y7.4600
G01 X32.1041 Y7.4725
G01 X32.1034 Y7.4854
G01 X32.1041 Y7.4983
G01 X32.1059 Y7.5108
G01 X32.1041 Y7.5233
G01 X32.1034 Y7.5362
G01 X32.1041 Y7.5491
G01 X32.1059 Y7.5616
G01 X32.1041 Y7.5741
G01 X32.1034 Y7.5870
G01 X32.1041 Y7.5999
G01 X32.1059 Y7.6124
G01 X32.1041 Y7.6249
G01 X32.1034 Y7.6378
G01 X32.1041 Y7.6507
G01 X32.1059 Y7.6632
G01 X32.1041 Y7.6757
G01 X32.1035 Y7.6861
G01 X32.1041 Y7.7015
G01 X32.1059 Y7.7140
G01 X32.1041 Y7.7265
G01 X32.1035 Y7.7419
G01 X32.1041 Y7.7523
G01 X32.1059 Y7.7648
G01 X32.1041 Y7.7773
G01 X32.1035 Y7.7927
G01 X32.1041 Y7.8031
G01 X32.1059 Y7.8156
G01 X32.1041 Y7.8281
G01 X32.1035 Y7.8386
G01 X32.0912 Y7.8494
G01 X32.0810 Y7.8609
G01 X32.0748 Y7.8694
G01 X32.0706 Y7.8762
G01 X32.0671 Y7.8827
G01 X32.0627 Y7.8922
G01 X32.0590 Y7.9020
G01 X32.0570 Y7.9091
G01 X32.0547 Y7.9193
G01 X32.0533 Y7.9297
G01 X32.0527 Y7.9401
G01 X32.0528 Y7.9475
G01 X32.0535 Y7.9580
G01 X32.0551 Y7.9680
G01 X32.0533 Y7.9805
G01 X32.0527 Y7.9910
G01 X32.0422 Y8.0001
G01 X32.0333 Y8.0095
G01 X32.0254 Y8.0198
G01 X32.0198 Y8.0286
G01 X32.0163 Y8.0351
G01 X32.0119 Y8.0446
G01 X32.0068 Y8.0591
G01 X32.0044 Y8.0693
G01 X32.0031 Y8.0772
G01 X32.0019 Y8.0926
G01 X31.9914 Y8.1017
G01 X31.9809 Y8.1130
G01 X31.9732 Y8.1234
G01 X31.9655 Y8.1367
G01 X31.9593 Y8.1508
G01 X31.9567 Y8.1584
G01 X31.9546 Y8.1661
G01 X31.9519 Y8.1812
G01 X31.9511 Y8.1942
G01 X31.9406 Y8.2033
G01 X31.9317 Y8.2127
G01 X31.9238 Y8.2230
G01 X31.9170 Y8.2340
G01 X31.9040 Y8.2423
G01 X31.8976 Y8.2471
G01 X31.8898 Y8.2541
G01 X31.8825 Y8.2617
G01 X31.8778 Y8.2673
G01 X31.8716 Y8.2758
G01 X31.8662 Y8.2848
G01 X31.8532 Y8.2931
G01 X31.8468 Y8.2979
G01 X31.8390 Y8.3049
G01 X31.8317 Y8.3125
G01 X31.8270 Y8.3181
G01 X31.8208 Y8.3266
G01 X31.8154 Y8.3356
G01 X31.8044 Y8.3424
G01 X31.7941 Y8.3503
G01 X31.7847 Y8.3592
G01 X31.7756 Y8.3697
G01 X31.7626 Y8.3705
G01 X31.7475 Y8.3732
G01 X31.7398 Y8.3753
G01 X31.7322 Y8.3779
G01 X31.7181 Y8.3841
G01 X31.7048 Y8.3918
G01 X31.6944 Y8.3995
G01 X31.6831 Y8.4100
G01 X31.6740 Y8.4205
G01 X31.6586 Y8.4217
G01 X31.6507 Y8.4230
G01 X31.6405 Y8.4254
G01 X31.6260 Y8.4305
G01 X31.6165 Y8.4349
G01 X31.6100 Y8.4384
G01 X31.6012 Y8.4440
G01 X31.5909 Y8.4519
G01 X31.5815 Y8.4608
G01 X31.5725 Y8.4712
G01 X31.4707 Y8.4713
G01 X31.4578 Y8.4721
G01 X31.4427 Y8.4748
G01 X31.4326 Y8.4776
G01 X31.4228 Y8.4813
G01 X31.4111 Y8.4868
G01 X31.4021 Y8.4921
G01 X31.3915 Y8.4996
G01 X31.3836 Y8.5064
G01 X31.3766 Y8.5134
G01 X31.3693 Y8.5220
G01 X30.9429 Y8.5220
G00 Z2.0000
G00 X30.2263 Y6.2408
G01 F60.00
G01 Z-0.1800
G01 F120.00
G01 X30.2245 Y6.2283
G01 X30.2238 Y6.2154
G01 X30.2245 Y6.2025
G01 X30.2269 Y6.1873
G01 X30.2302 Y6.1748
G01 X30.2348 Y6.1627
G01 X30.2406 Y6.1511
G01 X30.2489 Y6.1382
G01 X30.2569 Y6.1281
G01 X30.2624 Y6.1222
G01 X30.2683 Y6.1167
G01 X30.2784 Y6.1087
G01 X30.2892 Y6.1016
G01 X30.3029 Y6.0946
G01 X30.3150 Y6.0900
G01 X30.3275 Y6.0867
G01 X30.3402 Y6.0845
G01 X30.3556 Y6.0836
G01 X31.5240 Y6.0836
G01 X31.5345 Y6.0841
G01 X31.5449 Y6.0853
G01 X31.5575 Y6.0880
G01 X31.5669 Y6.0908
G01 X31.5789 Y6.0957
G01 X31.5904 Y6.1016
G01 X31.5992 Y6.1072
G01 X31.6095 Y6.1151
G01 X31.6189 Y6.1240
G01 X31.6279 Y6.1344
G01 X31.7297 Y6.1345
G01 X31.7401 Y6.1351
G01 X31.7529 Y6.1370
G01 X31.7654 Y6.1401
G01 X31.7776 Y6.1445
G01 X31.7893 Y6.1500
G01 X31.7983 Y6.1553
G01 X31.8089 Y6.1628
G01 X31.8168 Y6.1696
G01 X31.8238 Y6.1766
G01 X31.8311 Y6.1852
G01 X31.8796 Y6.1852
G01 X31.8925 Y6.1859
G01 X31.9077 Y6.1883
G01 X31.9178 Y6.1909
G01 X31.9254 Y6.1935
G01 X31.9323 Y6.1962
G01 X31.9417 Y6.2008
G01 X31.9507 Y6.2061
G01 X31.9568 Y6.2103
G01 X31.9632 Y6.2151
G01 X31.9710 Y6.2221
G01 X31.9783 Y6.2297
G01 X31.9836 Y6.2361
G01 X31.9990 Y6.2373
G01 X32.0069 Y6.2386
G01 X32.0171 Y6.2410
G01 X32.0316 Y6.2461
G01 X32.0411 Y6.2505
G01 X32.0476 Y6.2540
G01 X32.0564 Y6.2596
G01 X32.0667 Y6.2675
G01 X32.0761 Y6.2764
G01 X32.0852 Y6.2869
G01 X32.1006 Y6.2881
G01 X32.1085 Y6.2894
G01 X32.1163 Y6.2912
G01 X32.1309 Y6.2960
G01 X32.1449 Y6.3024
G01 X32.1539 Y6.3077
G01 X32.1600 Y6.3119
G01 X32.1664 Y6.3167
G01 X32.1742 Y6.3237
G01 X32.1815 Y6.3313
G01 X32.1862 Y6.3369
G01 X32.1924 Y6.3454
G01 X32.1978 Y6.3544
G01 X32.2108 Y6.3627
G01 X32.2172 Y6.3675
G01 X32.2250 Y6.3745
G01 X32.2323 Y6.3821
G01 X32.2370 Y6.3877
G01 X32.2432 Y6.3962
G01 X32.2486 Y6.4052
G01 X32.2596 Y6.4120
G01 X32.2699 Y6.4199
G01 X32.2793 Y6.4288
G01 X32.2884 Y6.4393
G01 X32.2989 Y6.4399
G01 X32.3117 Y6.4418
G01 X32.3219 Y6.4442
G01 X32.3318 Y6.4475
G01 X32.3409 Y6.4513
G01 X32.3503 Y6.4560
G01 X32.3592 Y6.4614
G01 X32.3696 Y6.4691
G01 X32.3792 Y6.4778
G01 X32.3879 Y6.4874
G01 X32.3956 Y6.4978
G01 X32.4010 Y6.5068
G01 X32.4100 Y6.5122
G01 X32.4185 Y6.5184
G01 X32.4241 Y6.5231
G01 X32.4317 Y6.5304
G01 X32.4387 Y6.5382
G01 X32.4435 Y6.5446
G01 X32.4518 Y6.5576
G01 X32.4608 Y6.5630
G01 X32.4693 Y6.5692
G01 X32.4772 Y6.5760
G01 X32.4842 Y6.5830
G01 X32.4910 Y6.5909
G01 X32.4985 Y6.6015
G01 X32.5038 Y6.6105
G01 X32.5093 Y6.6222
G01 X32.5137 Y6.6344
