(G-CODE GENERATED BY FLATCAM v8.994 - www.flatcam.org - Version Date: 2020/11/7)
(Name: Sensor - CADCAM Drill.DRL_cnc)
(Type: G-code from Geometry)
(Units: MM)
(Created on Thursday, 18 April 2024 at 11:09)
(This preprocessor is the default preprocessor used by FlatCAM.)
(It is made to work with MACH3 compatible motion controllers.)
(TOOLS DIAMETER: )
(Tool: 1 -> Dia: 0.762)
(Tool: 2 -> Dia: 1.016)
(Tool: 3 -> Dia: 1.651)
(FEEDRATE Z: )
(Tool: 1 -> Feedrate: 300)
(Tool: 2 -> Feedrate: 300)
(Tool: 3 -> Feedrate: 300)
(FEEDRATE RAPIDS: )
(Tool: 1 -> Feedrate Rapids: 1500)
(Tool: 2 -> Feedrate Rapids: 1500)
(Tool: 3 -> Feedrate Rapids: 1500)
(Z_CUT: )
(Tool: 1 -> Z_Cut: -2.0)
(Tool: 2 -> Z_Cut: -2.0)
(Tool: 3 -> Z_Cut: -2.0)
(Tools Offset: )
(Tool: 1 -> Offset Z: 0.0)
(Tool: 2 -> Offset Z: 0.0)
(Tool: 3 -> Offset Z: 0.0)
(Z_MOVE: )
(Tool: 1 -> Z_Move: 3.0)
(Tool: 2 -> Z_Move: 3.0)
(Tool: 3 -> Z_Move: 3.0)
(Z Toolchange: 35.0 mm)
(X,Y Toolchange: 0.0000, 0.0000 mm)
(Z Start: None mm)
(Z End: 35.0 mm)
(X,Y End: 0.0000, 0.0000 mm)
(Steps per circle: 64)
(Preprocessor Excellon: default)
(X range:    1.8240 ...   62.7530  mm)
(Y range:    5.4260 ...   57.1995  mm)
(Spindle Speed: 0 RPM)
G21
G90
G94
G01 F300.00
M5
G00 Z35.0000
T1
G00 X0.0000 Y0.0000
M6
(MSG, Change to Tool Dia = 0.7620 ||| Total drills for tool T1 = 75)
G00 Z35.0000
G01 F300.00
M03
G00 X54.6420 Y20.6400
G01 Z-2.0000
G01 Z0
G00 Z3.0000
G00 X59.7050 Y11.0540
G01 Z-2.0000
G01 Z0
G00 Z3.0000
G00 X62.2450 Y11.0540
G01 Z-2.0000
G01 Z0
G00 Z3.0000
G00 X62.2050 Y18.5140
G01 Z-2.0000
G01 Z0
G00 Z3.0000
G00 X62.2050 Y21.0540
G01 Z-2.0000
G01 Z0
G00 Z3.0000
G00 X62.2050 Y28.4340
G01 Z-2.0000
G01 Z0
G00 Z3.0000
G00 X62.2050 Y30.9740
G01 Z-2.0000
G01 Z0
G00 Z3.0000
G00 X62.2050 Y33.5140
G01 Z-2.0000
G01 Z0
G00 Z3.0000
G00 X62.2050 Y36.0540
G01 Z-2.0000
G01 Z0
G00 Z3.0000
G00 X57.2050 Y43.5540
G01 Z-2.0000
G01 Z0
G00 Z3.0000
G00 X62.2050 Y43.4740
G01 Z-2.0000
G01 Z0
G00 Z3.0000
G00 X62.2050 Y46.0140
G01 Z-2.0000
G01 Z0
G00 Z3.0000
G00 X62.2050 Y48.5540
G01 Z-2.0000
G01 Z0
G00 Z3.0000
G00 X49.8250 Y56.3740
G01 Z-2.0000
G01 Z0
G00 Z3.0000
G00 X49.8250 Y53.8340
G01 Z-2.0000
G01 Z0
G00 Z3.0000
G00 X49.8250 Y51.2940
G01 Z-2.0000
G01 Z0
G00 Z3.0000
G00 X49.8250 Y48.7540
G01 Z-2.0000
G01 Z0
G00 Z3.0000
G00 X49.8250 Y46.2140
G01 Z-2.0000
G01 Z0
G00 Z3.0000
G00 X49.8250 Y43.6740
G01 Z-2.0000
G01 Z0
G00 Z3.0000
G00 X49.8250 Y41.1340
G01 Z-2.0000
G01 Z0
G00 Z3.0000
G00 X49.8250 Y38.5940
G01 Z-2.0000
G01 Z0
G00 Z3.0000
G00 X49.8250 Y36.0540
G01 Z-2.0000
G01 Z0
G00 Z3.0000
G00 X49.8250 Y33.5140
G01 Z-2.0000
G01 Z0
G00 Z3.0000
G00 X34.5850 Y36.0540
G01 Z-2.0000
G01 Z0
G00 Z3.0000
G00 X34.5850 Y38.5940
G01 Z-2.0000
G01 Z0
G00 Z3.0000
G00 X34.5850 Y41.1340
G01 Z-2.0000
G01 Z0
G00 Z3.0000
G00 X34.5850 Y43.6740
G01 Z-2.0000
G01 Z0
G00 Z3.0000
G00 X34.5850 Y46.2140
G01 Z-2.0000
G01 Z0
G00 Z3.0000
G00 X34.5850 Y48.7540
G01 Z-2.0000
G01 Z0
G00 Z3.0000
G00 X34.5850 Y51.2940
G01 Z-2.0000
G01 Z0
G00 Z3.0000
G00 X34.5850 Y53.8340
G01 Z-2.0000
G01 Z0
G00 Z3.0000
G00 X34.5850 Y56.3740
G01 Z-2.0000
G01 Z0
G00 Z3.0000
G00 X25.2860 Y51.5830
G01 Z-2.0000
G01 Z0
G00 Z3.0000
G00 X24.1530 Y47.5980
G01 Z-2.0000
G01 Z0
G00 Z3.0000
G00 X25.2170 Y45.6030
G01 Z-2.0000
G01 Z0
G00 Z3.0000
G00 X24.0200 Y43.6080
G01 Z-2.0000
G01 Z0
G00 Z3.0000
G00 X4.9190 Y47.5980
G01 Z-2.0000
G01 Z0
G00 Z3.0000
G00 X4.0170 Y45.7430
G01 Z-2.0000
G01 Z0
G00 Z3.0000
G00 X4.7050 Y43.5540
G01 Z-2.0000
G01 Z0
G00 Z3.0000
G00 X2.2050 Y31.0540
G01 Z-2.0000
G01 Z0
G00 Z3.0000
G00 X8.4610 Y31.1080
G01 Z-2.0000
G01 Z0
G00 Z3.0000
G00 X12.2050 Y33.5540
G01 Z-2.0000
G01 Z0
G00 Z3.0000
G00 X12.2050 Y31.0140
G01 Z-2.0000
G01 Z0
G00 Z3.0000
G00 X12.2050 Y28.4740
G01 Z-2.0000
G01 Z0
G00 Z3.0000
G00 X12.2050 Y25.9340
G01 Z-2.0000
G01 Z0
G00 Z3.0000
G00 X12.2050 Y23.3940
G01 Z-2.0000
G01 Z0
G00 Z3.0000
G00 X12.2050 Y20.8540
G01 Z-2.0000
G01 Z0
G00 Z3.0000
G00 X12.2050 Y18.3140
G01 Z-2.0000
G01 Z0
G00 Z3.0000
G00 X22.2050 Y5.9340
G01 Z-2.0000
G01 Z0
G00 Z3.0000
G00 X22.2050 Y8.4740
G01 Z-2.0000
G01 Z0
G00 Z3.0000
G00 X22.2050 Y11.0140
G01 Z-2.0000
G01 Z0
G00 Z3.0000
G00 X22.2050 Y13.5540
G01 Z-2.0000
G01 Z0
G00 Z3.0000
G00 X22.2050 Y21.0140
G01 Z-2.0000
G01 Z0
G00 Z3.0000
G00 X22.2050 Y23.5540
G01 Z-2.0000
G01 Z0
G00 Z3.0000
G00 X22.2050 Y26.0940
G01 Z-2.0000
G01 Z0
G00 Z3.0000
G00 X22.2050 Y28.6340
G01 Z-2.0000
G01 Z0
G00 Z3.0000
G00 X22.2050 Y31.1740
G01 Z-2.0000
G01 Z0
G00 Z3.0000
G00 X22.2050 Y33.7140
G01 Z-2.0000
G01 Z0
G00 Z3.0000
G00 X34.5850 Y33.5140
G01 Z-2.0000
G01 Z0
G00 Z3.0000
G00 X34.5850 Y30.9740
G01 Z-2.0000
G01 Z0
G00 Z3.0000
G00 X34.5850 Y28.4340
G01 Z-2.0000
G01 Z0
G00 Z3.0000
G00 X34.5850 Y25.8940
G01 Z-2.0000
G01 Z0
G00 Z3.0000
G00 X34.5850 Y23.3540
G01 Z-2.0000
G01 Z0
G00 Z3.0000
G00 X34.5850 Y20.8140
G01 Z-2.0000
G01 Z0
G00 Z3.0000
G00 X34.5850 Y18.2740
G01 Z-2.0000
G01 Z0
G00 Z3.0000
G00 X34.5850 Y15.7340
G01 Z-2.0000
G01 Z0
G00 Z3.0000
G00 X49.8250 Y15.7340
G01 Z-2.0000
G01 Z0
G00 Z3.0000
G00 X49.8250 Y18.2740
G01 Z-2.0000
G01 Z0
G00 Z3.0000
G00 X49.8250 Y20.8140
G01 Z-2.0000
G01 Z0
G00 Z3.0000
G00 X49.8250 Y23.3540
G01 Z-2.0000
G01 Z0
G00 Z3.0000
G00 X49.8250 Y25.8940
G01 Z-2.0000
G01 Z0
G00 Z3.0000
G00 X49.8250 Y28.4340
G01 Z-2.0000
G01 Z0
G00 Z3.0000
G00 X49.8250 Y30.9740
G01 Z-2.0000
G01 Z0
G00 Z3.0000
G00 X54.7050 Y28.5540
G01 Z-2.0000
G01 Z0
G00 Z3.0000
G00 X57.2050 Y28.5540
G01 Z-2.0000
G01 Z0
G00 Z3.0000
M05
G00 Z35.00
G00 X0.0 Y0.0
