(G-CODE GENERATED BY FLATCAM v8.994 - www.flatcam.org - Version Date: 2020/11/7)
(Name: Sensor - CADCAM Drill.DRL_cnc)
(Type: G-code from Geometry)
(Units: MM)
(Created on Wednesday, 20 March 2024 at 19:00)
(This preprocessor is the default preprocessor used by FlatCAM.)
(It is made to work with MACH3 compatible motion controllers.)
(TOOLS DIAMETER: )
(Tool: 1 -> Dia: 0.381)
(Tool: 2 -> Dia: 1.016)
(Tool: 3 -> Dia: 1.651)
(FEEDRATE Z: )
(Tool: 1 -> Feedrate: 60.0)
(Tool: 2 -> Feedrate: 60.0)
(Tool: 3 -> Feedrate: 60.0)
(FEEDRATE RAPIDS: )
(Tool: 1 -> Feedrate Rapids: 1500)
(Tool: 2 -> Feedrate Rapids: 1500)
(Tool: 3 -> Feedrate Rapids: 1500)
(Z_CUT: )
(Tool: 1 -> Z_Cut: -1.7)
(Tool: 2 -> Z_Cut: -1.7)
(Tool: 3 -> Z_Cut: -1.7)
(Tools Offset: )
(Tool: 2 -> Offset Z: 0.0)
(Z_MOVE: )
(Tool: 1 -> Z_Move: 4.0)
(Tool: 2 -> Z_Move: 4.0)
(Tool: 3 -> Z_Move: 4.0)
(Z Toolchange: 35.0 mm)
(X,Y Toolchange: 0.0000, 0.0000 mm)
(Z Start: None mm)
(Z End: 0.5 mm)
(X,Y End: None mm)
(Steps per circle: 64)
(Preprocessor Excellon: default)
(X range:    2.0145 ...   62.7530  mm)
(Y range:    5.4260 ...   57.1995  mm)
(Spindle Speed: 1000 RPM)
G21
G90
G94
G01 F60.00
M5
G00 Z35.0000
T2
G00 X0.0000 Y0.0000
M6
(MSG, Change to Tool Dia = 1.0160 ||| Total drills for tool T2 = 58)
G00 Z35.0000
G01 F60.00
M03 S1000
G00 X62.2450 Y11.0540
G01 Z-1.7000
G01 Z0
G00 Z4.0000
G00 X59.7050 Y11.0540
G01 Z-1.7000
G01 Z0
G00 Z4.0000
G00 X49.8250 Y18.2740
G01 Z-1.7000
G01 Z0
G00 Z4.0000
G00 X49.8250 Y20.8140
G01 Z-1.7000
G01 Z0
G00 Z4.0000
G00 X49.8250 Y23.3540
G01 Z-1.7000
G01 Z0
G00 Z4.0000
G00 X49.8250 Y25.8940
G01 Z-1.7000
G01 Z0
G00 Z4.0000
G00 X49.8250 Y28.4340
G01 Z-1.7000
G01 Z0
G00 Z4.0000
G00 X49.8250 Y30.9740
G01 Z-1.7000
G01 Z0
G00 Z4.0000
G00 X49.8250 Y33.5140
G01 Z-1.7000
G01 Z0
G00 Z4.0000
G00 X49.8250 Y36.0540
G01 Z-1.7000
G01 Z0
G00 Z4.0000
G00 X49.8250 Y38.5940
G01 Z-1.7000
G01 Z0
G00 Z4.0000
G00 X49.8250 Y41.1340
G01 Z-1.7000
G01 Z0
G00 Z4.0000
G00 X49.8250 Y43.6740
G01 Z-1.7000
G01 Z0
G00 Z4.0000
G00 X34.5850 Y38.5940
G01 Z-1.7000
G01 Z0
G00 Z4.0000
G00 X34.5850 Y36.0540
G01 Z-1.7000
G01 Z0
G00 Z4.0000
G00 X34.5850 Y33.5140
G01 Z-1.7000
G01 Z0
G00 Z4.0000
G00 X34.5850 Y30.9740
G01 Z-1.7000
G01 Z0
G00 Z4.0000
G00 X34.5850 Y28.4340
G01 Z-1.7000
G01 Z0
G00 Z4.0000
G00 X34.5850 Y25.8940
G01 Z-1.7000
G01 Z0
G00 Z4.0000
G00 X34.5850 Y23.3540
G01 Z-1.7000
G01 Z0
G00 Z4.0000
G00 X34.5850 Y20.8140
G01 Z-1.7000
G01 Z0
G00 Z4.0000
G00 X34.5850 Y18.2740
G01 Z-1.7000
G01 Z0
G00 Z4.0000
G00 X22.2050 Y13.5540
G01 Z-1.7000
G01 Z0
G00 Z4.0000
G00 X22.2050 Y11.0140
G01 Z-1.7000
G01 Z0
G00 Z4.0000
G00 X22.2050 Y8.4740
G01 Z-1.7000
G01 Z0
G00 Z4.0000
G00 X22.2050 Y5.9340
G01 Z-1.7000
G01 Z0
G00 Z4.0000
G00 X12.2050 Y18.3140
G01 Z-1.7000
G01 Z0
G00 Z4.0000
G00 X12.2050 Y20.8540
G01 Z-1.7000
G01 Z0
G00 Z4.0000
G00 X12.2050 Y23.3940
G01 Z-1.7000
G01 Z0
G00 Z4.0000
G00 X12.2050 Y25.9340
G01 Z-1.7000
G01 Z0
G00 Z4.0000
G00 X12.2050 Y28.4740
G01 Z-1.7000
G01 Z0
G00 Z4.0000
G00 X12.2050 Y31.0140
G01 Z-1.7000
G01 Z0
G00 Z4.0000
G00 X12.2050 Y33.5540
G01 Z-1.7000
G01 Z0
G00 Z4.0000
G00 X22.2050 Y21.0140
G01 Z-1.7000
G01 Z0
G00 Z4.0000
G00 X22.2050 Y23.5540
G01 Z-1.7000
G01 Z0
G00 Z4.0000
G00 X22.2050 Y26.0940
G01 Z-1.7000
G01 Z0
G00 Z4.0000
G00 X22.2050 Y28.6340
G01 Z-1.7000
G01 Z0
G00 Z4.0000
G00 X22.2050 Y31.1740
G01 Z-1.7000
G01 Z0
G00 Z4.0000
G00 X22.2050 Y33.7140
G01 Z-1.7000
G01 Z0
G00 Z4.0000
G00 X34.5850 Y41.1340
G01 Z-1.7000
G01 Z0
G00 Z4.0000
G00 X34.5850 Y43.6740
G01 Z-1.7000
G01 Z0
G00 Z4.0000
G00 X34.5850 Y46.2140
G01 Z-1.7000
G01 Z0
G00 Z4.0000
G00 X34.5850 Y48.7540
G01 Z-1.7000
G01 Z0
G00 Z4.0000
G00 X34.5850 Y51.2940
G01 Z-1.7000
G01 Z0
G00 Z4.0000
G00 X34.5850 Y53.8340
G01 Z-1.7000
G01 Z0
G00 Z4.0000
G00 X49.8250 Y53.8340
G01 Z-1.7000
G01 Z0
G00 Z4.0000
G00 X49.8250 Y51.2940
G01 Z-1.7000
G01 Z0
G00 Z4.0000
G00 X49.8250 Y48.7540
G01 Z-1.7000
G01 Z0
G00 Z4.0000
G00 X49.8250 Y46.2140
G01 Z-1.7000
G01 Z0
G00 Z4.0000
G00 X62.2050 Y48.5540
G01 Z-1.7000
G01 Z0
G00 Z4.0000
G00 X62.2050 Y46.0140
G01 Z-1.7000
G01 Z0
G00 Z4.0000
G00 X62.2050 Y43.4740
G01 Z-1.7000
G01 Z0
G00 Z4.0000
G00 X62.2050 Y36.0540
G01 Z-1.7000
G01 Z0
G00 Z4.0000
G00 X62.2050 Y33.5140
G01 Z-1.7000
G01 Z0
G00 Z4.0000
G00 X62.2050 Y30.9740
G01 Z-1.7000
G01 Z0
G00 Z4.0000
G00 X62.2050 Y28.4340
G01 Z-1.7000
G01 Z0
G00 Z4.0000
G00 X62.2050 Y21.0540
G01 Z-1.7000
G01 Z0
G00 Z4.0000
G00 X62.2050 Y18.5140
G01 Z-1.7000
G01 Z0
G00 Z4.0000
M05
G00 Z0.50
