(G-CODE GENERATED BY FLATCAM v8.994 - www.flatcam.org - Version Date: 2020/11/7)

(Name: Sensor - CADCAM Bottom Copper.GBR_iso_combined_cnc)
(Type: G-code from Geometry)
(Units: MM)

(Created on Wednesday, 20 March 2024 at 21:17)

(This preprocessor is the default preprocessor used by FlatCAM.)
(It is made to work with MACH3 compatible motion controllers.)

(TOOL DIAMETER: 0.2526 mm)
(Feedrate_XY: 120.0 mm/min)
(Feedrate_Z: 60.0 mm/min)
(Feedrate rapids 1500.0 mm/min)

(Z_Cut: -0.2848 mm)
(Z_Move: 3.0 mm)
(Z Start: None mm)
(Z End: 15.0 mm)
(X,Y End: None mm)
(Steps per circle: 64)
(Preprocessor Geometry: default)

(X range:    1.3160 ...   67.3818  mm)
(Y range:    1.6113 ...   61.6522  mm)

(Spindle Speed: 1000.0 RPM)
G21
G90
G94

G01 F120.00

M5
G00 Z15.0000
G00 X0.0000 Y0.0000
T2
M6    
(MSG, Change to Tool Dia = 0.2526)
M0
G00 Z15.0000

M03 S1000.0
G01 F120.00
G00 X4.0763 Y12.4501
G01 F60.00
G01 Z-0.2848
G01 F120.00
G01 X14.6548 Y1.8716
G01 X14.7147 Y1.8171
G01 X14.7243 Y1.8092
G01 X14.7895 Y1.7611
G01 X14.8643 Y1.7163
G01 X14.9431 Y1.6790
G01 X15.0193 Y1.6515
G01 X15.0312 Y1.6479
G01 X15.1038 Y1.6298
G01 X15.1129 Y1.6278
G01 X15.1961 Y1.6156
G01 X15.2832 Y1.6113
G01 X62.5522 Y1.6113
G01 X62.6393 Y1.6156
G01 X62.7195 Y1.6273
G01 X62.7317 Y1.6298
G01 X62.8102 Y1.6496
G01 X62.8865 Y1.6767
G01 X62.8980 Y1.6815
G01 X62.9712 Y1.7163
G01 X63.0460 Y1.7611
G01 X63.1111 Y1.8092
G01 X63.1207 Y1.8171
G01 X63.1806 Y1.8716
G01 X66.9415 Y5.6326
G01 X66.9979 Y5.6950
G01 X67.0499 Y5.7650
G01 X67.0947 Y5.8398
G01 X67.1295 Y5.9130
G01 X67.1343 Y5.9245
G01 X67.1595 Y5.9949
G01 X67.1631 Y6.0068
G01 X67.1826 Y6.0854
G01 X67.1954 Y6.1716
G01 X67.1997 Y6.2588
G01 X67.1997 Y20.7456
G01 X67.2101 Y20.7637
G01 X67.2459 Y20.8397
G01 X67.2734 Y20.9160
G01 X67.2770 Y20.9278
G01 X67.2965 Y21.0064
G01 X67.3085 Y21.0866
G01 X67.3097 Y21.0989
G01 X67.3136 Y21.1798
G01 X67.3136 Y35.7021
G01 X67.3435 Y35.7855
G01 X67.3647 Y35.8701
G01 X67.3775 Y35.9563
G01 X67.3818 Y36.0434
G01 X67.3775 Y36.1305
G01 X67.3653 Y36.2138
G01 X67.3633 Y36.2229
G01 X67.3444 Y36.2984
G01 X67.3416 Y36.3073
G01 X67.3270 Y36.3479
G01 X67.3270 Y46.7758
G01 X67.3232 Y46.8537
G01 X67.3220 Y46.8660
G01 X67.3100 Y46.9461
G01 X67.2904 Y47.0247
G01 X67.2868 Y47.0366
G01 X67.2594 Y47.1128
G01 X67.2221 Y47.1917
G01 X67.1806 Y47.2612
G01 X67.1737 Y47.2715
G01 X67.1253 Y47.3365
G01 X67.0689 Y47.3989
G01 X65.2852 Y49.1827
G01 X65.2206 Y49.2412
G01 X65.1505 Y49.2932
G01 X65.0757 Y49.3380
G01 X65.0026 Y49.3728
G01 X64.9940 Y49.3764
G01 X64.9148 Y49.4047
G01 X64.8302 Y49.4259
G01 X64.7439 Y49.4387
G01 X64.6630 Y49.4428
G01 X63.3470 Y49.4429
G01 X63.3470 Y49.5703
G01 X63.3467 Y49.5796
G01 X63.3457 Y49.5888
G01 X63.3432 Y49.6009
G01 X63.3396 Y49.6128
G01 X63.3349 Y49.6243
G01 X63.3274 Y49.6378
G01 X63.3222 Y49.6455
G01 X63.3164 Y49.6528
G01 X63.3100 Y49.6596
G01 X63.3032 Y49.6659
G01 X63.2909 Y49.6753
G01 X63.2830 Y49.6802
G01 X63.2747 Y49.6844
G01 X63.2603 Y49.6902
G01 X63.2514 Y49.6928
G01 X63.2423 Y49.6947
G01 X63.2269 Y49.6964
G01 X61.1825 Y49.6964
G01 X61.1733 Y49.6956
G01 X61.1641 Y49.6941
G01 X61.1491 Y49.6902
G01 X61.1404 Y49.6869
G01 X61.1319 Y49.6831
G01 X61.1238 Y49.6786
G01 X61.1160 Y49.6735
G01 X61.1086 Y49.6679
G01 X61.1016 Y49.6617
G01 X61.0951 Y49.6551
G01 X61.0892 Y49.6480
G01 X61.0837 Y49.6404
G01 X61.0788 Y49.6325
G01 X61.0745 Y49.6243
G01 X61.0709 Y49.6157
G01 X61.0670 Y49.6039
G01 X61.0643 Y49.5919
G01 X61.0630 Y49.5826
G01 X61.0624 Y49.5703
G01 X61.0625 Y47.5352
G01 X61.0634 Y47.5228
G01 X61.0662 Y47.5076
G01 X61.0709 Y47.4928
G01 X61.0773 Y47.4787
G01 X61.0837 Y47.4681
G01 X61.0931 Y47.4558
G01 X61.1039 Y47.4447
G01 X61.1160 Y47.4350
G01 X61.1238 Y47.4299
G01 X61.1319 Y47.4254
G01 X61.1404 Y47.4216
G01 X61.1491 Y47.4183
G01 X61.1580 Y47.4157
G01 X61.1702 Y47.4133
G01 X61.1794 Y47.4123
G01 X61.1887 Y47.4120
G01 X63.2207 Y47.4120
G01 X63.2300 Y47.4123
G01 X63.2454 Y47.4144
G01 X63.2603 Y47.4183
G01 X63.2691 Y47.4216
G01 X63.2775 Y47.4254
G01 X63.2909 Y47.4332
G01 X63.2984 Y47.4387
G01 X63.3055 Y47.4447
G01 X63.3164 Y47.4558
G01 X63.3222 Y47.4630
G01 X63.3274 Y47.4707
G01 X63.3349 Y47.4843
G01 X63.3396 Y47.4957
G01 X63.3432 Y47.5076
G01 X63.3457 Y47.5197
G01 X63.3467 Y47.5290
G01 X63.3470 Y47.5383
G01 X63.3470 Y47.6656
G01 X64.2887 Y47.6656
G01 X65.5497 Y46.4046
G01 X65.5497 Y36.9321
G01 X63.3470 Y36.9321
G01 X63.3470 Y37.0703
G01 X63.3467 Y37.0796
G01 X63.3452 Y37.0919
G01 X63.3432 Y37.1009
G01 X63.3396 Y37.1128
G01 X63.3349 Y37.1243
G01 X63.3274 Y37.1378
G01 X63.3222 Y37.1455
G01 X63.3164 Y37.1528
G01 X63.3100 Y37.1596
G01 X63.3032 Y37.1659
G01 X63.2960 Y37.1717
G01 X63.2883 Y37.1770
G01 X63.2803 Y37.1816
G01 X63.2719 Y37.1857
G01 X63.2574 Y37.1911
G01 X63.2423 Y37.1947
G01 X63.2331 Y37.1960
G01 X63.2238 Y37.1965
G01 X61.1825 Y37.1964
G01 X61.1702 Y37.1952
G01 X61.1580 Y37.1928
G01 X61.1462 Y37.1892
G01 X61.1347 Y37.1844
G01 X61.1238 Y37.1786
G01 X61.1160 Y37.1735
G01 X61.1062 Y37.1659
G01 X61.0972 Y37.1573
G01 X61.0892 Y37.1480
G01 X61.0837 Y37.1404
G01 X61.0773 Y37.1298
G01 X61.0720 Y37.1186
G01 X61.0679 Y37.1069
G01 X61.0648 Y37.0949
G01 X61.0630 Y37.0826
G01 X61.0624 Y37.0703
G01 X61.0625 Y35.0352
G01 X61.0630 Y35.0259
G01 X61.0643 Y35.0167
G01 X61.0662 Y35.0076
G01 X61.0688 Y34.9986
G01 X61.0745 Y34.9843
G01 X61.0788 Y34.9760
G01 X61.0837 Y34.9681
G01 X61.0892 Y34.9606
G01 X61.0951 Y34.9534
G01 X61.1016 Y34.9468
G01 X61.1086 Y34.9406
G01 X61.1160 Y34.9350
G01 X61.1238 Y34.9299
G01 X61.1319 Y34.9254
G01 X61.1404 Y34.9216
G01 X61.1521 Y34.9174
G01 X61.1641 Y34.9144
G01 X61.1763 Y34.9126
G01 X61.1887 Y34.9120
G01 X63.2269 Y34.9121
G01 X63.2423 Y34.9138
G01 X63.2514 Y34.9157
G01 X63.2603 Y34.9183
G01 X63.2691 Y34.9216
G01 X63.2775 Y34.9254
G01 X63.2909 Y34.9332
G01 X63.3032 Y34.9426
G01 X63.3143 Y34.9534
G01 X63.3203 Y34.9606
G01 X63.3257 Y34.9681
G01 X63.3335 Y34.9815
G01 X63.3386 Y34.9928
G01 X63.3424 Y35.0046
G01 X63.3452 Y35.0167
G01 X63.3467 Y35.0290
G01 X63.3470 Y35.0383
G01 X63.3470 Y35.1547
G01 X65.5362 Y35.1547
G01 X65.5362 Y21.9429
G01 X63.3470 Y21.9429
G01 X63.3470 Y22.0734
G01 X63.3464 Y22.0826
G01 X63.3452 Y22.0919
G01 X63.3432 Y22.1009
G01 X63.3406 Y22.1099
G01 X63.3362 Y22.1214
G01 X63.3321 Y22.1298
G01 X63.3274 Y22.1378
G01 X63.3222 Y22.1455
G01 X63.3164 Y22.1528
G01 X63.3100 Y22.1596
G01 X63.3032 Y22.1659
G01 X63.2960 Y22.1717
G01 X63.2883 Y22.1770
G01 X63.2803 Y22.1816
G01 X63.2719 Y22.1857
G01 X63.2603 Y22.1902
G01 X63.2514 Y22.1928
G01 X63.2423 Y22.1947
G01 X63.2331 Y22.1960
G01 X63.2238 Y22.1965
G01 X63.0934 Y22.1966
G01 X63.0934 Y23.5543
G01 X63.0894 Y23.6383
G01 X63.0884 Y23.6475
G01 X63.0763 Y23.7276
G01 X63.0568 Y23.8063
G01 X63.0532 Y23.8181
G01 X63.0258 Y23.8943
G01 X62.9913 Y23.9676
G01 X62.9854 Y23.9786
G01 X62.9469 Y24.0427
G01 X62.9419 Y24.0505
G01 X62.8917 Y24.1180
G01 X62.8331 Y24.1827
G01 X60.3309 Y26.6848
G01 X60.2685 Y26.7412
G01 X60.2035 Y26.7896
G01 X60.1932 Y26.7965
G01 X60.1236 Y26.8380
G01 X60.0505 Y26.8728
G01 X60.0390 Y26.8775
G01 X59.9627 Y26.9047
G01 X59.8841 Y26.9245
G01 X59.8720 Y26.9269
G01 X59.7918 Y26.9387
G01 X59.7047 Y26.9429
G01 X49.9847 Y26.9429
G01 X49.9007 Y26.9389
G01 X49.8915 Y26.9379
G01 X49.8113 Y26.9259
G01 X49.7327 Y26.9063
G01 X49.7209 Y26.9027
G01 X49.6504 Y26.8775
G01 X49.6390 Y26.8728
G01 X49.5658 Y26.8380
G01 X49.4910 Y26.7932
G01 X49.4209 Y26.7412
G01 X49.3563 Y26.6827
G01 X49.1942 Y26.5204
G01 X49.1398 Y26.4604
G01 X49.1339 Y26.4531
G01 X49.0858 Y26.3880
G01 X49.0440 Y26.3186
G01 X49.0382 Y26.3076
G01 X49.0037 Y26.2343
G01 X48.9743 Y26.1522
G01 X48.9531 Y26.0676
G01 X48.9407 Y25.9844
G01 X48.9399 Y25.9752
G01 X48.9360 Y25.8943
G01 X48.9403 Y25.8072
G01 X48.9531 Y25.7209
G01 X48.9743 Y25.6363
G01 X49.0037 Y25.5542
G01 X49.0410 Y25.4753
G01 X49.0858 Y25.4005
G01 X49.1378 Y25.3305
G01 X49.1963 Y25.2659
G01 X49.2609 Y25.2073
G01 X49.3310 Y25.1553
G01 X49.4058 Y25.1105
G01 X49.4846 Y25.0732
G01 X49.5667 Y25.0438
G01 X49.6513 Y25.0227
G01 X49.7315 Y25.0106
G01 X49.7407 Y25.0096
G01 X49.8247 Y25.0056
G01 X49.9118 Y25.0099
G01 X49.9981 Y25.0227
G01 X50.0797 Y25.0430
G01 X50.0886 Y25.0458
G01 X50.1648 Y25.0732
G01 X50.2381 Y25.1077
G01 X50.2490 Y25.1136
G01 X50.3132 Y25.1520
G01 X50.3210 Y25.1571
G01 X50.3325 Y25.1656
G01 X59.3366 Y25.1656
G01 X61.3160 Y23.1862
G01 X61.3160 Y22.1966
G01 X61.1887 Y22.1966
G01 X61.1794 Y22.1962
G01 X61.1671 Y22.1947
G01 X61.1550 Y22.1920
G01 X61.1462 Y22.1892
G01 X61.1347 Y22.1844
G01 X61.1211 Y22.1770
G01 X61.1135 Y22.1717
G01 X61.1062 Y22.1659
G01 X61.0994 Y22.1596
G01 X61.0931 Y22.1528
G01 X61.0837 Y22.1404
G01 X61.0788 Y22.1325
G01 X61.0745 Y22.1243
G01 X61.0688 Y22.1099
G01 X61.0648 Y22.0949
G01 X61.0628 Y22.0796
G01 X61.0624 Y22.0703
G01 X61.0625 Y20.0352
G01 X61.0634 Y20.0228
G01 X61.0662 Y20.0076
G01 X61.0698 Y19.9957
G01 X61.0745 Y19.9843
G01 X61.0804 Y19.9733
G01 X61.0892 Y19.9606
G01 X61.0972 Y19.9512
G01 X61.1086 Y19.9406
G01 X61.1160 Y19.9350
G01 X61.1265 Y19.9284
G01 X61.1375 Y19.9228
G01 X61.1462 Y19.9193
G01 X61.1550 Y19.9165
G01 X61.1641 Y19.9144
G01 X61.1733 Y19.9129
G01 X61.1856 Y19.9120
G01 X63.2269 Y19.9121
G01 X63.2423 Y19.9138
G01 X63.2514 Y19.9157
G01 X63.2603 Y19.9183
G01 X63.2691 Y19.9216
G01 X63.2775 Y19.9254
G01 X63.2909 Y19.9332
G01 X63.3032 Y19.9426
G01 X63.3100 Y19.9490
G01 X63.3164 Y19.9558
G01 X63.3257 Y19.9681
G01 X63.3306 Y19.9760
G01 X63.3349 Y19.9843
G01 X63.3396 Y19.9957
G01 X63.3432 Y20.0076
G01 X63.3457 Y20.0197
G01 X63.3467 Y20.0290
G01 X63.3470 Y20.0383
G01 X63.3470 Y20.1656
G01 X65.4223 Y20.1656
G01 X65.4223 Y6.6269
G01 X62.1841 Y3.3887
G01 X15.6513 Y3.3887
G01 X5.5934 Y13.4466
G01 X5.5934 Y30.6862
G01 X7.5728 Y32.6656
G01 X11.0624 Y32.6656
G01 X11.0624 Y32.5383
G01 X11.0628 Y32.5290
G01 X11.0643 Y32.5167
G01 X11.0670 Y32.5046
G01 X11.0709 Y32.4928
G01 X11.0759 Y32.4815
G01 X11.0804 Y32.4733
G01 X11.0855 Y32.4655
G01 X11.0951 Y32.4534
G01 X11.1062 Y32.4426
G01 X11.1135 Y32.4368
G01 X11.1211 Y32.4316
G01 X11.1347 Y32.4241
G01 X11.1433 Y32.4204
G01 X11.1521 Y32.4174
G01 X11.1610 Y32.4150
G01 X11.1702 Y32.4133
G01 X11.1794 Y32.4123
G01 X11.1887 Y32.4120
G01 X13.2207 Y32.4120
G01 X13.2300 Y32.4123
G01 X13.2454 Y32.4144
G01 X13.2544 Y32.4165
G01 X13.2633 Y32.4193
G01 X13.2719 Y32.4228
G01 X13.2803 Y32.4269
G01 X13.2934 Y32.4350
G01 X13.3008 Y32.4406
G01 X13.3078 Y32.4468
G01 X13.3184 Y32.4581
G01 X13.3274 Y32.4707
G01 X13.3349 Y32.4843
G01 X13.3386 Y32.4928
G01 X13.3424 Y32.5046
G01 X13.3452 Y32.5167
G01 X13.3467 Y32.5290
G01 X13.3470 Y32.5383
G01 X13.3470 Y32.6656
G01 X14.8183 Y32.6656
G01 X17.0200 Y30.4639
G01 X17.0777 Y30.4116
G01 X17.0873 Y30.4037
G01 X17.1525 Y30.3556
G01 X17.2219 Y30.3138
G01 X17.2328 Y30.3080
G01 X17.3061 Y30.2735
G01 X17.3882 Y30.2441
G01 X17.4668 Y30.2243
G01 X17.4789 Y30.2218
G01 X17.5591 Y30.2101
G01 X17.6462 Y30.2058
G01 X21.0624 Y30.2058
G01 X21.0625 Y30.1552
G01 X21.0630 Y30.1459
G01 X21.0648 Y30.1336
G01 X21.0679 Y30.1216
G01 X21.0720 Y30.1099
G01 X21.0788 Y30.0960
G01 X21.0855 Y30.0855
G01 X21.0951 Y30.0734
G01 X21.1062 Y30.0626
G01 X21.1186 Y30.0532
G01 X21.1292 Y30.0469
G01 X21.1433 Y30.0404
G01 X21.1580 Y30.0357
G01 X21.1702 Y30.0333
G01 X21.1856 Y30.0320
G01 X23.2238 Y30.0320
G01 X23.2331 Y30.0326
G01 X23.2423 Y30.0338
G01 X23.2574 Y30.0374
G01 X23.2662 Y30.0404
G01 X23.2747 Y30.0441
G01 X23.2883 Y30.0516
G01 X23.2960 Y30.0568
G01 X23.3032 Y30.0626
G01 X23.3100 Y30.0690
G01 X23.3164 Y30.0758
G01 X23.3257 Y30.0881
G01 X23.3306 Y30.0960
G01 X23.3349 Y30.1043
G01 X23.3406 Y30.1186
G01 X23.3440 Y30.1306
G01 X23.3461 Y30.1428
G01 X23.3470 Y30.1583
G01 X23.3470 Y32.1934
G01 X23.3457 Y32.2088
G01 X23.3424 Y32.2239
G01 X23.3396 Y32.2328
G01 X23.3362 Y32.2414
G01 X23.3291 Y32.2552
G01 X23.3240 Y32.2630
G01 X23.3184 Y32.2704
G01 X23.3078 Y32.2817
G01 X23.2960 Y32.2917
G01 X23.2883 Y32.2970
G01 X23.2803 Y32.3016
G01 X23.2662 Y32.3081
G01 X23.2514 Y32.3128
G01 X23.2362 Y32.3156
G01 X23.2207 Y32.3166
G01 X21.1887 Y32.3166
G01 X21.1794 Y32.3162
G01 X21.1702 Y32.3152
G01 X21.1550 Y32.3120
G01 X21.1462 Y32.3092
G01 X21.1375 Y32.3057
G01 X21.1292 Y32.3016
G01 X21.1211 Y32.2970
G01 X21.1086 Y32.2879
G01 X21.1016 Y32.2817
G01 X21.0951 Y32.2751
G01 X21.0855 Y32.2630
G01 X21.0804 Y32.2552
G01 X21.0759 Y32.2470
G01 X21.0720 Y32.2386
G01 X21.0688 Y32.2299
G01 X21.0662 Y32.2209
G01 X21.0643 Y32.2119
G01 X21.0630 Y32.2026
G01 X21.0625 Y32.1934
G01 X21.0624 Y31.9832
G01 X18.0143 Y31.9832
G01 X15.8103 Y34.1869
G01 X15.7502 Y34.2412
G01 X15.6852 Y34.2896
G01 X15.6749 Y34.2965
G01 X15.6053 Y34.3380
G01 X15.5265 Y34.3753
G01 X15.4503 Y34.4027
G01 X15.4384 Y34.4063
G01 X15.3658 Y34.4245
G01 X15.3537 Y34.4269
G01 X15.2735 Y34.4387
G01 X15.1864 Y34.4429
G01 X13.3470 Y34.4429
G01 X13.3470 Y34.5703
G01 X13.3467 Y34.5796
G01 X13.3452 Y34.5919
G01 X13.3424 Y34.6039
G01 X13.3396 Y34.6128
G01 X13.3349 Y34.6243
G01 X13.3306 Y34.6325
G01 X13.3257 Y34.6404
G01 X13.3164 Y34.6528
G01 X13.3055 Y34.6638
G01 X13.2984 Y34.6698
G01 X13.2909 Y34.6753
G01 X13.2775 Y34.6831
G01 X13.2633 Y34.6892
G01 X13.2544 Y34.6920
G01 X13.2454 Y34.6941
G01 X13.2300 Y34.6962
G01 X13.2207 Y34.6966
G01 X11.1887 Y34.6966
G01 X11.1733 Y34.6956
G01 X11.1641 Y34.6941
G01 X11.1550 Y34.6920
G01 X11.1404 Y34.6869
G01 X11.1319 Y34.6831
G01 X11.1238 Y34.6786
G01 X11.1160 Y34.6735
G01 X11.1086 Y34.6679
G01 X11.0972 Y34.6573
G01 X11.0911 Y34.6504
G01 X11.0855 Y34.6430
G01 X11.0804 Y34.6352
G01 X11.0759 Y34.6270
G01 X11.0709 Y34.6157
G01 X11.0670 Y34.6039
G01 X11.0643 Y34.5919
G01 X11.0628 Y34.5796
G01 X11.0624 Y34.5703
G01 X11.0624 Y34.4429
G01 X7.2047 Y34.4429
G01 X7.1238 Y34.4391
G01 X7.1115 Y34.4379
G01 X7.0313 Y34.4259
G01 X6.9527 Y34.4063
G01 X6.9409 Y34.4027
G01 X6.8646 Y34.3753
G01 X6.7913 Y34.3408
G01 X6.7804 Y34.3350
G01 X6.7110 Y34.2932
G01 X6.6458 Y34.2450
G01 X6.6363 Y34.2372
G01 X6.5785 Y34.1848
G01 X4.0763 Y31.6827
G01 X4.0178 Y31.6180
G01 X3.9694 Y31.5531
G01 X3.9625 Y31.5427
G01 X3.9240 Y31.4786
G01 X3.9195 Y31.4704
G01 X3.8862 Y31.4000
G01 X3.8815 Y31.3886
G01 X3.8543 Y31.3122
G01 X3.8345 Y31.2337
G01 X3.8321 Y31.2215
G01 X3.8203 Y31.1414
G01 X3.8160 Y31.0543
G01 X3.8160 Y13.0785
G01 X3.8203 Y12.9914
G01 X3.8331 Y12.9051
G01 X3.8543 Y12.8205
G01 X3.8837 Y12.7384
G01 X3.9210 Y12.6596
G01 X3.9658 Y12.5848
G01 X4.0178 Y12.5147
G01 X4.0763 Y12.4501
G00 Z3.0000
G00 X11.0624 Y19.3303
G01 F60.00
G01 Z-0.2848
G01 F120.00
G01 X11.0625 Y17.2952
G01 X11.0634 Y17.2828
G01 X11.0655 Y17.2706
G01 X11.0688 Y17.2586
G01 X11.0733 Y17.2471
G01 X11.0788 Y17.2360
G01 X11.0855 Y17.2255
G01 X11.0931 Y17.2158
G01 X11.1016 Y17.2068
G01 X11.1110 Y17.1987
G01 X11.1186 Y17.1932
G01 X11.1292 Y17.1869
G01 X11.1404 Y17.1816
G01 X11.1491 Y17.1783
G01 X11.1610 Y17.1750
G01 X11.1733 Y17.1729
G01 X11.1856 Y17.1720
G01 X13.2207 Y17.1720
G01 X13.2331 Y17.1726
G01 X13.2454 Y17.1744
G01 X13.2574 Y17.1774
G01 X13.2691 Y17.1816
G01 X13.2803 Y17.1869
G01 X13.2909 Y17.1932
G01 X13.3008 Y17.2006
G01 X13.3122 Y17.2112
G01 X13.3203 Y17.2206
G01 X13.3274 Y17.2307
G01 X13.3321 Y17.2387
G01 X13.3374 Y17.2499
G01 X13.3416 Y17.2616
G01 X13.3440 Y17.2706
G01 X13.3461 Y17.2828
G01 X13.3470 Y17.2952
G01 X13.3470 Y19.3303
G01 X13.3464 Y19.3426
G01 X13.3446 Y19.3549
G01 X13.3406 Y19.3699
G01 X13.3362 Y19.3814
G01 X13.3306 Y19.3925
G01 X13.3240 Y19.4030
G01 X13.3164 Y19.4128
G01 X13.3078 Y19.4217
G01 X13.2984 Y19.4298
G01 X13.2909 Y19.4353
G01 X13.2803 Y19.4416
G01 X13.2691 Y19.4469
G01 X13.2574 Y19.4511
G01 X13.2454 Y19.4541
G01 X13.2362 Y19.4556
G01 X13.2238 Y19.4565
G01 X11.1825 Y19.4564
G01 X11.1702 Y19.4552
G01 X11.1580 Y19.4528
G01 X11.1462 Y19.4492
G01 X11.1347 Y19.4444
G01 X11.1265 Y19.4402
G01 X11.1160 Y19.4335
G01 X11.1062 Y19.4259
G01 X11.0972 Y19.4173
G01 X11.0892 Y19.4080
G01 X11.0837 Y19.4004
G01 X11.0773 Y19.3898
G01 X11.0720 Y19.3786
G01 X11.0679 Y19.3669
G01 X11.0648 Y19.3549
G01 X11.0630 Y19.3426
G01 X11.0624 Y19.3303
G00 Z3.0000
G00 X11.1887 Y22.2520
G01 F60.00
G01 Z-0.2848
G01 F120.00
G01 X13.2207 Y22.2520
G01 X13.2331 Y22.2526
G01 X13.2454 Y22.2544
G01 X13.2544 Y22.2565
G01 X13.2633 Y22.2593
G01 X13.2775 Y22.2654
G01 X13.2857 Y22.2699
G01 X13.2934 Y22.2750
G01 X13.3008 Y22.2806
G01 X13.3078 Y22.2868
G01 X13.3143 Y22.2934
G01 X13.3203 Y22.3006
G01 X13.3291 Y22.3133
G01 X13.3335 Y22.3215
G01 X13.3374 Y22.3299
G01 X13.3406 Y22.3386
G01 X13.3432 Y22.3476
G01 X13.3461 Y22.3628
G01 X13.3470 Y22.3783
G01 X13.3470 Y22.6656
G01 X21.0624 Y22.6656
G01 X21.0626 Y22.5321
G01 X21.0638 Y22.5197
G01 X21.0662 Y22.5076
G01 X21.0688 Y22.4986
G01 X21.0733 Y22.4871
G01 X21.0804 Y22.4733
G01 X21.0892 Y22.4606
G01 X21.0951 Y22.4534
G01 X21.1016 Y22.4468
G01 X21.1135 Y22.4368
G01 X21.1265 Y22.4284
G01 X21.1404 Y22.4216
G01 X21.1550 Y22.4165
G01 X21.1641 Y22.4144
G01 X21.1733 Y22.4129
G01 X21.1887 Y22.4120
G01 X23.2207 Y22.4120
G01 X23.2300 Y22.4123
G01 X23.2393 Y22.4133
G01 X23.2544 Y22.4165
G01 X23.2691 Y22.4216
G01 X23.2775 Y22.4254
G01 X23.2857 Y22.4299
G01 X23.2934 Y22.4350
G01 X23.3008 Y22.4406
G01 X23.3122 Y22.4512
G01 X23.3184 Y22.4581
G01 X23.3240 Y22.4655
G01 X23.3291 Y22.4733
G01 X23.3335 Y22.4815
G01 X23.3386 Y22.4928
G01 X23.3424 Y22.5046
G01 X23.3452 Y22.5167
G01 X23.3467 Y22.5290
G01 X23.3470 Y22.5383
G01 X23.3470 Y22.6656
G01 X25.6588 Y22.6656
G01 X25.7366 Y22.6694
G01 X25.7490 Y22.6706
G01 X25.8291 Y22.6827
G01 X25.9107 Y22.7030
G01 X25.9196 Y22.7058
G01 X25.9958 Y22.7332
G01 X26.0691 Y22.7677
G01 X26.0800 Y22.7736
G01 X26.1494 Y22.8153
G01 X26.2146 Y22.8635
G01 X26.2242 Y22.8713
G01 X26.2819 Y22.9237
G01 X30.9001 Y27.5419
G01 X34.5810 Y27.5419
G01 X34.6620 Y27.5457
G01 X34.6743 Y27.5469
G01 X34.7544 Y27.5590
G01 X34.8330 Y27.5785
G01 X34.8449 Y27.5821
G01 X34.9211 Y27.6096
G01 X35.0000 Y27.6468
G01 X35.0748 Y27.6917
G01 X35.1448 Y27.7436
G01 X35.2094 Y27.8022
G01 X35.2174 Y27.8104
G01 X35.2717 Y27.8705
G01 X35.3236 Y27.9405
G01 X35.3685 Y28.0153
G01 X35.4058 Y28.0942
G01 X35.4351 Y28.1763
G01 X35.4563 Y28.2609
G01 X35.4691 Y28.3472
G01 X35.4734 Y28.4343
G01 X35.4691 Y28.5214
G01 X35.4563 Y28.6076
G01 X35.4360 Y28.6893
G01 X35.4332 Y28.6981
G01 X35.4080 Y28.7686
G01 X35.4032 Y28.7800
G01 X35.3685 Y28.8532
G01 X35.3236 Y28.9280
G01 X35.2755 Y28.9931
G01 X35.2676 Y29.0027
G01 X35.2131 Y29.0627
G01 X35.1485 Y29.1212
G01 X35.0835 Y29.1696
G01 X35.0732 Y29.1765
G01 X35.0036 Y29.2180
G01 X34.9248 Y29.2553
G01 X34.8427 Y29.2847
G01 X34.7641 Y29.3045
G01 X34.7520 Y29.3069
G01 X34.6718 Y29.3187
G01 X34.5847 Y29.3229
G01 X34.5069 Y29.3193
G01 X30.5289 Y29.3192
G01 X30.4449 Y29.3150
G01 X30.3587 Y29.3022
G01 X30.2741 Y29.2810
G01 X30.1920 Y29.2516
G01 X30.1131 Y29.2143
G01 X30.0383 Y29.1695
G01 X29.9683 Y29.1175
G01 X29.9036 Y29.0590
G01 X25.2876 Y24.4429
G01 X23.3470 Y24.4429
G01 X23.3470 Y24.5703
G01 X23.3467 Y24.5796
G01 X23.3452 Y24.5919
G01 X23.3424 Y24.6039
G01 X23.3386 Y24.6157
G01 X23.3335 Y24.6270
G01 X23.3291 Y24.6352
G01 X23.3240 Y24.6430
G01 X23.3184 Y24.6504
G01 X23.3122 Y24.6573
G01 X23.3055 Y24.6638
G01 X23.2984 Y24.6698
G01 X23.2857 Y24.6786
G01 X23.2775 Y24.6831
G01 X23.2691 Y24.6869
G01 X23.2544 Y24.6920
G01 X23.2393 Y24.6952
G01 X23.2300 Y24.6962
G01 X23.2207 Y24.6966
G01 X21.1887 Y24.6966
G01 X21.1733 Y24.6956
G01 X21.1580 Y24.6928
G01 X21.1433 Y24.6881
G01 X21.1347 Y24.6844
G01 X21.1265 Y24.6802
G01 X21.1135 Y24.6717
G01 X21.1016 Y24.6617
G01 X21.0911 Y24.6504
G01 X21.0855 Y24.6430
G01 X21.0804 Y24.6352
G01 X21.0733 Y24.6214
G01 X21.0698 Y24.6128
G01 X21.0662 Y24.6009
G01 X21.0638 Y24.5888
G01 X21.0626 Y24.5765
G01 X21.0624 Y24.4429
G01 X13.3427 Y24.4429
G01 X13.3396 Y24.4528
G01 X13.3362 Y24.4614
G01 X13.3321 Y24.4698
G01 X13.3274 Y24.4778
G01 X13.3203 Y24.4880
G01 X13.3143 Y24.4951
G01 X13.3078 Y24.5017
G01 X13.3008 Y24.5079
G01 X13.2934 Y24.5135
G01 X13.2857 Y24.5186
G01 X13.2747 Y24.5244
G01 X13.2662 Y24.5281
G01 X13.2574 Y24.5311
G01 X13.2454 Y24.5341
G01 X13.2362 Y24.5356
G01 X13.2269 Y24.5364
G01 X11.1887 Y24.5366
G01 X11.1733 Y24.5356
G01 X11.1641 Y24.5341
G01 X11.1550 Y24.5320
G01 X11.1433 Y24.5281
G01 X11.1347 Y24.5244
G01 X11.1265 Y24.5202
G01 X11.1186 Y24.5153
G01 X11.1110 Y24.5098
G01 X11.1039 Y24.5038
G01 X11.0951 Y24.4951
G01 X11.0892 Y24.4880
G01 X11.0837 Y24.4804
G01 X11.0788 Y24.4725
G01 X11.0745 Y24.4643
G01 X11.0698 Y24.4528
G01 X11.0670 Y24.4439
G01 X11.0648 Y24.4349
G01 X11.0634 Y24.4257
G01 X11.0626 Y24.4165
G01 X11.0625 Y22.3752
G01 X11.0634 Y22.3628
G01 X11.0655 Y22.3506
G01 X11.0688 Y22.3386
G01 X11.0720 Y22.3299
G01 X11.0773 Y22.3187
G01 X11.0837 Y22.3081
G01 X11.0911 Y22.2981
G01 X11.0994 Y22.2890
G01 X11.1086 Y22.2806
G01 X11.1186 Y22.2732
G01 X11.1292 Y22.2669
G01 X11.1404 Y22.2616
G01 X11.1521 Y22.2574
G01 X11.1641 Y22.2544
G01 X11.1763 Y22.2526
G01 X11.1887 Y22.2520
G00 Z3.0000
G00 X11.1887 Y24.7920
G01 F60.00
G01 Z-0.2848
G01 F120.00
G01 X13.2207 Y24.7920
G01 X13.2331 Y24.7926
G01 X13.2454 Y24.7944
G01 X13.2544 Y24.7965
G01 X13.2633 Y24.7993
G01 X13.2775 Y24.8054
G01 X13.2857 Y24.8099
G01 X13.2934 Y24.8150
G01 X13.3008 Y24.8206
G01 X13.3078 Y24.8268
G01 X13.3143 Y24.8334
G01 X13.3203 Y24.8406
G01 X13.3291 Y24.8533
G01 X13.3335 Y24.8615
G01 X13.3374 Y24.8699
G01 X13.3406 Y24.8786
G01 X13.3432 Y24.8876
G01 X13.3461 Y24.9028
G01 X13.3470 Y24.9183
G01 X13.3470 Y25.2056
G01 X21.0624 Y25.2056
G01 X21.0626 Y25.0721
G01 X21.0638 Y25.0597
G01 X21.0662 Y25.0476
G01 X21.0688 Y25.0386
G01 X21.0733 Y25.0271
G01 X21.0804 Y25.0133
G01 X21.0892 Y25.0006
G01 X21.0951 Y24.9934
G01 X21.1016 Y24.9868
G01 X21.1135 Y24.9768
G01 X21.1265 Y24.9684
G01 X21.1404 Y24.9616
G01 X21.1550 Y24.9565
G01 X21.1641 Y24.9544
G01 X21.1733 Y24.9529
G01 X21.1887 Y24.9520
G01 X23.2207 Y24.9520
G01 X23.2362 Y24.9529
G01 X23.2454 Y24.9544
G01 X23.2544 Y24.9565
G01 X23.2633 Y24.9593
G01 X23.2719 Y24.9628
G01 X23.2857 Y24.9699
G01 X23.2934 Y24.9750
G01 X23.3008 Y24.9806
G01 X23.3078 Y24.9868
G01 X23.3143 Y24.9934
G01 X23.3203 Y25.0006
G01 X23.3257 Y25.0081
G01 X23.3306 Y25.0160
G01 X23.3349 Y25.0243
G01 X23.3386 Y25.0328
G01 X23.3416 Y25.0416
G01 X23.3440 Y25.0506
G01 X23.3457 Y25.0597
G01 X23.3467 Y25.0690
G01 X23.3470 Y25.0783
G01 X23.3470 Y25.5684
G01 X25.1075 Y25.5684
G01 X25.1915 Y25.5724
G01 X25.2008 Y25.5734
G01 X25.2748 Y25.5844
G01 X25.2869 Y25.5868
G01 X25.3655 Y25.6066
G01 X25.4476 Y25.6360
G01 X25.5209 Y25.6705
G01 X25.5318 Y25.6764
G01 X25.6012 Y25.7181
G01 X25.6689 Y25.7682
G01 X25.6760 Y25.7741
G01 X25.7359 Y25.8287
G01 X30.0728 Y30.1656
G01 X34.2182 Y30.1656
G01 X34.2475 Y30.1521
G01 X34.3209 Y30.1258
G01 X34.3297 Y30.1230
G01 X34.4113 Y30.1027
G01 X34.4945 Y30.0902
G01 X34.5038 Y30.0894
G01 X34.5785 Y30.0857
G01 X34.5909 Y30.0857
G01 X34.6718 Y30.0899
G01 X34.7581 Y30.1027
G01 X34.8427 Y30.1238
G01 X34.9248 Y30.1532
G01 X35.0036 Y30.1905
G01 X35.0784 Y30.2353
G01 X35.1485 Y30.2873
G01 X35.2131 Y30.3459
G01 X35.2717 Y30.4105
G01 X35.3201 Y30.4755
G01 X35.3269 Y30.4858
G01 X35.3685 Y30.5553
G01 X35.4032 Y30.6285
G01 X35.4080 Y30.6400
G01 X35.4351 Y30.7163
G01 X35.4550 Y30.7948
G01 X35.4574 Y30.8070
G01 X35.4684 Y30.8810
G01 X35.4696 Y30.8933
G01 X35.4734 Y30.9743
G01 X35.4691 Y31.0614
G01 X35.4563 Y31.1476
G01 X35.4360 Y31.2293
G01 X35.4332 Y31.2381
G01 X35.4080 Y31.3086
G01 X35.4032 Y31.3200
G01 X35.3685 Y31.3932
G01 X35.3269 Y31.4627
G01 X35.3219 Y31.4705
G01 X35.2717 Y31.5380
G01 X35.2153 Y31.6004
G01 X35.1309 Y31.6848
G01 X35.0685 Y31.7412
G01 X35.0035 Y31.7896
G01 X34.9932 Y31.7965
G01 X34.9236 Y31.8380
G01 X34.8448 Y31.8753
G01 X34.7627 Y31.9047
G01 X34.6841 Y31.9245
G01 X34.6720 Y31.9269
G01 X34.5918 Y31.9387
G01 X34.5047 Y31.9429
G01 X29.7047 Y31.9429
G01 X29.6176 Y31.9387
G01 X29.5313 Y31.9259
G01 X29.4467 Y31.9047
G01 X29.3704 Y31.8775
G01 X29.3590 Y31.8728
G01 X29.2858 Y31.8380
G01 X29.2110 Y31.7932
G01 X29.1409 Y31.7412
G01 X29.0763 Y31.6827
G01 X24.7394 Y27.3457
G01 X22.5644 Y27.3457
G01 X22.4866 Y27.3419
G01 X22.4743 Y27.3407
G01 X22.3941 Y27.3287
G01 X22.3155 Y27.3091
G01 X22.3037 Y27.3055
G01 X22.2274 Y27.2781
G01 X22.1541 Y27.2436
G01 X22.1412 Y27.2366
G01 X21.1887 Y27.2366
G01 X21.1763 Y27.2360
G01 X21.1610 Y27.2335
G01 X21.1521 Y27.2311
G01 X21.1433 Y27.2281
G01 X21.1347 Y27.2244
G01 X21.1265 Y27.2202
G01 X21.1135 Y27.2117
G01 X21.1062 Y27.2059
G01 X21.0994 Y27.1996
G01 X21.0892 Y27.1880
G01 X21.0804 Y27.1752
G01 X21.0733 Y27.1614
G01 X21.0698 Y27.1528
G01 X21.0662 Y27.1409
G01 X21.0638 Y27.1288
G01 X21.0626 Y27.1165
G01 X21.0624 Y26.9829
G01 X13.3427 Y26.9829
G01 X13.3396 Y26.9928
G01 X13.3362 Y27.0014
G01 X13.3321 Y27.0098
G01 X13.3274 Y27.0178
G01 X13.3203 Y27.0280
G01 X13.3143 Y27.0351
G01 X13.3078 Y27.0417
G01 X13.3008 Y27.0479
G01 X13.2934 Y27.0535
G01 X13.2857 Y27.0586
G01 X13.2775 Y27.0631
G01 X13.2662 Y27.0681
G01 X13.2574 Y27.0711
G01 X13.2454 Y27.0741
G01 X13.2362 Y27.0756
G01 X13.2269 Y27.0764
G01 X11.1887 Y27.0766
G01 X11.1733 Y27.0756
G01 X11.1641 Y27.0741
G01 X11.1550 Y27.0720
G01 X11.1433 Y27.0681
G01 X11.1347 Y27.0644
G01 X11.1265 Y27.0602
G01 X11.1186 Y27.0553
G01 X11.1110 Y27.0498
G01 X11.1039 Y27.0438
G01 X11.0951 Y27.0351
G01 X11.0892 Y27.0280
G01 X11.0837 Y27.0204
G01 X11.0788 Y27.0125
G01 X11.0745 Y27.0043
G01 X11.0698 Y26.9928
G01 X11.0670 Y26.9839
G01 X11.0648 Y26.9749
G01 X11.0634 Y26.9657
G01 X11.0626 Y26.9565
G01 X11.0625 Y24.9152
G01 X11.0634 Y24.9028
G01 X11.0655 Y24.8906
G01 X11.0688 Y24.8786
G01 X11.0720 Y24.8699
G01 X11.0773 Y24.8587
G01 X11.0837 Y24.8481
G01 X11.0911 Y24.8381
G01 X11.0994 Y24.8290
G01 X11.1086 Y24.8206
G01 X11.1186 Y24.8132
G01 X11.1292 Y24.8069
G01 X11.1404 Y24.8016
G01 X11.1521 Y24.7974
G01 X11.1641 Y24.7944
G01 X11.1763 Y24.7926
G01 X11.1887 Y24.7920
G00 Z3.0000
G00 X11.0624 Y29.4903
G01 F60.00
G01 Z-0.2848
G01 F120.00
G01 X11.0625 Y27.4552
G01 X11.0634 Y27.4428
G01 X11.0655 Y27.4306
G01 X11.0688 Y27.4186
G01 X11.0733 Y27.4071
G01 X11.0788 Y27.3960
G01 X11.0855 Y27.3855
G01 X11.0931 Y27.3758
G01 X11.1016 Y27.3668
G01 X11.1110 Y27.3587
G01 X11.1186 Y27.3532
G01 X11.1292 Y27.3469
G01 X11.1404 Y27.3416
G01 X11.1491 Y27.3383
G01 X11.1610 Y27.3350
G01 X11.1733 Y27.3329
G01 X11.1856 Y27.3320
G01 X13.2207 Y27.3320
G01 X13.2331 Y27.3326
G01 X13.2454 Y27.3344
G01 X13.2574 Y27.3374
G01 X13.2691 Y27.3416
G01 X13.2803 Y27.3469
G01 X13.2909 Y27.3532
G01 X13.3008 Y27.3606
G01 X13.3122 Y27.3712
G01 X13.3203 Y27.3806
G01 X13.3274 Y27.3907
G01 X13.3321 Y27.3987
G01 X13.3374 Y27.4099
G01 X13.3416 Y27.4216
G01 X13.3440 Y27.4306
G01 X13.3461 Y27.4428
G01 X13.3470 Y27.4552
G01 X13.3470 Y29.4903
G01 X13.3464 Y29.5026
G01 X13.3446 Y29.5149
G01 X13.3406 Y29.5299
G01 X13.3362 Y29.5414
G01 X13.3306 Y29.5525
G01 X13.3240 Y29.5630
G01 X13.3164 Y29.5728
G01 X13.3078 Y29.5817
G01 X13.2984 Y29.5898
G01 X13.2909 Y29.5953
G01 X13.2803 Y29.6016
G01 X13.2691 Y29.6069
G01 X13.2574 Y29.6111
G01 X13.2454 Y29.6141
G01 X13.2362 Y29.6156
G01 X13.2238 Y29.6165
G01 X11.1825 Y29.6164
G01 X11.1702 Y29.6152
G01 X11.1580 Y29.6128
G01 X11.1462 Y29.6092
G01 X11.1347 Y29.6044
G01 X11.1265 Y29.6002
G01 X11.1160 Y29.5935
G01 X11.1062 Y29.5859
G01 X11.0972 Y29.5773
G01 X11.0892 Y29.5680
G01 X11.0837 Y29.5604
G01 X11.0773 Y29.5498
G01 X11.0720 Y29.5386
G01 X11.0679 Y29.5269
G01 X11.0648 Y29.5149
G01 X11.0630 Y29.5026
G01 X11.0624 Y29.4903
G00 Z3.0000
G00 X7.7049 Y30.6420
G01 F60.00
G01 Z-0.2848
G01 F120.00
G01 X7.7049 Y22.1980
G01 X7.7087 Y22.1171
G01 X7.7099 Y22.1048
G01 X7.7220 Y22.0247
G01 X7.7415 Y21.9460
G01 X7.7451 Y21.9342
G01 X7.7726 Y21.8579
G01 X7.8071 Y21.7846
G01 X7.8113 Y21.7764
G01 X7.8547 Y21.7043
G01 X7.9028 Y21.6391
G01 X7.9107 Y21.6296
G01 X7.9652 Y21.5696
G01 X9.3090 Y20.2259
G01 X9.3736 Y20.1673
G01 X9.4386 Y20.1189
G01 X9.4489 Y20.1120
G01 X9.5184 Y20.0705
G01 X9.5916 Y20.0357
G01 X9.6031 Y20.0310
G01 X9.6735 Y20.0058
G01 X9.6854 Y20.0022
G01 X9.7640 Y19.9827
G01 X9.8503 Y19.9699
G01 X9.9374 Y19.9656
G01 X11.0624 Y19.9656
G01 X11.0626 Y19.8321
G01 X11.0634 Y19.8228
G01 X11.0655 Y19.8106
G01 X11.0688 Y19.7986
G01 X11.0720 Y19.7899
G01 X11.0788 Y19.7760
G01 X11.0873 Y19.7630
G01 X11.0972 Y19.7512
G01 X11.1039 Y19.7447
G01 X11.1110 Y19.7387
G01 X11.1238 Y19.7299
G01 X11.1375 Y19.7228
G01 X11.1521 Y19.7174
G01 X11.1671 Y19.7138
G01 X11.1794 Y19.7123
G01 X11.1887 Y19.7120
G01 X13.2207 Y19.7120
G01 X13.2331 Y19.7126
G01 X13.2454 Y19.7144
G01 X13.2544 Y19.7165
G01 X13.2633 Y19.7193
G01 X13.2775 Y19.7254
G01 X13.2857 Y19.7299
G01 X13.2934 Y19.7350
G01 X13.3008 Y19.7406
G01 X13.3078 Y19.7468
G01 X13.3143 Y19.7534
G01 X13.3203 Y19.7606
G01 X13.3291 Y19.7733
G01 X13.3335 Y19.7815
G01 X13.3374 Y19.7899
G01 X13.3406 Y19.7986
G01 X13.3432 Y19.8076
G01 X13.3461 Y19.8228
G01 X13.3470 Y19.8383
G01 X13.3470 Y20.1256
G01 X17.8890 Y20.1256
G01 X17.8890 Y12.5133
G01 X17.8928 Y12.4324
G01 X17.8940 Y12.4200
G01 X17.9061 Y12.3399
G01 X17.9256 Y12.2613
G01 X17.9292 Y12.2494
G01 X17.9566 Y12.1732
G01 X17.9911 Y12.0999
G01 X17.9970 Y12.0890
G01 X18.0388 Y12.0196
G01 X18.0869 Y11.9544
G01 X18.0948 Y11.9448
G01 X18.1471 Y11.8871
G01 X19.6483 Y10.3859
G01 X19.7129 Y10.3273
G01 X19.7804 Y10.2771
G01 X19.7882 Y10.2720
G01 X19.8578 Y10.2305
G01 X19.9309 Y10.1957
G01 X19.9424 Y10.1910
G01 X20.0187 Y10.1638
G01 X20.0973 Y10.1440
G01 X20.1094 Y10.1416
G01 X20.1865 Y10.1302
G01 X20.1958 Y10.1294
G01 X20.2767 Y10.1256
G01 X21.0624 Y10.1256
G01 X21.0625 Y9.9952
G01 X21.0630 Y9.9859
G01 X21.0643 Y9.9767
G01 X21.0662 Y9.9676
G01 X21.0688 Y9.9586
G01 X21.0720 Y9.9499
G01 X21.0759 Y9.9415
G01 X21.0804 Y9.9333
G01 X21.0873 Y9.9230
G01 X21.0931 Y9.9158
G01 X21.0994 Y9.9090
G01 X21.1062 Y9.9026
G01 X21.1135 Y9.8968
G01 X21.1211 Y9.8916
G01 X21.1292 Y9.8869
G01 X21.1404 Y9.8816
G01 X21.1491 Y9.8783
G01 X21.1580 Y9.8757
G01 X21.1671 Y9.8738
G01 X21.1763 Y9.8726
G01 X21.1856 Y9.8720
G01 X21.3160 Y9.8720
G01 X21.3160 Y9.6166
G01 X21.1887 Y9.6166
G01 X21.1794 Y9.6162
G01 X21.1671 Y9.6147
G01 X21.1550 Y9.6120
G01 X21.1462 Y9.6092
G01 X21.1347 Y9.6044
G01 X21.1265 Y9.6002
G01 X21.1186 Y9.5953
G01 X21.1062 Y9.5859
G01 X21.0951 Y9.5751
G01 X21.0855 Y9.5630
G01 X21.0773 Y9.5498
G01 X21.0733 Y9.5414
G01 X21.0698 Y9.5328
G01 X21.0670 Y9.5239
G01 X21.0648 Y9.5149
G01 X21.0628 Y9.4996
G01 X21.0624 Y9.4903
G01 X21.0626 Y7.4521
G01 X21.0634 Y7.4428
G01 X21.0648 Y7.4336
G01 X21.0670 Y7.4246
G01 X21.0698 Y7.4157
G01 X21.0733 Y7.4071
G01 X21.0773 Y7.3987
G01 X21.0820 Y7.3907
G01 X21.0873 Y7.3830
G01 X21.0931 Y7.3758
G01 X21.0994 Y7.3690
G01 X21.1062 Y7.3626
G01 X21.1135 Y7.3568
G01 X21.1265 Y7.3484
G01 X21.1347 Y7.3441
G01 X21.1433 Y7.3404
G01 X21.1550 Y7.3365
G01 X21.1671 Y7.3338
G01 X21.1794 Y7.3323
G01 X21.1887 Y7.3320
G01 X23.2238 Y7.3320
G01 X23.2393 Y7.3333
G01 X23.2484 Y7.3350
G01 X23.2574 Y7.3374
G01 X23.2719 Y7.3428
G01 X23.2803 Y7.3469
G01 X23.2883 Y7.3516
G01 X23.2960 Y7.3568
G01 X23.3032 Y7.3626
G01 X23.3100 Y7.3690
G01 X23.3164 Y7.3758
G01 X23.3257 Y7.3881
G01 X23.3306 Y7.3960
G01 X23.3349 Y7.4043
G01 X23.3406 Y7.4186
G01 X23.3440 Y7.4306
G01 X23.3461 Y7.4428
G01 X23.3470 Y7.4583
G01 X23.3470 Y9.4903
G01 X23.3464 Y9.5026
G01 X23.3440 Y9.5179
G01 X23.3416 Y9.5269
G01 X23.3386 Y9.5357
G01 X23.3321 Y9.5498
G01 X23.3240 Y9.5630
G01 X23.3143 Y9.5751
G01 X23.3078 Y9.5817
G01 X23.3008 Y9.5879
G01 X23.2934 Y9.5935
G01 X23.2857 Y9.5986
G01 X23.2719 Y9.6057
G01 X23.2603 Y9.6102
G01 X23.2484 Y9.6135
G01 X23.2393 Y9.6152
G01 X23.2269 Y9.6164
G01 X23.0934 Y9.6166
G01 X23.0934 Y9.8720
G01 X23.2269 Y9.8721
G01 X23.2393 Y9.8733
G01 X23.2514 Y9.8757
G01 X23.2603 Y9.8783
G01 X23.2719 Y9.8828
G01 X23.2857 Y9.8899
G01 X23.2984 Y9.8987
G01 X23.3100 Y9.9090
G01 X23.3164 Y9.9158
G01 X23.3222 Y9.9230
G01 X23.3306 Y9.9360
G01 X23.3374 Y9.9499
G01 X23.3424 Y9.9646
G01 X23.3446 Y9.9736
G01 X23.3461 Y9.9828
G01 X23.3470 Y9.9983
G01 X23.3470 Y12.0303
G01 X23.3461 Y12.0457
G01 X23.3440 Y12.0579
G01 X23.3406 Y12.0699
G01 X23.3374 Y12.0786
G01 X23.3321 Y12.0898
G01 X23.3274 Y12.0978
G01 X23.3203 Y12.1080
G01 X23.3122 Y12.1173
G01 X23.3055 Y12.1238
G01 X23.2960 Y12.1317
G01 X23.2883 Y12.1370
G01 X23.2803 Y12.1416
G01 X23.2691 Y12.1469
G01 X23.2574 Y12.1511
G01 X23.2484 Y12.1535
G01 X23.2393 Y12.1552
G01 X23.2269 Y12.1564
G01 X21.1825 Y12.1564
G01 X21.1671 Y12.1547
G01 X21.1580 Y12.1528
G01 X21.1491 Y12.1502
G01 X21.1404 Y12.1469
G01 X21.1319 Y12.1431
G01 X21.1186 Y12.1353
G01 X21.1110 Y12.1298
G01 X21.1039 Y12.1238
G01 X21.0931 Y12.1128
G01 X21.0837 Y12.1004
G01 X21.0788 Y12.0925
G01 X21.0745 Y12.0843
G01 X21.0698 Y12.0728
G01 X21.0662 Y12.0609
G01 X21.0638 Y12.0488
G01 X21.0628 Y12.0396
G01 X21.0624 Y12.0303
G01 X21.0624 Y11.9029
G01 X20.6448 Y11.9029
G01 X19.6664 Y12.8814
G01 X19.6664 Y20.1256
G01 X21.0624 Y20.1256
G01 X21.0624 Y19.9983
G01 X21.0628 Y19.9890
G01 X21.0643 Y19.9767
G01 X21.0662 Y19.9676
G01 X21.0698 Y19.9557
G01 X21.0745 Y19.9443
G01 X21.0820 Y19.9307
G01 X21.0873 Y19.9230
G01 X21.0931 Y19.9158
G01 X21.1039 Y19.9047
G01 X21.1160 Y19.8950
G01 X21.1292 Y19.8869
G01 X21.1375 Y19.8828
G01 X21.1462 Y19.8793
G01 X21.1610 Y19.8750
G01 X21.1702 Y19.8733
G01 X21.1794 Y19.8723
G01 X21.1887 Y19.8720
G01 X23.2207 Y19.8720
G01 X23.2300 Y19.8723
G01 X23.2393 Y19.8733
G01 X23.2544 Y19.8765
G01 X23.2691 Y19.8816
G01 X23.2775 Y19.8854
G01 X23.2857 Y19.8899
G01 X23.2934 Y19.8950
G01 X23.3008 Y19.9006
G01 X23.3122 Y19.9112
G01 X23.3184 Y19.9181
G01 X23.3240 Y19.9255
G01 X23.3291 Y19.9333
G01 X23.3335 Y19.9415
G01 X23.3386 Y19.9528
G01 X23.3424 Y19.9646
G01 X23.3452 Y19.9767
G01 X23.3467 Y19.9890
G01 X23.3470 Y19.9983
G01 X23.3470 Y20.1256
G01 X26.7120 Y20.1256
G01 X26.7960 Y20.1299
G01 X26.8823 Y20.1427
G01 X26.9669 Y20.1638
G01 X27.0461 Y20.1921
G01 X27.0546 Y20.1957
G01 X27.1278 Y20.2305
G01 X27.2026 Y20.2753
G01 X27.2727 Y20.3273
G01 X27.3373 Y20.3859
G01 X31.9533 Y25.0019
G01 X34.3423 Y25.0019
G01 X34.3773 Y24.9894
G01 X34.3861 Y24.9866
G01 X34.4617 Y24.9676
G01 X34.4708 Y24.9657
G01 X34.5540 Y24.9535
G01 X34.6411 Y24.9492
G01 X38.5005 Y24.9492
G01 X43.2661 Y20.1837
G01 X43.3285 Y20.1273
G01 X43.3935 Y20.0789
G01 X43.4038 Y20.0720
G01 X43.4733 Y20.0305
G01 X43.5465 Y19.9957
G01 X43.5580 Y19.9910
G01 X43.6343 Y19.9638
G01 X43.7128 Y19.9440
G01 X43.7250 Y19.9416
G01 X43.8051 Y19.9299
G01 X43.8923 Y19.9256
G01 X49.4721 Y19.9256
G01 X49.4999 Y19.9050
G01 X49.5075 Y19.8997
G01 X49.5743 Y19.8596
G01 X49.5825 Y19.8551
G01 X49.6586 Y19.8193
G01 X49.7377 Y19.7908
G01 X49.7467 Y19.7883
G01 X49.8192 Y19.7701
G01 X49.8314 Y19.7677
G01 X49.9116 Y19.7559
G01 X49.9925 Y19.7518
G01 X53.7534 Y19.7516
G01 X53.7535 Y12.9494
G01 X53.7577 Y12.8654
G01 X53.7694 Y12.7852
G01 X53.7719 Y12.7731
G01 X53.7917 Y12.6945
G01 X53.8211 Y12.6124
G01 X53.8556 Y12.5391
G01 X53.8614 Y12.5282
G01 X53.8999 Y12.4640
G01 X53.9068 Y12.4537
G01 X53.9552 Y12.3887
G01 X54.0137 Y12.3241
G01 X55.6741 Y10.6638
G01 X55.7365 Y10.6074
G01 X55.8015 Y10.5590
G01 X55.8118 Y10.5521
G01 X55.8813 Y10.5106
G01 X55.9545 Y10.4758
G01 X55.9660 Y10.4711
G01 X56.0364 Y10.4458
G01 X56.0483 Y10.4423
G01 X56.1208 Y10.4241
G01 X56.1330 Y10.4217
G01 X56.2132 Y10.4099
G01 X56.2972 Y10.4057
G01 X58.5624 Y10.4056
G01 X58.5624 Y10.0383
G01 X58.5634 Y10.0228
G01 X58.5655 Y10.0106
G01 X58.5679 Y10.0016
G01 X58.5720 Y9.9899
G01 X58.5759 Y9.9815
G01 X58.5804 Y9.9733
G01 X58.5855 Y9.9655
G01 X58.5911 Y9.9581
G01 X58.5972 Y9.9512
G01 X58.6039 Y9.9447
G01 X58.6135 Y9.9368
G01 X58.6211 Y9.9316
G01 X58.6292 Y9.9269
G01 X58.6375 Y9.9228
G01 X58.6462 Y9.9193
G01 X58.6550 Y9.9165
G01 X58.6641 Y9.9144
G01 X58.6763 Y9.9126
G01 X58.6887 Y9.9120
G01 X60.7269 Y9.9121
G01 X60.7362 Y9.9129
G01 X60.7454 Y9.9144
G01 X60.7544 Y9.9165
G01 X60.7633 Y9.9193
G01 X60.7719 Y9.9228
G01 X60.7803 Y9.9269
G01 X60.7934 Y9.9350
G01 X60.8008 Y9.9406
G01 X60.8078 Y9.9468
G01 X60.8143 Y9.9534
G01 X60.8203 Y9.9606
G01 X60.8257 Y9.9681
G01 X60.8306 Y9.9760
G01 X60.8349 Y9.9843
G01 X60.8386 Y9.9928
G01 X60.8424 Y10.0046
G01 X60.8446 Y10.0136
G01 X60.8464 Y10.0259
G01 X60.8470 Y10.0383
G01 X60.8470 Y12.0734
G01 X60.8457 Y12.0888
G01 X60.8424 Y12.1039
G01 X60.8374 Y12.1186
G01 X60.8306 Y12.1325
G01 X60.8222 Y12.1455
G01 X60.8122 Y12.1573
G01 X60.8008 Y12.1679
G01 X60.7883 Y12.1770
G01 X60.7803 Y12.1816
G01 X60.7719 Y12.1857
G01 X60.7574 Y12.1911
G01 X60.7484 Y12.1935
G01 X60.7393 Y12.1952
G01 X60.7300 Y12.1962
G01 X60.7207 Y12.1966
G01 X58.6887 Y12.1966
G01 X58.6733 Y12.1956
G01 X58.6580 Y12.1928
G01 X58.6433 Y12.1881
G01 X58.6318 Y12.1830
G01 X56.6684 Y12.1830
G01 X55.5308 Y13.3206
G01 X55.5308 Y20.6403
G01 X55.5268 Y20.7243
G01 X55.5258 Y20.7336
G01 X55.5148 Y20.8076
G01 X55.5124 Y20.8197
G01 X55.4925 Y20.8983
G01 X55.4631 Y20.9804
G01 X55.4286 Y21.0537
G01 X55.4228 Y21.0646
G01 X55.3810 Y21.1340
G01 X55.3329 Y21.1992
G01 X55.3250 Y21.2088
G01 X55.2705 Y21.2687
G01 X55.2106 Y21.3232
G01 X55.2010 Y21.3311
G01 X55.1358 Y21.3792
G01 X55.0664 Y21.4210
G01 X55.0555 Y21.4269
G01 X54.9879 Y21.4588
G01 X54.9793 Y21.4625
G01 X54.9001 Y21.4907
G01 X54.8155 Y21.5119
G01 X54.7292 Y21.5247
G01 X54.6452 Y21.5290
G01 X50.3513 Y21.5290
G01 X50.3235 Y21.5496
G01 X50.3158 Y21.5549
G01 X50.2490 Y21.5950
G01 X50.2409 Y21.5994
G01 X50.1648 Y21.6353
G01 X50.0856 Y21.6637
G01 X50.0767 Y21.6663
G01 X50.0041 Y21.6845
G01 X49.9920 Y21.6869
G01 X49.9118 Y21.6987
G01 X49.8278 Y21.7029
G01 X44.2604 Y21.7029
G01 X39.4970 Y26.4663
G01 X39.4371 Y26.5208
G01 X39.4275 Y26.5286
G01 X39.3624 Y26.5768
G01 X39.2876 Y26.6216
G01 X39.2087 Y26.6589
G01 X39.1325 Y26.6863
G01 X39.1206 Y26.6899
G01 X39.0420 Y26.7095
G01 X38.9619 Y26.7215
G01 X38.9496 Y26.7227
G01 X38.8717 Y26.7265
G01 X34.8938 Y26.7265
G01 X34.8486 Y26.7427
G01 X34.8397 Y26.7455
G01 X34.7641 Y26.7645
G01 X34.7550 Y26.7664
G01 X34.6718 Y26.7787
G01 X34.5847 Y26.7829
G01 X34.5069 Y26.7793
G01 X31.5821 Y26.7792
G01 X31.5043 Y26.7754
G01 X31.4920 Y26.7742
G01 X31.4118 Y26.7622
G01 X31.3332 Y26.7427
G01 X31.3214 Y26.7391
G01 X31.2451 Y26.7116
G01 X31.1718 Y26.6771
G01 X31.1609 Y26.6713
G01 X31.0915 Y26.6295
G01 X31.0263 Y26.5814
G01 X31.0167 Y26.5735
G01 X30.9568 Y26.5190
G01 X26.3408 Y21.9029
G01 X23.3470 Y21.9029
G01 X23.3469 Y22.0365
G01 X23.3457 Y22.0488
G01 X23.3432 Y22.0609
G01 X23.3406 Y22.0699
G01 X23.3362 Y22.0814
G01 X23.3291 Y22.0952
G01 X23.3240 Y22.1030
G01 X23.3184 Y22.1104
G01 X23.3078 Y22.1217
G01 X23.2960 Y22.1317
G01 X23.2830 Y22.1402
G01 X23.2691 Y22.1469
G01 X23.2603 Y22.1502
G01 X23.2514 Y22.1528
G01 X23.2362 Y22.1556
G01 X23.2207 Y22.1566
G01 X21.1887 Y22.1566
G01 X21.1794 Y22.1562
G01 X21.1702 Y22.1552
G01 X21.1550 Y22.1520
G01 X21.1404 Y22.1469
G01 X21.1319 Y22.1431
G01 X21.1238 Y22.1386
G01 X21.1160 Y22.1335
G01 X21.1086 Y22.1279
G01 X21.0972 Y22.1173
G01 X21.0911 Y22.1104
G01 X21.0855 Y22.1030
G01 X21.0804 Y22.0952
G01 X21.0759 Y22.0870
G01 X21.0709 Y22.0757
G01 X21.0670 Y22.0639
G01 X21.0643 Y22.0519
G01 X21.0628 Y22.0396
G01 X21.0624 Y22.0303
G01 X21.0624 Y21.9029
G01 X13.3427 Y21.9029
G01 X13.3396 Y21.9128
G01 X13.3362 Y21.9214
G01 X13.3321 Y21.9298
G01 X13.3274 Y21.9378
G01 X13.3222 Y21.9455
G01 X13.3164 Y21.9528
G01 X13.3078 Y21.9617
G01 X13.3008 Y21.9679
G01 X13.2934 Y21.9735
G01 X13.2830 Y21.9802
G01 X13.2747 Y21.9844
G01 X13.2662 Y21.9881
G01 X13.2574 Y21.9911
G01 X13.2454 Y21.9941
G01 X13.2362 Y21.9956
G01 X13.2269 Y21.9964
G01 X11.1856 Y21.9965
G01 X11.1702 Y21.9952
G01 X11.1610 Y21.9935
G01 X11.1521 Y21.9911
G01 X11.1433 Y21.9881
G01 X11.1347 Y21.9844
G01 X11.1265 Y21.9802
G01 X11.1186 Y21.9753
G01 X11.1062 Y21.9659
G01 X11.0994 Y21.9596
G01 X11.0931 Y21.9528
G01 X11.0837 Y21.9404
G01 X11.0788 Y21.9325
G01 X11.0745 Y21.9243
G01 X11.0698 Y21.9128
G01 X11.0670 Y21.9039
G01 X11.0643 Y21.8919
G01 X11.0628 Y21.8796
G01 X11.0624 Y21.8703
G01 X11.0624 Y21.7429
G01 X10.3055 Y21.7429
G01 X9.4823 Y22.5661
G01 X9.4823 Y30.2193
G01 X11.0624 Y30.2193
G01 X11.0625 Y29.9952
G01 X11.0630 Y29.9859
G01 X11.0643 Y29.9767
G01 X11.0662 Y29.9676
G01 X11.0688 Y29.9586
G01 X11.0720 Y29.9499
G01 X11.0759 Y29.9415
G01 X11.0804 Y29.9333
G01 X11.0855 Y29.9255
G01 X11.0911 Y29.9181
G01 X11.0972 Y29.9112
G01 X11.1039 Y29.9047
G01 X11.1110 Y29.8987
G01 X11.1238 Y29.8899
G01 X11.1319 Y29.8854
G01 X11.1404 Y29.8816
G01 X11.1491 Y29.8783
G01 X11.1580 Y29.8757
G01 X11.1671 Y29.8738
G01 X11.1763 Y29.8726
G01 X11.1887 Y29.8720
G01 X13.2207 Y29.8720
G01 X13.2362 Y29.8729
G01 X13.2484 Y29.8750
G01 X13.2603 Y29.8783
G01 X13.2747 Y29.8841
G01 X13.2830 Y29.8884
G01 X13.2909 Y29.8932
G01 X13.2984 Y29.8987
G01 X13.3055 Y29.9047
G01 X13.3164 Y29.9158
G01 X13.3222 Y29.9230
G01 X13.3274 Y29.9307
G01 X13.3349 Y29.9443
G01 X13.3386 Y29.9528
G01 X13.3416 Y29.9616
G01 X13.3452 Y29.9767
G01 X13.3464 Y29.9859
G01 X13.3470 Y29.9952
G01 X13.3470 Y32.0303
G01 X13.3467 Y32.0396
G01 X13.3457 Y32.0488
G01 X13.3440 Y32.0579
G01 X13.3416 Y32.0669
G01 X13.3386 Y32.0757
G01 X13.3349 Y32.0843
G01 X13.3291 Y32.0952
G01 X13.3240 Y32.1030
G01 X13.3184 Y32.1104
G01 X13.3122 Y32.1173
G01 X13.3055 Y32.1238
G01 X13.2984 Y32.1298
G01 X13.2909 Y32.1353
G01 X13.2830 Y32.1402
G01 X13.2747 Y32.1444
G01 X13.2662 Y32.1481
G01 X13.2574 Y32.1511
G01 X13.2484 Y32.1535
G01 X13.2393 Y32.1552
G01 X13.2269 Y32.1564
G01 X11.1856 Y32.1565
G01 X11.1702 Y32.1552
G01 X11.1580 Y32.1528
G01 X11.1462 Y32.1492
G01 X11.1319 Y32.1431
G01 X11.1211 Y32.1370
G01 X11.1086 Y32.1279
G01 X11.0972 Y32.1173
G01 X11.0892 Y32.1080
G01 X11.0820 Y32.0978
G01 X11.0759 Y32.0870
G01 X11.0709 Y32.0757
G01 X11.0662 Y32.0609
G01 X11.0638 Y32.0488
G01 X11.0626 Y32.0365
G01 X11.0624 Y31.9967
G01 X8.4575 Y31.9966
G01 X8.3797 Y31.9928
G01 X8.3673 Y31.9916
G01 X8.2872 Y31.9796
G01 X8.2086 Y31.9600
G01 X8.1967 Y31.9565
G01 X8.1205 Y31.9290
G01 X8.0417 Y31.8917
G01 X7.9669 Y31.8469
G01 X7.9017 Y31.7988
G01 X7.8921 Y31.7909
G01 X7.8322 Y31.7364
G01 X7.7777 Y31.6764
G01 X7.7698 Y31.6669
G01 X7.7253 Y31.6068
G01 X7.7184 Y31.5965
G01 X7.6769 Y31.5269
G01 X7.6421 Y31.4537
G01 X7.6384 Y31.4452
G01 X7.6121 Y31.3718
G01 X7.6085 Y31.3600
G01 X7.5890 Y31.2814
G01 X7.5770 Y31.2012
G01 X7.5757 Y31.1889
G01 X7.5719 Y31.1080
G01 X7.5759 Y31.0240
G01 X7.5770 Y31.0147
G01 X7.5890 Y30.9346
G01 X7.6085 Y30.8560
G01 X7.6111 Y30.8471
G01 X7.6373 Y30.7737
G01 X7.6408 Y30.7650
G01 X7.6769 Y30.6891
G01 X7.7049 Y30.6420
G00 Z3.0000
G00 X1.5721 Y41.6782
G01 F60.00
G01 Z-0.2848
G01 F120.00
G01 X1.5178 Y41.6180
G01 X1.4658 Y41.5480
G01 X1.4210 Y41.4732
G01 X1.3837 Y41.3943
G01 X1.3543 Y41.3122
G01 X1.3331 Y41.2276
G01 X1.3203 Y41.1414
G01 X1.3161 Y41.0574
G01 X1.3160 Y31.0543
G01 X1.3201 Y30.9702
G01 X1.3211 Y30.9610
G01 X1.3331 Y30.8809
G01 X1.3543 Y30.7963
G01 X1.3837 Y30.7142
G01 X1.4210 Y30.6353
G01 X1.4658 Y30.5605
G01 X1.5178 Y30.4905
G01 X1.5763 Y30.4259
G01 X1.6409 Y30.3673
G01 X1.7110 Y30.3153
G01 X1.7858 Y30.2705
G01 X1.8646 Y30.2332
G01 X1.9467 Y30.2038
G01 X2.0313 Y30.1827
G01 X2.1176 Y30.1699
G01 X2.2047 Y30.1656
G01 X2.2887 Y30.1696
G01 X2.2980 Y30.1706
G01 X2.3781 Y30.1827
G01 X2.4567 Y30.2022
G01 X2.4686 Y30.2058
G01 X2.5390 Y30.2310
G01 X2.5505 Y30.2357
G01 X2.6236 Y30.2705
G01 X2.6984 Y30.3153
G01 X2.7685 Y30.3673
G01 X2.8331 Y30.4259
G01 X2.8917 Y30.4905
G01 X2.9436 Y30.5605
G01 X2.9885 Y30.6353
G01 X3.0232 Y30.7085
G01 X3.0280 Y30.7200
G01 X3.0532 Y30.7904
G01 X3.0568 Y30.8023
G01 X3.0763 Y30.8809
G01 X3.0884 Y30.9610
G01 X3.0894 Y30.9702
G01 X3.0934 Y31.0543
G01 X3.0934 Y40.6862
G01 X5.3331 Y42.9259
G01 X5.3917 Y42.9905
G01 X5.4401 Y43.0555
G01 X5.4469 Y43.0658
G01 X5.4885 Y43.1353
G01 X5.5232 Y43.2085
G01 X5.5280 Y43.2200
G01 X5.5551 Y43.2963
G01 X5.5750 Y43.3748
G01 X5.5774 Y43.3870
G01 X5.5884 Y43.4610
G01 X5.5896 Y43.4733
G01 X5.5934 Y43.5543
G01 X5.5896 Y43.6352
G01 X5.5884 Y43.6475
G01 X5.5763 Y43.7276
G01 X5.5551 Y43.8122
G01 X5.5280 Y43.8886
G01 X5.5232 Y43.9000
G01 X5.4913 Y43.9676
G01 X5.4854 Y43.9786
G01 X5.4436 Y44.0480
G01 X5.3917 Y44.1180
G01 X5.3331 Y44.1827
G01 X5.2685 Y44.2412
G01 X5.1984 Y44.2932
G01 X5.1236 Y44.3380
G01 X5.0448 Y44.3753
G01 X4.9627 Y44.4047
G01 X4.8781 Y44.4259
G01 X4.7918 Y44.4387
G01 X4.7047 Y44.4429
G01 X4.6176 Y44.4387
G01 X4.5313 Y44.4259
G01 X4.4467 Y44.4047
G01 X4.3646 Y44.3753
G01 X4.2913 Y44.3408
G01 X4.2804 Y44.3350
G01 X4.2110 Y44.2932
G01 X4.1458 Y44.2450
G01 X4.1363 Y44.2372
G01 X4.0763 Y44.1827
G01 X1.5721 Y41.6782
G00 Z3.0000
G00 X2.5128 Y46.1836
G01 F60.00
G01 Z-0.2848
G01 F120.00
G01 X3.9779 Y44.7186
G01 X4.0403 Y44.6622
G01 X4.1103 Y44.6103
G01 X4.1851 Y44.5655
G01 X4.2640 Y44.5282
G01 X4.3461 Y44.4988
G01 X4.4307 Y44.4776
G01 X4.5170 Y44.4648
G01 X4.6041 Y44.4605
G01 X4.6912 Y44.4648
G01 X4.7774 Y44.4776
G01 X4.8620 Y44.4988
G01 X4.9441 Y44.5282
G01 X5.0230 Y44.5655
G01 X5.0978 Y44.6103
G01 X5.1678 Y44.6622
G01 X5.2325 Y44.7208
G01 X5.2910 Y44.7854
G01 X5.3430 Y44.8555
G01 X5.3878 Y44.9303
G01 X5.4251 Y45.0091
G01 X5.4525 Y45.0853
G01 X5.4561 Y45.0972
G01 X5.4757 Y45.1758
G01 X5.4877 Y45.2559
G01 X5.4889 Y45.2683
G01 X5.4927 Y45.3492
G01 X5.4885 Y45.4363
G01 X5.4757 Y45.5226
G01 X5.4561 Y45.6012
G01 X5.4525 Y45.6131
G01 X5.4251 Y45.6893
G01 X5.3906 Y45.7626
G01 X5.3848 Y45.7735
G01 X5.3447 Y45.8403
G01 X5.3394 Y45.8480
G01 X5.2910 Y45.9130
G01 X5.2325 Y45.9776
G01 X4.0299 Y47.1801
G01 X4.0299 Y57.6027
G01 X6.3017 Y59.8748
G01 X49.9825 Y59.8748
G01 X52.1216 Y57.7357
G01 X52.1216 Y53.0195
G01 X51.1794 Y52.0773
G01 X50.2450 Y52.0773
G01 X50.1705 Y52.1128
G01 X50.1590 Y52.1175
G01 X50.0827 Y52.1447
G01 X49.9981 Y52.1659
G01 X49.9180 Y52.1779
G01 X49.9056 Y52.1791
G01 X49.8247 Y52.1829
G01 X49.7376 Y52.1787
G01 X49.6513 Y52.1659
G01 X49.5667 Y52.1447
G01 X49.4846 Y52.1153
G01 X49.4058 Y52.0780
G01 X49.3310 Y52.0332
G01 X49.2609 Y51.9812
G01 X49.1963 Y51.9227
G01 X49.1378 Y51.8580
G01 X49.0894 Y51.7931
G01 X49.0825 Y51.7827
G01 X49.0410 Y51.7132
G01 X49.0037 Y51.6343
G01 X48.9743 Y51.5522
G01 X48.9545 Y51.4737
G01 X48.9521 Y51.4615
G01 X48.9403 Y51.3814
G01 X48.9360 Y51.2943
G01 X48.9399 Y51.2133
G01 X48.9411 Y51.2010
G01 X48.9531 Y51.1209
G01 X48.9727 Y51.0423
G01 X48.9762 Y51.0304
G01 X49.0037 Y50.9542
G01 X49.0395 Y50.8781
G01 X49.0440 Y50.8699
G01 X49.0825 Y50.8058
G01 X49.0894 Y50.7955
G01 X49.1378 Y50.7305
G01 X49.1921 Y50.6704
G01 X49.3042 Y50.5580
G01 X49.3619 Y50.5057
G01 X49.3715 Y50.4978
G01 X49.4367 Y50.4497
G01 X49.5115 Y50.4049
G01 X49.5846 Y50.3701
G01 X49.5961 Y50.3653
G01 X49.6724 Y50.3382
G01 X49.7510 Y50.3184
G01 X49.7631 Y50.3159
G01 X49.8433 Y50.3042
G01 X49.9273 Y50.3000
G01 X51.5475 Y50.2999
G01 X51.6284 Y50.3037
G01 X51.6408 Y50.3050
G01 X51.7209 Y50.3170
G01 X51.8055 Y50.3382
G01 X51.8876 Y50.3676
G01 X51.9637 Y50.4034
G01 X51.9718 Y50.4079
G01 X52.0360 Y50.4464
G01 X52.0463 Y50.4533
G01 X52.1113 Y50.5016
G01 X52.1737 Y50.5580
G01 X53.6387 Y52.0230
G01 X53.6973 Y52.0877
G01 X53.7457 Y52.1526
G01 X53.7526 Y52.1629
G01 X53.7910 Y52.2271
G01 X53.7955 Y52.2353
G01 X53.8289 Y52.3057
G01 X53.8336 Y52.3171
G01 X53.8607 Y52.3935
G01 X53.8806 Y52.4720
G01 X53.8830 Y52.4842
G01 X53.8947 Y52.5643
G01 X53.8990 Y52.6483
G01 X53.8990 Y58.1038
G01 X53.8947 Y58.1909
G01 X53.8830 Y58.2710
G01 X53.8813 Y58.2802
G01 X53.8607 Y58.3618
G01 X53.8336 Y58.4381
G01 X53.8289 Y58.4495
G01 X53.7941 Y58.5227
G01 X53.7526 Y58.5923
G01 X53.7457 Y58.6026
G01 X53.6973 Y58.6676
G01 X53.6409 Y58.7300
G01 X50.9790 Y61.3919
G01 X50.9144 Y61.4504
G01 X50.8444 Y61.5024
G01 X50.7696 Y61.5472
G01 X50.6964 Y61.5820
G01 X50.6849 Y61.5867
G01 X50.6145 Y61.6119
G01 X50.6026 Y61.6155
G01 X50.5240 Y61.6351
G01 X50.4439 Y61.6471
G01 X50.4347 Y61.6481
G01 X50.3506 Y61.6522
G01 X5.6679 Y61.6522
G01 X5.5808 Y61.6479
G01 X5.5007 Y61.6361
G01 X5.4915 Y61.6344
G01 X5.4100 Y61.6139
G01 X5.3336 Y61.5867
G01 X5.3222 Y61.5820
G01 X5.2490 Y61.5472
G01 X5.1742 Y61.5024
G01 X5.1090 Y61.4542
G01 X5.0995 Y61.4464
G01 X5.0440 Y61.3961
G01 X5.0353 Y61.3874
G01 X4.9810 Y61.3272
G01 X4.9326 Y61.2623
G01 X4.9257 Y61.2520
G01 X4.8872 Y61.1878
G01 X4.8814 Y61.1769
G01 X4.8469 Y61.1036
G01 X4.8175 Y61.0214
G01 X4.7963 Y60.9368
G01 X4.7867 Y60.8731
G01 X2.5086 Y58.5947
G01 X2.4543 Y58.5346
G01 X2.4059 Y58.4696
G01 X2.3990 Y58.4593
G01 X2.3575 Y58.3897
G01 X2.3227 Y58.3166
G01 X2.3180 Y58.3051
G01 X2.2908 Y58.2288
G01 X2.2696 Y58.1442
G01 X2.2568 Y58.0579
G01 X2.2525 Y57.9708
G01 X2.2526 Y46.8089
G01 X2.2568 Y46.7249
G01 X2.2696 Y46.6387
G01 X2.2908 Y46.5541
G01 X2.3202 Y46.4719
G01 X2.3575 Y46.3931
G01 X2.4023 Y46.3183
G01 X2.4543 Y46.2483
G01 X2.5128 Y46.1836
G00 Z3.0000
G00 X10.2814 Y48.2307
G01 F60.00
G01 Z-0.2848
G01 F120.00
G01 X10.2212 Y48.2850
G01 X10.1512 Y48.3369
G01 X10.0764 Y48.3818
G01 X9.9975 Y48.4191
G01 X9.9154 Y48.4484
G01 X9.8308 Y48.4696
G01 X9.7446 Y48.4824
G01 X9.6637 Y48.4865
G01 X4.9186 Y48.4867
G01 X4.8377 Y48.4829
G01 X4.8285 Y48.4821
G01 X4.7453 Y48.4696
G01 X4.6607 Y48.4484
G01 X4.5786 Y48.4191
G01 X4.4997 Y48.3818
G01 X4.4249 Y48.3369
G01 X4.3549 Y48.2850
G01 X4.2902 Y48.2264
G01 X4.2317 Y48.1618
G01 X4.1797 Y48.0917
G01 X4.1349 Y48.0169
G01 X4.0976 Y47.9381
G01 X4.0682 Y47.8560
G01 X4.0470 Y47.7714
G01 X4.0342 Y47.6851
G01 X4.0300 Y47.5980
G01 X4.0338 Y47.5171
G01 X4.0346 Y47.5078
G01 X4.0470 Y47.4246
G01 X4.0666 Y47.3460
G01 X4.0702 Y47.3342
G01 X4.0954 Y47.2637
G01 X4.1001 Y47.2523
G01 X4.1349 Y47.1791
G01 X4.1797 Y47.1043
G01 X4.2317 Y47.0342
G01 X4.2860 Y46.9741
G01 X4.2947 Y46.9654
G01 X4.3502 Y46.9151
G01 X4.3598 Y46.9072
G01 X4.4249 Y46.8591
G01 X4.4997 Y46.8143
G01 X4.5786 Y46.7770
G01 X4.6548 Y46.7495
G01 X4.6666 Y46.7460
G01 X4.7392 Y46.7278
G01 X4.7514 Y46.7254
G01 X4.8315 Y46.7136
G01 X4.9186 Y46.7093
G01 X9.2894 Y46.7093
G01 X12.2264 Y43.7723
G01 X12.2265 Y41.0756
G01 X12.2306 Y40.9947
G01 X12.2424 Y40.9145
G01 X12.2448 Y40.9024
G01 X12.2646 Y40.8238
G01 X12.2940 Y40.7417
G01 X12.3285 Y40.6684
G01 X12.3344 Y40.6575
G01 X12.3728 Y40.5933
G01 X12.3779 Y40.5855
G01 X12.4281 Y40.5180
G01 X12.4867 Y40.4534
G01 X15.8135 Y37.1266
G01 X15.8759 Y37.0702
G01 X15.9459 Y37.0183
G01 X16.0207 Y36.9734
G01 X16.0939 Y36.9387
G01 X16.1054 Y36.9339
G01 X16.1758 Y36.9087
G01 X16.1877 Y36.9051
G01 X16.2663 Y36.8856
G01 X16.3464 Y36.8735
G01 X16.3556 Y36.8725
G01 X16.4397 Y36.8685
G01 X16.5206 Y36.8723
G01 X16.5329 Y36.8735
G01 X16.6069 Y36.8845
G01 X16.6161 Y36.8862
G01 X16.6976 Y36.9068
G01 X16.7769 Y36.9350
G01 X16.7854 Y36.9387
G01 X16.8558 Y36.9720
G01 X16.8640 Y36.9765
G01 X16.9057 Y37.0015
G01 X23.0920 Y37.0015
G01 X23.1760 Y37.0058
G01 X23.2561 Y37.0175
G01 X23.2683 Y37.0199
G01 X23.3468 Y37.0398
G01 X23.4232 Y37.0669
G01 X23.4346 Y37.0716
G01 X23.5023 Y37.1036
G01 X23.5132 Y37.1095
G01 X23.5774 Y37.1479
G01 X23.5877 Y37.1548
G01 X23.6526 Y37.2032
G01 X23.7173 Y37.2618
G01 X31.7811 Y45.3256
G01 X34.5847 Y45.3256
G01 X34.6718 Y45.3299
G01 X34.7520 Y45.3416
G01 X34.7611 Y45.3433
G01 X34.8427 Y45.3638
G01 X34.9190 Y45.3910
G01 X34.9305 Y45.3957
G01 X34.9981 Y45.4277
G01 X35.0090 Y45.4336
G01 X35.0784 Y45.4753
G01 X35.1485 Y45.5273
G01 X35.2131 Y45.5859
G01 X35.2676 Y45.6458
G01 X35.2755 Y45.6554
G01 X35.3201 Y45.7155
G01 X35.3269 Y45.7258
G01 X35.3685 Y45.7953
G01 X35.4058 Y45.8742
G01 X35.4351 Y45.9563
G01 X35.4550 Y46.0348
G01 X35.4574 Y46.0470
G01 X35.4684 Y46.1210
G01 X35.4694 Y46.1302
G01 X35.4734 Y46.2143
G01 X35.4691 Y46.3014
G01 X35.4563 Y46.3876
G01 X35.4351 Y46.4722
G01 X35.4058 Y46.5543
G01 X35.3685 Y46.6332
G01 X35.3236 Y46.7080
G01 X35.2755 Y46.7731
G01 X35.2676 Y46.7827
G01 X35.2131 Y46.8427
G01 X35.1532 Y46.8972
G01 X35.1436 Y46.9050
G01 X35.0835 Y46.9496
G01 X35.0732 Y46.9565
G01 X35.0036 Y46.9980
G01 X34.9248 Y47.0353
G01 X34.8427 Y47.0647
G01 X34.7581 Y47.0859
G01 X34.6718 Y47.0987
G01 X34.5847 Y47.1029
G01 X31.4099 Y47.1029
G01 X31.3259 Y47.0987
G01 X31.2396 Y47.0859
G01 X31.1550 Y47.0647
G01 X31.0758 Y47.0364
G01 X31.0672 Y47.0328
G01 X30.9940 Y46.9980
G01 X30.9192 Y46.9532
G01 X30.8492 Y46.9012
G01 X30.7846 Y46.8427
G01 X22.7208 Y38.7789
G01 X16.6748 Y38.7789
G01 X14.0037 Y41.4499
G01 X14.0036 Y44.1466
G01 X13.9995 Y44.2275
G01 X13.9877 Y44.3077
G01 X13.9853 Y44.3199
G01 X13.9655 Y44.3984
G01 X13.9383 Y44.4747
G01 X13.9336 Y44.4862
G01 X13.8988 Y44.5594
G01 X13.8540 Y44.6342
G01 X13.8020 Y44.7042
G01 X13.7434 Y44.7688
G01 X10.2814 Y48.2307
G00 Z3.0000
G00 X23.5201 Y48.2219
G01 F60.00
G01 Z-0.2848
G01 F120.00
G01 X23.4658 Y48.1618
G01 X23.4138 Y48.0917
G01 X23.3690 Y48.0169
G01 X23.3342 Y47.9438
G01 X23.3295 Y47.9323
G01 X23.3023 Y47.8560
G01 X23.2825 Y47.7774
G01 X23.2801 Y47.7653
G01 X23.2691 Y47.6913
G01 X23.2679 Y47.6789
G01 X23.2641 Y47.5980
G01 X23.2683 Y47.5109
G01 X23.2811 Y47.4246
G01 X23.3023 Y47.3400
G01 X23.3317 Y47.2579
G01 X23.3690 Y47.1791
G01 X23.4138 Y47.1043
G01 X23.4620 Y47.0391
G01 X23.4698 Y47.0296
G01 X23.5244 Y46.9696
G01 X23.5843 Y46.9151
G01 X23.5939 Y46.9072
G01 X23.6540 Y46.8627
G01 X23.6643 Y46.8558
G01 X23.7338 Y46.8143
G01 X23.8127 Y46.7770
G01 X23.8948 Y46.7476
G01 X23.9794 Y46.7264
G01 X24.0656 Y46.7136
G01 X24.1466 Y46.7095
G01 X24.1589 Y46.7095
G01 X24.2337 Y46.7132
G01 X24.2460 Y46.7144
G01 X24.3261 Y46.7264
G01 X24.4107 Y46.7476
G01 X24.4928 Y46.7770
G01 X24.5689 Y46.8128
G01 X24.5771 Y46.8173
G01 X24.6412 Y46.8558
G01 X24.6515 Y46.8627
G01 X24.7165 Y46.9111
G01 X24.7811 Y46.9696
G01 X31.0371 Y53.2256
G01 X33.9366 Y53.2256
G01 X33.9608 Y53.2016
G01 X34.0209 Y53.1473
G01 X34.0859 Y53.0989
G01 X34.0936 Y53.0937
G01 X34.1658 Y53.0505
G01 X34.2390 Y53.0157
G01 X34.2504 Y53.0110
G01 X34.3238 Y52.9848
G01 X34.3327 Y52.9822
G01 X34.4113 Y52.9627
G01 X34.4915 Y52.9506
G01 X34.5038 Y52.9494
G01 X34.5847 Y52.9456
G01 X34.6656 Y52.9494
G01 X34.6780 Y52.9506
G01 X34.7520 Y52.9616
G01 X34.7611 Y52.9633
G01 X34.8367 Y52.9822
G01 X34.8486 Y52.9858
G01 X34.9248 Y53.0132
G01 X34.9981 Y53.0477
G01 X35.0090 Y53.0536
G01 X35.0784 Y53.0953
G01 X35.1485 Y53.1473
G01 X35.2131 Y53.2059
G01 X35.2676 Y53.2658
G01 X35.2755 Y53.2754
G01 X35.3201 Y53.3355
G01 X35.3269 Y53.3458
G01 X35.3685 Y53.4153
G01 X35.4032 Y53.4885
G01 X35.4080 Y53.5000
G01 X35.4351 Y53.5763
G01 X35.4563 Y53.6609
G01 X35.4691 Y53.7472
G01 X35.4732 Y53.8281
G01 X35.4732 Y53.8405
G01 X35.4696 Y53.9152
G01 X35.4684 Y53.9275
G01 X35.4563 Y54.0076
G01 X35.4368 Y54.0863
G01 X35.4332 Y54.0981
G01 X35.4058 Y54.1743
G01 X35.3699 Y54.2504
G01 X35.3654 Y54.2586
G01 X35.3269 Y54.3227
G01 X35.3201 Y54.3331
G01 X35.2717 Y54.3980
G01 X35.2174 Y54.4582
G01 X34.9331 Y54.7426
G01 X34.8732 Y54.7972
G01 X34.8661 Y54.8031
G01 X34.7985 Y54.8532
G01 X34.7290 Y54.8949
G01 X34.7181 Y54.9008
G01 X34.6448 Y54.9353
G01 X34.5686 Y54.9627
G01 X34.5567 Y54.9663
G01 X34.4781 Y54.9859
G01 X34.3949 Y54.9983
G01 X34.3857 Y54.9991
G01 X34.3047 Y55.0029
G01 X30.6659 Y55.0029
G01 X30.5819 Y54.9987
G01 X30.5017 Y54.9869
G01 X30.4896 Y54.9845
G01 X30.4110 Y54.9647
G01 X30.3347 Y54.9375
G01 X30.3232 Y54.9328
G01 X30.2528 Y54.8994
G01 X30.2447 Y54.8949
G01 X30.1805 Y54.8565
G01 X30.1702 Y54.8496
G01 X30.1052 Y54.8012
G01 X30.0406 Y54.7426
G01 X23.5201 Y48.2219
G00 Z3.0000
G00 X24.8485 Y46.4919
G01 F60.00
G01 Z-0.2848
G01 F120.00
G01 X24.0167 Y46.4919
G01 X23.9327 Y46.4877
G01 X23.8494 Y46.4754
G01 X23.8403 Y46.4735
G01 X23.7678 Y46.4553
G01 X23.7559 Y46.4517
G01 X23.6797 Y46.4243
G01 X23.6008 Y46.3870
G01 X23.5260 Y46.3422
G01 X23.4609 Y46.2940
G01 X23.4513 Y46.2862
G01 X23.3959 Y46.2359
G01 X23.3892 Y46.2294
G01 X23.3328 Y46.1670
G01 X23.2809 Y46.0970
G01 X23.2360 Y46.0222
G01 X23.1987 Y45.9433
G01 X23.1694 Y45.8612
G01 X23.1482 Y45.7766
G01 X23.1354 Y45.6904
G01 X23.1311 Y45.6033
G01 X23.1354 Y45.5162
G01 X23.1482 Y45.4299
G01 X23.1694 Y45.3453
G01 X23.1987 Y45.2632
G01 X23.2360 Y45.1843
G01 X23.2809 Y45.1095
G01 X23.3328 Y45.0395
G01 X23.3871 Y44.9794
G01 X23.3936 Y44.9727
G01 X23.4560 Y44.9163
G01 X23.5260 Y44.8643
G01 X23.6008 Y44.8195
G01 X23.6740 Y44.7847
G01 X23.6855 Y44.7800
G01 X23.7559 Y44.7548
G01 X23.7678 Y44.7512
G01 X23.8464 Y44.7317
G01 X23.9265 Y44.7196
G01 X23.9358 Y44.7186
G01 X24.0198 Y44.7146
G01 X25.2166 Y44.7146
G01 X25.2975 Y44.7184
G01 X25.3099 Y44.7196
G01 X25.3900 Y44.7317
G01 X25.4746 Y44.7528
G01 X25.5567 Y44.7822
G01 X25.6300 Y44.8167
G01 X25.6383 Y44.8210
G01 X25.7103 Y44.8643
G01 X25.7755 Y44.9125
G01 X25.7851 Y44.9203
G01 X25.8450 Y44.9749
G01 X31.4360 Y50.5659
G01 X34.0765 Y50.5659
G01 X34.0936 Y50.5537
G01 X34.1631 Y50.5120
G01 X34.1713 Y50.5077
G01 X34.2446 Y50.4732
G01 X34.3267 Y50.4438
G01 X34.4053 Y50.4240
G01 X34.4175 Y50.4216
G01 X34.4915 Y50.4106
G01 X34.5038 Y50.4094
G01 X34.5847 Y50.4056
G01 X34.6656 Y50.4094
G01 X34.6780 Y50.4106
G01 X34.7581 Y50.4227
G01 X34.8427 Y50.4438
G01 X34.9248 Y50.4732
G01 X35.0036 Y50.5105
G01 X35.0784 Y50.5553
G01 X35.1436 Y50.6035
G01 X35.1532 Y50.6113
G01 X35.2131 Y50.6659
G01 X35.2676 Y50.7258
G01 X35.2755 Y50.7354
G01 X35.3201 Y50.7955
G01 X35.3269 Y50.8058
G01 X35.3685 Y50.8753
G01 X35.4058 Y50.9542
G01 X35.4351 Y51.0363
G01 X35.4563 Y51.1209
G01 X35.4691 Y51.2072
G01 X35.4732 Y51.2881
G01 X35.4732 Y51.3005
G01 X35.4696 Y51.3752
G01 X35.4684 Y51.3875
G01 X35.4563 Y51.4676
G01 X35.4368 Y51.5463
G01 X35.4332 Y51.5581
G01 X35.4058 Y51.6343
G01 X35.3699 Y51.7104
G01 X35.3654 Y51.7186
G01 X35.3269 Y51.7827
G01 X35.3201 Y51.7931
G01 X35.2717 Y51.8580
G01 X35.2153 Y51.9204
G01 X35.0483 Y52.0872
G01 X34.9882 Y52.1415
G01 X34.9232 Y52.1899
G01 X34.9129 Y52.1968
G01 X34.8433 Y52.2383
G01 X34.7702 Y52.2731
G01 X34.7587 Y52.2778
G01 X34.6824 Y52.3050
G01 X34.6038 Y52.3248
G01 X34.5917 Y52.3272
G01 X34.5146 Y52.3386
G01 X34.5053 Y52.3394
G01 X34.4244 Y52.3433
G01 X31.0648 Y52.3432
G01 X30.9808 Y52.3390
G01 X30.9007 Y52.3272
G01 X30.8885 Y52.3248
G01 X30.8100 Y52.3050
G01 X30.7336 Y52.2778
G01 X30.7222 Y52.2731
G01 X30.6518 Y52.2397
G01 X30.6436 Y52.2353
G01 X30.5794 Y52.1968
G01 X30.5691 Y52.1899
G01 X30.5042 Y52.1415
G01 X30.4395 Y52.0830
G01 X24.8485 Y46.4919
G00 Z3.0000
G00 X25.9124 Y44.4972
G01 F60.00
G01 Z-0.2848
G01 F120.00
G01 X24.0167 Y44.4971
G01 X23.9327 Y44.4929
G01 X23.8464 Y44.4801
G01 X23.7618 Y44.4589
G01 X23.6855 Y44.4318
G01 X23.6768 Y44.4283
G01 X23.6008 Y44.3922
G01 X23.5260 Y44.3474
G01 X23.4560 Y44.2954
G01 X23.3914 Y44.2369
G01 X23.3328 Y44.1723
G01 X23.2809 Y44.1022
G01 X23.2360 Y44.0274
G01 X23.1987 Y43.9486
G01 X23.1694 Y43.8665
G01 X23.1482 Y43.7819
G01 X23.1354 Y43.6956
G01 X23.1311 Y43.6085
G01 X23.1354 Y43.5214
G01 X23.1482 Y43.4351
G01 X23.1694 Y43.3505
G01 X23.1965 Y43.2742
G01 X23.2000 Y43.2656
G01 X23.2332 Y43.1951
G01 X23.2391 Y43.1842
G01 X23.2809 Y43.1148
G01 X23.3290 Y43.0496
G01 X23.3369 Y43.0400
G01 X23.3914 Y42.9801
G01 X23.4513 Y42.9256
G01 X23.4609 Y42.9177
G01 X23.5260 Y42.8696
G01 X23.5955 Y42.8278
G01 X23.6064 Y42.8220
G01 X23.6797 Y42.7875
G01 X23.7559 Y42.7600
G01 X23.7678 Y42.7564
G01 X23.8464 Y42.7369
G01 X23.9296 Y42.7244
G01 X23.9388 Y42.7236
G01 X24.0198 Y42.7198
G01 X26.2836 Y42.7198
G01 X26.3676 Y42.7241
G01 X26.4478 Y42.7358
G01 X26.4599 Y42.7382
G01 X26.5385 Y42.7581
G01 X26.6148 Y42.7852
G01 X26.6263 Y42.7900
G01 X26.6939 Y42.8220
G01 X26.7048 Y42.8278
G01 X26.7690 Y42.8663
G01 X26.7793 Y42.8731
G01 X26.8443 Y42.9215
G01 X26.9089 Y42.9801
G01 X31.7944 Y47.8656
G01 X34.5878 Y47.8656
G01 X34.6718 Y47.8699
G01 X34.7581 Y47.8827
G01 X34.8427 Y47.9038
G01 X34.9190 Y47.9310
G01 X34.9305 Y47.9357
G01 X35.0036 Y47.9705
G01 X35.0784 Y48.0153
G01 X35.1485 Y48.0673
G01 X35.2131 Y48.1259
G01 X35.2717 Y48.1905
G01 X35.3236 Y48.2605
G01 X35.3685 Y48.3353
G01 X35.4032 Y48.4085
G01 X35.4080 Y48.4200
G01 X35.4351 Y48.4963
G01 X35.4550 Y48.5748
G01 X35.4574 Y48.5870
G01 X35.4684 Y48.6610
G01 X35.4696 Y48.6733
G01 X35.4734 Y48.7543
G01 X35.4696 Y48.8352
G01 X35.4684 Y48.8475
G01 X35.4563 Y48.9276
G01 X35.4351 Y49.0122
G01 X35.4058 Y49.0943
G01 X35.3699 Y49.1704
G01 X35.3654 Y49.1786
G01 X35.3236 Y49.2480
G01 X35.2755 Y49.3131
G01 X35.2676 Y49.3227
G01 X35.2131 Y49.3827
G01 X35.1532 Y49.4372
G01 X35.1436 Y49.4450
G01 X35.0784 Y49.4932
G01 X35.0090 Y49.5350
G01 X34.9981 Y49.5408
G01 X34.9248 Y49.5753
G01 X34.8486 Y49.6027
G01 X34.8367 Y49.6063
G01 X34.7581 Y49.6259
G01 X34.6780 Y49.6379
G01 X34.6687 Y49.6389
G01 X34.5847 Y49.6429
G01 X31.4232 Y49.6429
G01 X31.3392 Y49.6387
G01 X31.2590 Y49.6269
G01 X31.2468 Y49.6245
G01 X31.1683 Y49.6047
G01 X31.0920 Y49.5775
G01 X31.0805 Y49.5728
G01 X31.0101 Y49.5394
G01 X31.0020 Y49.5350
G01 X30.9378 Y49.4965
G01 X30.9275 Y49.4896
G01 X30.8625 Y49.4412
G01 X30.7979 Y49.3827
G01 X25.9124 Y44.4972
G00 Z3.0000
G00 X24.0230 Y51.2396
G01 F60.00
G01 Z-0.2848
G01 F120.00
G01 X23.9456 Y51.2117
G01 X23.8723 Y51.1772
G01 X23.8614 Y51.1714
G01 X23.7920 Y51.1296
G01 X23.7268 Y51.0815
G01 X23.7173 Y51.0736
G01 X23.6618 Y51.0234
G01 X23.6531 Y51.0146
G01 X23.5988 Y50.9545
G01 X23.5468 Y50.8844
G01 X23.5020 Y50.8096
G01 X23.4647 Y50.7308
G01 X23.4353 Y50.6487
G01 X23.4141 Y50.5641
G01 X23.4013 Y50.4778
G01 X23.3972 Y50.3969
G01 X23.3972 Y50.3845
G01 X23.4009 Y50.3098
G01 X23.4021 Y50.2974
G01 X23.4141 Y50.2173
G01 X23.4337 Y50.1387
G01 X23.4373 Y50.1268
G01 X23.4647 Y50.0506
G01 X23.5006 Y49.9745
G01 X23.5050 Y49.9664
G01 X23.5468 Y49.8970
G01 X23.5988 Y49.8269
G01 X23.6573 Y49.7623
G01 X23.7220 Y49.7037
G01 X23.7920 Y49.6518
G01 X23.8668 Y49.6069
G01 X23.9456 Y49.5697
G01 X24.0219 Y49.5422
G01 X24.0307 Y49.5394
G01 X24.1124 Y49.5191
G01 X24.1925 Y49.5070
G01 X24.2017 Y49.5060
G01 X24.2826 Y49.5020
G01 X24.4309 Y49.5020
G01 X24.5150 Y49.5060
G01 X24.5242 Y49.5070
G01 X24.6043 Y49.5191
G01 X24.6889 Y49.5403
G01 X24.7710 Y49.5697
G01 X24.8471 Y49.6055
G01 X24.8553 Y49.6100
G01 X24.9194 Y49.6485
G01 X24.9297 Y49.6553
G01 X24.9947 Y49.7037
G01 X25.0593 Y49.7623
G01 X32.5606 Y57.2636
G01 X45.1386 Y57.2636
G01 X48.9364 Y53.4658
G01 X48.9364 Y53.0723
G01 X48.9370 Y53.0599
G01 X48.9388 Y53.0476
G01 X48.9410 Y53.0386
G01 X48.9438 Y53.0297
G01 X48.9473 Y53.0211
G01 X48.9513 Y53.0127
G01 X48.9560 Y53.0047
G01 X48.9613 Y52.9970
G01 X48.9671 Y52.9898
G01 X48.9756 Y52.9808
G01 X48.9826 Y52.9746
G01 X48.9900 Y52.9690
G01 X48.9978 Y52.9639
G01 X49.0059 Y52.9594
G01 X49.0144 Y52.9556
G01 X49.0261 Y52.9514
G01 X49.0350 Y52.9490
G01 X49.0442 Y52.9473
G01 X49.0534 Y52.9463
G01 X49.0627 Y52.9460
G01 X49.8139 Y52.9460
G01 X49.8247 Y52.9456
G01 X49.8356 Y52.9460
G01 X50.5898 Y52.9460
G01 X50.6022 Y52.9469
G01 X50.6144 Y52.9490
G01 X50.6263 Y52.9523
G01 X50.6351 Y52.9556
G01 X50.6463 Y52.9609
G01 X50.6569 Y52.9672
G01 X50.6668 Y52.9746
G01 X50.6760 Y52.9830
G01 X50.6844 Y52.9921
G01 X50.6917 Y53.0021
G01 X50.6966 Y53.0100
G01 X50.7022 Y53.0211
G01 X50.7066 Y53.0326
G01 X50.7100 Y53.0446
G01 X50.7121 Y53.0568
G01 X50.7130 Y53.0692
G01 X50.7130 Y53.8234
G01 X50.7134 Y53.8343
G01 X50.7130 Y53.8451
G01 X50.7130 Y54.5963
G01 X50.7121 Y54.6117
G01 X50.7106 Y54.6209
G01 X50.7084 Y54.6299
G01 X50.7056 Y54.6388
G01 X50.7009 Y54.6503
G01 X50.6966 Y54.6585
G01 X50.6917 Y54.6664
G01 X50.6863 Y54.6740
G01 X50.6803 Y54.6811
G01 X50.6738 Y54.6877
G01 X50.6668 Y54.6939
G01 X50.6594 Y54.6995
G01 X50.6517 Y54.7046
G01 X50.6407 Y54.7104
G01 X50.6322 Y54.7141
G01 X50.6234 Y54.7171
G01 X50.6144 Y54.7195
G01 X50.5991 Y54.7220
G01 X50.5867 Y54.7226
G01 X50.1932 Y54.7226
G01 X46.1329 Y58.7828
G01 X46.0705 Y58.8392
G01 X46.0055 Y58.8876
G01 X45.9952 Y58.8945
G01 X45.9256 Y58.9360
G01 X45.8525 Y58.9708
G01 X45.8410 Y58.9755
G01 X45.7647 Y59.0027
G01 X45.6861 Y59.0225
G01 X45.6740 Y59.0249
G01 X45.5938 Y59.0367
G01 X45.5067 Y59.0409
G01 X32.1925 Y59.0409
G01 X32.1116 Y59.0371
G01 X32.1023 Y59.0363
G01 X32.0191 Y59.0239
G01 X31.9345 Y59.0027
G01 X31.8524 Y58.9733
G01 X31.7791 Y58.9388
G01 X31.7682 Y58.9330
G01 X31.7040 Y58.8945
G01 X31.6937 Y58.8876
G01 X31.6287 Y58.8392
G01 X31.5663 Y58.7828
G01 X24.0230 Y51.2396
G00 Z3.0000
G00 X35.4729 Y56.3805
G01 F60.00
G01 Z-0.2848
G01 F120.00
G01 X35.4687 Y56.4613
G01 X35.4560 Y56.5476
G01 X35.4348 Y56.6321
G01 X35.4054 Y56.7142
G01 X35.3681 Y56.7930
G01 X35.3233 Y56.8678
G01 X35.2714 Y56.9378
G01 X35.2128 Y57.0024
G01 X35.1483 Y57.0609
G01 X35.0782 Y57.1129
G01 X35.0035 Y57.1577
G01 X34.9247 Y57.1949
G01 X34.8426 Y57.2243
G01 X34.7580 Y57.2455
G01 X34.6718 Y57.2583
G01 X34.5847 Y57.2626
G01 X34.4977 Y57.2583
G01 X34.4114 Y57.2455
G01 X34.3269 Y57.2243
G01 X34.2448 Y57.1949
G01 X34.1660 Y57.1577
G01 X34.0912 Y57.1129
G01 X34.0212 Y57.0609
G01 X33.9566 Y57.0024
G01 X33.8981 Y56.9378
G01 X33.8461 Y56.8678
G01 X33.8013 Y56.7930
G01 X33.7640 Y56.7142
G01 X33.7347 Y56.6321
G01 X33.7135 Y56.5476
G01 X33.7007 Y56.4613
G01 X33.6964 Y56.3743
G01 X33.7007 Y56.2872
G01 X33.7135 Y56.2010
G01 X33.7347 Y56.1164
G01 X33.7640 Y56.0343
G01 X33.8013 Y55.9555
G01 X33.8461 Y55.8807
G01 X33.8981 Y55.8107
G01 X33.9566 Y55.7461
G01 X34.0212 Y55.6876
G01 X34.0912 Y55.6357
G01 X34.1660 Y55.5908
G01 X34.2448 Y55.5536
G01 X34.3269 Y55.5242
G01 X34.4114 Y55.5030
G01 X34.4977 Y55.4902
G01 X34.5847 Y55.4860
G01 X34.6718 Y55.4902
G01 X34.7580 Y55.5030
G01 X34.8426 Y55.5242
G01 X34.9247 Y55.5536
G01 X35.0035 Y55.5908
G01 X35.0782 Y55.6357
G01 X35.1483 Y55.6876
G01 X35.2128 Y55.7461
G01 X35.2714 Y55.8107
G01 X35.3233 Y55.8807
G01 X35.3681 Y55.9555
G01 X35.4054 Y56.0343
G01 X35.4348 Y56.1164
G01 X35.4560 Y56.2010
G01 X35.4687 Y56.2872
G01 X35.4729 Y56.3681
G01 X35.4729 Y56.3805
G00 Z3.0000
G00 X35.4729 Y43.6805
G01 F60.00
G01 Z-0.2848
G01 F120.00
G01 X35.4687 Y43.7613
G01 X35.4560 Y43.8476
G01 X35.4348 Y43.9321
G01 X35.4054 Y44.0142
G01 X35.3681 Y44.0930
G01 X35.3233 Y44.1678
G01 X35.2714 Y44.2378
G01 X35.2128 Y44.3024
G01 X35.1483 Y44.3609
G01 X35.0782 Y44.4129
G01 X35.0035 Y44.4577
G01 X34.9247 Y44.4949
G01 X34.8426 Y44.5243
G01 X34.7580 Y44.5455
G01 X34.6718 Y44.5583
G01 X34.5847 Y44.5626
G01 X34.4977 Y44.5583
G01 X34.4114 Y44.5455
G01 X34.3269 Y44.5243
G01 X34.2448 Y44.4949
G01 X34.1660 Y44.4577
G01 X34.0912 Y44.4129
G01 X34.0212 Y44.3609
G01 X33.9566 Y44.3024
G01 X33.8981 Y44.2378
G01 X33.8461 Y44.1678
G01 X33.8013 Y44.0930
G01 X33.7640 Y44.0142
G01 X33.7347 Y43.9321
G01 X33.7135 Y43.8476
G01 X33.7007 Y43.7613
G01 X33.6964 Y43.6743
G01 X33.7007 Y43.5872
G01 X33.7135 Y43.5010
G01 X33.7347 Y43.4164
G01 X33.7640 Y43.3343
G01 X33.8013 Y43.2555
G01 X33.8461 Y43.1807
G01 X33.8981 Y43.1107
G01 X33.9566 Y43.0461
G01 X34.0212 Y42.9876
G01 X34.0912 Y42.9357
G01 X34.1660 Y42.8908
G01 X34.2448 Y42.8536
G01 X34.3269 Y42.8242
G01 X34.4114 Y42.8030
G01 X34.4977 Y42.7902
G01 X34.5847 Y42.7860
G01 X34.6718 Y42.7902
G01 X34.7580 Y42.8030
G01 X34.8426 Y42.8242
G01 X34.9247 Y42.8536
G01 X35.0035 Y42.8908
G01 X35.0782 Y42.9357
G01 X35.1483 Y42.9876
G01 X35.2128 Y43.0461
G01 X35.2714 Y43.1107
G01 X35.3233 Y43.1807
G01 X35.3681 Y43.2555
G01 X35.4054 Y43.3343
G01 X35.4348 Y43.4164
G01 X35.4560 Y43.5010
G01 X35.4687 Y43.5872
G01 X35.4729 Y43.6681
G01 X35.4729 Y43.6805
G00 Z3.0000
G00 X35.4729 Y41.1405
G01 F60.00
G01 Z-0.2848
G01 F120.00
G01 X35.4687 Y41.2213
G01 X35.4560 Y41.3076
G01 X35.4348 Y41.3921
G01 X35.4054 Y41.4742
G01 X35.3681 Y41.5530
G01 X35.3233 Y41.6278
G01 X35.2714 Y41.6978
G01 X35.2128 Y41.7624
G01 X35.1483 Y41.8209
G01 X35.0782 Y41.8729
G01 X35.0035 Y41.9177
G01 X34.9247 Y41.9549
G01 X34.8426 Y41.9843
G01 X34.7580 Y42.0055
G01 X34.6718 Y42.0183
G01 X34.5847 Y42.0226
G01 X34.4977 Y42.0183
G01 X34.4114 Y42.0055
G01 X34.3269 Y41.9843
G01 X34.2448 Y41.9549
G01 X34.1660 Y41.9177
G01 X34.0912 Y41.8729
G01 X34.0212 Y41.8209
G01 X33.9566 Y41.7624
G01 X33.8981 Y41.6978
G01 X33.8461 Y41.6278
G01 X33.8013 Y41.5530
G01 X33.7640 Y41.4742
G01 X33.7347 Y41.3921
G01 X33.7135 Y41.3076
G01 X33.7007 Y41.2213
G01 X33.6964 Y41.1343
G01 X33.7007 Y41.0472
G01 X33.7135 Y40.9610
G01 X33.7347 Y40.8764
G01 X33.7640 Y40.7943
G01 X33.8013 Y40.7155
G01 X33.8461 Y40.6407
G01 X33.8981 Y40.5707
G01 X33.9566 Y40.5061
G01 X34.0212 Y40.4476
G01 X34.0912 Y40.3957
G01 X34.1660 Y40.3508
G01 X34.2448 Y40.3136
G01 X34.3269 Y40.2842
G01 X34.4114 Y40.2630
G01 X34.4977 Y40.2502
G01 X34.5847 Y40.2460
G01 X34.6718 Y40.2502
G01 X34.7580 Y40.2630
G01 X34.8426 Y40.2842
G01 X34.9247 Y40.3136
G01 X35.0035 Y40.3508
G01 X35.0782 Y40.3957
G01 X35.1483 Y40.4476
G01 X35.2128 Y40.5061
G01 X35.2714 Y40.5707
G01 X35.3233 Y40.6407
G01 X35.3681 Y40.7155
G01 X35.4054 Y40.7943
G01 X35.4348 Y40.8764
G01 X35.4560 Y40.9610
G01 X35.4687 Y41.0472
G01 X35.4729 Y41.1281
G01 X35.4729 Y41.1405
G00 Z3.0000
G00 X35.4729 Y38.6005
G01 F60.00
G01 Z-0.2848
G01 F120.00
G01 X35.4687 Y38.6813
G01 X35.4560 Y38.7676
G01 X35.4348 Y38.8521
G01 X35.4054 Y38.9342
G01 X35.3681 Y39.0130
G01 X35.3233 Y39.0878
G01 X35.2714 Y39.1578
G01 X35.2128 Y39.2224
G01 X35.1483 Y39.2809
G01 X35.0782 Y39.3329
G01 X35.0035 Y39.3777
G01 X34.9247 Y39.4149
G01 X34.8426 Y39.4443
G01 X34.7580 Y39.4655
G01 X34.6718 Y39.4783
G01 X34.5847 Y39.4826
G01 X34.4977 Y39.4783
G01 X34.4114 Y39.4655
G01 X34.3269 Y39.4443
G01 X34.2448 Y39.4149
G01 X34.1660 Y39.3777
G01 X34.0912 Y39.3329
G01 X34.0212 Y39.2809
G01 X33.9566 Y39.2224
G01 X33.8981 Y39.1578
G01 X33.8461 Y39.0878
G01 X33.8013 Y39.0130
G01 X33.7640 Y38.9342
G01 X33.7347 Y38.8521
G01 X33.7135 Y38.7676
G01 X33.7007 Y38.6813
G01 X33.6964 Y38.5943
G01 X33.7007 Y38.5072
G01 X33.7135 Y38.4210
G01 X33.7347 Y38.3364
G01 X33.7640 Y38.2543
G01 X33.8013 Y38.1755
G01 X33.8461 Y38.1007
G01 X33.8981 Y38.0307
G01 X33.9566 Y37.9661
G01 X34.0212 Y37.9076
G01 X34.0912 Y37.8557
G01 X34.1660 Y37.8108
G01 X34.2448 Y37.7736
G01 X34.3269 Y37.7442
G01 X34.4114 Y37.7230
G01 X34.4977 Y37.7102
G01 X34.5847 Y37.7060
G01 X34.6718 Y37.7102
G01 X34.7580 Y37.7230
G01 X34.8426 Y37.7442
G01 X34.9247 Y37.7736
G01 X35.0035 Y37.8108
G01 X35.0782 Y37.8557
G01 X35.1483 Y37.9076
G01 X35.2128 Y37.9661
G01 X35.2714 Y38.0307
G01 X35.3233 Y38.1007
G01 X35.3681 Y38.1755
G01 X35.4054 Y38.2543
G01 X35.4348 Y38.3364
G01 X35.4560 Y38.4210
G01 X35.4687 Y38.5072
G01 X35.4729 Y38.5881
G01 X35.4729 Y38.6005
G00 Z3.0000
G00 X35.4729 Y36.0605
G01 F60.00
G01 Z-0.2848
G01 F120.00
G01 X35.4687 Y36.1413
G01 X35.4560 Y36.2276
G01 X35.4348 Y36.3121
G01 X35.4054 Y36.3942
G01 X35.3681 Y36.4730
G01 X35.3233 Y36.5478
G01 X35.2714 Y36.6178
G01 X35.2128 Y36.6824
G01 X35.1483 Y36.7409
G01 X35.0782 Y36.7929
G01 X35.0035 Y36.8377
G01 X34.9247 Y36.8749
G01 X34.8426 Y36.9043
G01 X34.7580 Y36.9255
G01 X34.6718 Y36.9383
G01 X34.5847 Y36.9426
G01 X34.4977 Y36.9383
G01 X34.4114 Y36.9255
G01 X34.3269 Y36.9043
G01 X34.2448 Y36.8749
G01 X34.1660 Y36.8377
G01 X34.0912 Y36.7929
G01 X34.0212 Y36.7409
G01 X33.9566 Y36.6824
G01 X33.8981 Y36.6178
G01 X33.8461 Y36.5478
G01 X33.8013 Y36.4730
G01 X33.7640 Y36.3942
G01 X33.7347 Y36.3121
G01 X33.7135 Y36.2276
G01 X33.7007 Y36.1413
G01 X33.6964 Y36.0543
G01 X33.7007 Y35.9672
G01 X33.7135 Y35.8810
G01 X33.7347 Y35.7964
G01 X33.7640 Y35.7143
G01 X33.8013 Y35.6355
G01 X33.8461 Y35.5607
G01 X33.8981 Y35.4907
G01 X33.9566 Y35.4261
G01 X34.0212 Y35.3676
G01 X34.0912 Y35.3157
G01 X34.1660 Y35.2708
G01 X34.2448 Y35.2336
G01 X34.3269 Y35.2042
G01 X34.4114 Y35.1830
G01 X34.4977 Y35.1702
G01 X34.5847 Y35.1660
G01 X34.6718 Y35.1702
G01 X34.7580 Y35.1830
G01 X34.8426 Y35.2042
G01 X34.9247 Y35.2336
G01 X35.0035 Y35.2708
G01 X35.0782 Y35.3157
G01 X35.1483 Y35.3676
G01 X35.2128 Y35.4261
G01 X35.2714 Y35.4907
G01 X35.3233 Y35.5607
G01 X35.3681 Y35.6355
G01 X35.4054 Y35.7143
G01 X35.4348 Y35.7964
G01 X35.4560 Y35.8810
G01 X35.4687 Y35.9672
G01 X35.4729 Y36.0481
G01 X35.4729 Y36.0605
G00 Z3.0000
G00 X35.4729 Y33.5205
G01 F60.00
G01 Z-0.2848
G01 F120.00
G01 X35.4687 Y33.6013
G01 X35.4560 Y33.6876
G01 X35.4348 Y33.7721
G01 X35.4054 Y33.8542
G01 X35.3681 Y33.9330
G01 X35.3233 Y34.0078
G01 X35.2714 Y34.0778
G01 X35.2128 Y34.1424
G01 X35.1483 Y34.2009
G01 X35.0782 Y34.2529
G01 X35.0035 Y34.2977
G01 X34.9247 Y34.3349
G01 X34.8426 Y34.3643
G01 X34.7580 Y34.3855
G01 X34.6718 Y34.3983
G01 X34.5847 Y34.4026
G01 X34.4977 Y34.3983
G01 X34.4114 Y34.3855
G01 X34.3269 Y34.3643
G01 X34.2448 Y34.3349
G01 X34.1660 Y34.2977
G01 X34.0912 Y34.2529
G01 X34.0212 Y34.2009
G01 X33.9566 Y34.1424
G01 X33.8981 Y34.0778
G01 X33.8461 Y34.0078
G01 X33.8013 Y33.9330
G01 X33.7640 Y33.8542
G01 X33.7347 Y33.7721
G01 X33.7135 Y33.6876
G01 X33.7007 Y33.6013
G01 X33.6964 Y33.5143
G01 X33.7007 Y33.4272
G01 X33.7135 Y33.3410
G01 X33.7347 Y33.2564
G01 X33.7640 Y33.1743
G01 X33.8013 Y33.0955
G01 X33.8461 Y33.0207
G01 X33.8981 Y32.9507
G01 X33.9566 Y32.8861
G01 X34.0212 Y32.8276
G01 X34.0912 Y32.7757
G01 X34.1660 Y32.7308
G01 X34.2448 Y32.6936
G01 X34.3269 Y32.6642
G01 X34.4114 Y32.6430
G01 X34.4977 Y32.6302
G01 X34.5847 Y32.6260
G01 X34.6718 Y32.6302
G01 X34.7580 Y32.6430
G01 X34.8426 Y32.6642
G01 X34.9247 Y32.6936
G01 X35.0035 Y32.7308
G01 X35.0782 Y32.7757
G01 X35.1483 Y32.8276
G01 X35.2128 Y32.8861
G01 X35.2714 Y32.9507
G01 X35.3233 Y33.0207
G01 X35.3681 Y33.0955
G01 X35.4054 Y33.1743
G01 X35.4348 Y33.2564
G01 X35.4560 Y33.3410
G01 X35.4687 Y33.4272
G01 X35.4729 Y33.5081
G01 X35.4729 Y33.5205
G00 Z3.0000
G00 X35.4729 Y23.3605
G01 F60.00
G01 Z-0.2848
G01 F120.00
G01 X35.4687 Y23.4413
G01 X35.4560 Y23.5276
G01 X35.4348 Y23.6121
G01 X35.4054 Y23.6942
G01 X35.3681 Y23.7730
G01 X35.3233 Y23.8478
G01 X35.2714 Y23.9178
G01 X35.2128 Y23.9824
G01 X35.1483 Y24.0409
G01 X35.0782 Y24.0929
G01 X35.0035 Y24.1377
G01 X34.9247 Y24.1749
G01 X34.8426 Y24.2043
G01 X34.7580 Y24.2255
G01 X34.6718 Y24.2383
G01 X34.5847 Y24.2426
G01 X34.4977 Y24.2383
G01 X34.4114 Y24.2255
G01 X34.3269 Y24.2043
G01 X34.2448 Y24.1749
G01 X34.1660 Y24.1377
G01 X34.0912 Y24.0929
G01 X34.0212 Y24.0409
G01 X33.9566 Y23.9824
G01 X33.8981 Y23.9178
G01 X33.8461 Y23.8478
G01 X33.8013 Y23.7730
G01 X33.7640 Y23.6942
G01 X33.7347 Y23.6121
G01 X33.7135 Y23.5276
G01 X33.7007 Y23.4413
G01 X33.6964 Y23.3543
G01 X33.7007 Y23.2672
G01 X33.7135 Y23.1810
G01 X33.7347 Y23.0964
G01 X33.7640 Y23.0143
G01 X33.8013 Y22.9355
G01 X33.8461 Y22.8607
G01 X33.8981 Y22.7907
G01 X33.9566 Y22.7261
G01 X34.0212 Y22.6676
G01 X34.0912 Y22.6157
G01 X34.1660 Y22.5708
G01 X34.2448 Y22.5336
G01 X34.3269 Y22.5042
G01 X34.4114 Y22.4830
G01 X34.4977 Y22.4702
G01 X34.5847 Y22.4660
G01 X34.6718 Y22.4702
G01 X34.7580 Y22.4830
G01 X34.8426 Y22.5042
G01 X34.9247 Y22.5336
G01 X35.0035 Y22.5708
G01 X35.0782 Y22.6157
G01 X35.1483 Y22.6676
G01 X35.2128 Y22.7261
G01 X35.2714 Y22.7907
G01 X35.3233 Y22.8607
G01 X35.3681 Y22.9355
G01 X35.4054 Y23.0143
G01 X35.4348 Y23.0964
G01 X35.4560 Y23.1810
G01 X35.4687 Y23.2672
G01 X35.4729 Y23.3481
G01 X35.4729 Y23.3605
G00 Z3.0000
G00 X35.4729 Y15.7405
G01 F60.00
G01 Z-0.2848
G01 F120.00
G01 X35.4687 Y15.8213
G01 X35.4560 Y15.9076
G01 X35.4348 Y15.9921
G01 X35.4054 Y16.0742
G01 X35.3681 Y16.1530
G01 X35.3233 Y16.2278
G01 X35.2714 Y16.2978
G01 X35.2128 Y16.3624
G01 X35.1483 Y16.4209
G01 X35.0782 Y16.4729
G01 X35.0035 Y16.5177
G01 X34.9247 Y16.5549
G01 X34.8426 Y16.5843
G01 X34.7580 Y16.6055
G01 X34.6718 Y16.6183
G01 X34.5847 Y16.6226
G01 X34.4977 Y16.6183
G01 X34.4114 Y16.6055
G01 X34.3269 Y16.5843
G01 X34.2448 Y16.5549
G01 X34.1660 Y16.5177
G01 X34.0912 Y16.4729
G01 X34.0212 Y16.4209
G01 X33.9566 Y16.3624
G01 X33.8981 Y16.2978
G01 X33.8461 Y16.2278
G01 X33.8013 Y16.1530
G01 X33.7640 Y16.0742
G01 X33.7347 Y15.9921
G01 X33.7135 Y15.9076
G01 X33.7007 Y15.8213
G01 X33.6964 Y15.7343
G01 X33.7007 Y15.6472
G01 X33.7135 Y15.5610
G01 X33.7347 Y15.4764
G01 X33.7640 Y15.3943
G01 X33.8013 Y15.3155
G01 X33.8461 Y15.2407
G01 X33.8981 Y15.1707
G01 X33.9566 Y15.1061
G01 X34.0212 Y15.0476
G01 X34.0912 Y14.9957
G01 X34.1660 Y14.9508
G01 X34.2448 Y14.9136
G01 X34.3269 Y14.8842
G01 X34.4114 Y14.8630
G01 X34.4977 Y14.8502
G01 X34.5847 Y14.8460
G01 X34.6718 Y14.8502
G01 X34.7580 Y14.8630
G01 X34.8426 Y14.8842
G01 X34.9247 Y14.9136
G01 X35.0035 Y14.9508
G01 X35.0782 Y14.9957
G01 X35.1483 Y15.0476
G01 X35.2128 Y15.1061
G01 X35.2714 Y15.1707
G01 X35.3233 Y15.2407
G01 X35.3681 Y15.3155
G01 X35.4054 Y15.3943
G01 X35.4348 Y15.4764
G01 X35.4560 Y15.5610
G01 X35.4687 Y15.6472
G01 X35.4729 Y15.7281
G01 X35.4729 Y15.7405
G00 Z3.0000
G00 X32.7396 Y8.6792
G01 F60.00
G01 Z-0.2848
G01 F120.00
G01 X32.7380 Y8.6662
G01 X32.7376 Y8.6507
G01 X32.7386 Y8.6352
G01 X32.7412 Y8.6199
G01 X32.7443 Y8.6079
G01 X32.7496 Y8.5933
G01 X32.7562 Y8.5793
G01 X32.7642 Y8.5660
G01 X32.7734 Y8.5535
G01 X32.7838 Y8.5420
G01 X32.7953 Y8.5316
G01 X32.8078 Y8.5224
G01 X32.8211 Y8.5144
G01 X32.8351 Y8.5078
G01 X32.8497 Y8.5025
G01 X32.8617 Y8.4994
G01 X32.8801 Y8.4965
G01 X32.8956 Y8.4957
G01 X33.5505 Y8.4957
G01 X33.5511 Y8.4859
G01 X33.5524 Y8.4760
G01 X33.5508 Y8.4630
G01 X33.5504 Y8.4475
G01 X33.5511 Y8.4351
G01 X33.5524 Y8.4252
G01 X33.5508 Y8.4122
G01 X33.5504 Y8.3967
G01 X33.5511 Y8.3843
G01 X33.5524 Y8.3744
G01 X33.5508 Y8.3614
G01 X33.5503 Y8.3490
G01 X33.5508 Y8.3366
G01 X33.5524 Y8.3236
G01 X33.5508 Y8.3106
G01 X33.5503 Y8.2982
G01 X33.5508 Y8.2858
G01 X33.5524 Y8.2728
G01 X33.5508 Y8.2598
G01 X33.5503 Y8.2474
G01 X33.5508 Y8.2350
G01 X33.5524 Y8.2220
G01 X33.5508 Y8.2090
G01 X33.5503 Y8.1966
G01 X33.5508 Y8.1842
G01 X33.5524 Y8.1712
G01 X33.5508 Y8.1582
G01 X33.5503 Y8.1458
G01 X33.5508 Y8.1334
G01 X33.5524 Y8.1204
G01 X33.5508 Y8.1074
G01 X33.5503 Y8.0950
G01 X33.5508 Y8.0826
G01 X33.5524 Y8.0696
G01 X33.5508 Y8.0566
G01 X33.5503 Y8.0442
G01 X33.5508 Y8.0318
G01 X33.5524 Y8.0188
G01 X33.5508 Y8.0058
G01 X33.5503 Y7.9934
G01 X33.5508 Y7.9810
G01 X33.5524 Y7.9680
G01 X33.5508 Y7.9550
G01 X33.5503 Y7.9426
G01 X33.5508 Y7.9302
G01 X33.5524 Y7.9172
G01 X33.5508 Y7.9042
G01 X33.5503 Y7.8918
G01 X33.5508 Y7.8794
G01 X33.5524 Y7.8664
G01 X33.5508 Y7.8534
G01 X33.5503 Y7.8410
G01 X33.5508 Y7.8286
G01 X33.5524 Y7.8156
G01 X33.5508 Y7.8026
G01 X33.5503 Y7.7902
G01 X33.5508 Y7.7778
G01 X33.5524 Y7.7648
G01 X33.5508 Y7.7518
G01 X33.5503 Y7.7394
G01 X33.5508 Y7.7270
G01 X33.5524 Y7.7140
G01 X33.5508 Y7.7010
G01 X33.5503 Y7.6886
G01 X33.5508 Y7.6762
G01 X33.5524 Y7.6632
G01 X33.5508 Y7.6502
G01 X33.5503 Y7.6378
G01 X33.5508 Y7.6254
G01 X33.5524 Y7.6124
G01 X33.5508 Y7.5994
G01 X33.5503 Y7.5870
G01 X33.5508 Y7.5746
G01 X33.5524 Y7.5616
G01 X33.5508 Y7.5486
G01 X33.5503 Y7.5362
G01 X33.5508 Y7.5238
G01 X33.5524 Y7.5108
G01 X33.5508 Y7.4978
G01 X33.5503 Y7.4854
G01 X33.5508 Y7.4730
G01 X33.5524 Y7.4600
G01 X33.5508 Y7.4470
G01 X33.5503 Y7.4346
G01 X33.5508 Y7.4222
G01 X33.5524 Y7.4092
G01 X33.5508 Y7.3962
G01 X33.5503 Y7.3838
G01 X33.5508 Y7.3714
G01 X33.5524 Y7.3584
G01 X33.5508 Y7.3454
G01 X33.5503 Y7.3330
G01 X33.5508 Y7.3206
G01 X33.5524 Y7.3076
G01 X33.5508 Y7.2946
G01 X33.5503 Y7.2822
G01 X33.5508 Y7.2698
G01 X33.5524 Y7.2568
G01 X33.5508 Y7.2438
G01 X33.5503 Y7.2314
G01 X33.5508 Y7.2190
G01 X33.5524 Y7.2060
G01 X33.5508 Y7.1930
G01 X33.5503 Y7.1806
G01 X33.5508 Y7.1682
G01 X33.5524 Y7.1552
G01 X33.5508 Y7.1422
G01 X33.5503 Y7.1298
G01 X33.5508 Y7.1174
G01 X33.5524 Y7.1044
G01 X33.5508 Y7.0914
G01 X33.5503 Y7.0790
G01 X33.5508 Y7.0666
G01 X33.5524 Y7.0536
G01 X33.5508 Y7.0406
G01 X33.5503 Y7.0282
G01 X33.5508 Y7.0158
G01 X33.5524 Y7.0028
G01 X33.5508 Y6.9898
G01 X33.5503 Y6.9774
G01 X33.5508 Y6.9650
G01 X33.5524 Y6.9520
G01 X33.5508 Y6.9390
G01 X33.5503 Y6.9266
G01 X33.5508 Y6.9142
G01 X33.5524 Y6.9012
G01 X33.5508 Y6.8882
G01 X33.5503 Y6.8758
G01 X33.5508 Y6.8634
G01 X33.5524 Y6.8504
G01 X33.5508 Y6.8374
G01 X33.5503 Y6.8250
G01 X33.5508 Y6.8126
G01 X33.5524 Y6.7996
G01 X33.5508 Y6.7866
G01 X33.5503 Y6.7742
G01 X33.5508 Y6.7618
G01 X33.5524 Y6.7488
G01 X33.5508 Y6.7358
G01 X33.5503 Y6.7234
G01 X33.5508 Y6.7110
G01 X33.5524 Y6.6980
G01 X33.5508 Y6.6850
G01 X33.5503 Y6.6726
G01 X33.5508 Y6.6602
G01 X33.5524 Y6.6472
G01 X33.5508 Y6.6342
G01 X33.5503 Y6.6218
G01 X33.5508 Y6.6094
G01 X33.5524 Y6.5964
G01 X33.5508 Y6.5834
G01 X33.5503 Y6.5710
G01 X33.5508 Y6.5586
G01 X33.5524 Y6.5456
G01 X33.5508 Y6.5326
G01 X33.5503 Y6.5202
G01 X33.5508 Y6.5078
G01 X33.5524 Y6.4948
G01 X33.5508 Y6.4818
G01 X33.5503 Y6.4694
G01 X33.5508 Y6.4570
G01 X33.5524 Y6.4440
G01 X33.5508 Y6.4310
G01 X33.5503 Y6.4186
G01 X33.5508 Y6.4062
G01 X33.5524 Y6.3932
G01 X33.5508 Y6.3802
G01 X33.5503 Y6.3678
G01 X33.5508 Y6.3554
G01 X33.5524 Y6.3424
G01 X33.5508 Y6.3294
G01 X33.5503 Y6.3170
G01 X33.5508 Y6.3046
G01 X33.5524 Y6.2916
G01 X33.5508 Y6.2786
G01 X33.5503 Y6.2662
G01 X33.5508 Y6.2538
G01 X33.5524 Y6.2408
G01 X33.5508 Y6.2278
G01 X33.5503 Y6.2154
G01 X33.5508 Y6.2030
G01 X33.5519 Y6.1938
G01 X33.5534 Y6.1846
G01 X33.5563 Y6.1725
G01 X33.5591 Y6.1636
G01 X33.5636 Y6.1521
G01 X33.5690 Y6.1409
G01 X33.5753 Y6.1302
G01 X33.5805 Y6.1225
G01 X33.5882 Y6.1128
G01 X33.5966 Y6.1036
G01 X33.6058 Y6.0952
G01 X33.6130 Y6.0894
G01 X33.6232 Y6.0823
G01 X33.6339 Y6.0760
G01 X33.6451 Y6.0706
G01 X33.6537 Y6.0671
G01 X33.6655 Y6.0633
G01 X33.6776 Y6.0604
G01 X33.6868 Y6.0589
G01 X33.6960 Y6.0578
G01 X33.7084 Y6.0573
G01 X34.1687 Y6.0574
G01 X34.1780 Y6.0578
G01 X34.1872 Y6.0589
G01 X34.1964 Y6.0604
G01 X34.2085 Y6.0633
G01 X34.2261 Y6.0694
G01 X34.2428 Y6.0775
G01 X34.2508 Y6.0823
G01 X34.2585 Y6.0875
G01 X34.2659 Y6.0932
G01 X34.2752 Y6.1015
G01 X34.2878 Y6.1151
G01 X34.2953 Y6.1250
G01 X34.3003 Y6.1328
G01 X34.3050 Y6.1409
G01 X34.3104 Y6.1521
G01 X34.3169 Y6.1695
G01 X34.3200 Y6.1815
G01 X34.3217 Y6.1907
G01 X34.3229 Y6.1999
G01 X34.3236 Y6.2123
G01 X34.3232 Y6.2278
G01 X34.3216 Y6.2408
G01 X34.3232 Y6.2538
G01 X34.3237 Y6.2662
G01 X34.3232 Y6.2786
G01 X34.3216 Y6.2916
G01 X34.3232 Y6.3046
G01 X34.3237 Y6.3170
G01 X34.3232 Y6.3294
G01 X34.3216 Y6.3424
G01 X34.3232 Y6.3554
G01 X34.3237 Y6.3678
G01 X34.3232 Y6.3802
G01 X34.3216 Y6.3932
G01 X34.3232 Y6.4062
G01 X34.3237 Y6.4186
G01 X34.3232 Y6.4310
G01 X34.3216 Y6.4440
G01 X34.3232 Y6.4570
G01 X34.3237 Y6.4694
G01 X34.3232 Y6.4818
G01 X34.3216 Y6.4948
G01 X34.3232 Y6.5078
G01 X34.3237 Y6.5202
G01 X34.3232 Y6.5326
G01 X34.3216 Y6.5456
G01 X34.3232 Y6.5586
G01 X34.3237 Y6.5710
G01 X34.3232 Y6.5834
G01 X34.3216 Y6.5964
G01 X34.3232 Y6.6094
G01 X34.3237 Y6.6218
G01 X34.3232 Y6.6342
G01 X34.3216 Y6.6472
G01 X34.3232 Y6.6602
G01 X34.3237 Y6.6726
G01 X34.3232 Y6.6850
G01 X34.3216 Y6.6980
G01 X34.3232 Y6.7110
G01 X34.3237 Y6.7234
G01 X34.3232 Y6.7358
G01 X34.3216 Y6.7488
G01 X34.3232 Y6.7618
G01 X34.3237 Y6.7742
G01 X34.3232 Y6.7866
G01 X34.3216 Y6.7996
G01 X34.3232 Y6.8126
G01 X34.3237 Y6.8250
G01 X34.3232 Y6.8374
G01 X34.3216 Y6.8504
G01 X34.3232 Y6.8634
G01 X34.3237 Y6.8758
G01 X34.3232 Y6.8882
G01 X34.3216 Y6.9012
G01 X34.3232 Y6.9142
G01 X34.3237 Y6.9266
G01 X34.3232 Y6.9390
G01 X34.3216 Y6.9520
G01 X34.3232 Y6.9650
G01 X34.3237 Y6.9774
G01 X34.3232 Y6.9898
G01 X34.3216 Y7.0028
G01 X34.3232 Y7.0158
G01 X34.3237 Y7.0282
G01 X34.3232 Y7.0406
G01 X34.3216 Y7.0536
G01 X34.3232 Y7.0666
G01 X34.3237 Y7.0790
G01 X34.3232 Y7.0914
G01 X34.3216 Y7.1044
G01 X34.3232 Y7.1174
G01 X34.3237 Y7.1298
G01 X34.3232 Y7.1422
G01 X34.3216 Y7.1552
G01 X34.3232 Y7.1682
G01 X34.3237 Y7.1806
G01 X34.3232 Y7.1930
G01 X34.3216 Y7.2060
G01 X34.3232 Y7.2190
G01 X34.3237 Y7.2314
G01 X34.3232 Y7.2438
G01 X34.3216 Y7.2568
G01 X34.3232 Y7.2698
G01 X34.3237 Y7.2822
G01 X34.3232 Y7.2946
G01 X34.3216 Y7.3076
G01 X34.3232 Y7.3206
G01 X34.3237 Y7.3330
G01 X34.3232 Y7.3454
G01 X34.3216 Y7.3584
G01 X34.3232 Y7.3714
G01 X34.3237 Y7.3838
G01 X34.3232 Y7.3962
G01 X34.3216 Y7.4092
G01 X34.3232 Y7.4222
G01 X34.3237 Y7.4346
G01 X34.3232 Y7.4470
G01 X34.3216 Y7.4600
G01 X34.3232 Y7.4730
G01 X34.3237 Y7.4854
G01 X34.3232 Y7.4978
G01 X34.3216 Y7.5108
G01 X34.3232 Y7.5238
G01 X34.3237 Y7.5362
G01 X34.3232 Y7.5486
G01 X34.3216 Y7.5616
G01 X34.3232 Y7.5746
G01 X34.3237 Y7.5870
G01 X34.3232 Y7.5994
G01 X34.3216 Y7.6124
G01 X34.3232 Y7.6254
G01 X34.3237 Y7.6378
G01 X34.3232 Y7.6502
G01 X34.3216 Y7.6632
G01 X34.3232 Y7.6762
G01 X34.3237 Y7.6886
G01 X34.3232 Y7.7010
G01 X34.3216 Y7.7140
G01 X34.3232 Y7.7270
G01 X34.3237 Y7.7394
G01 X34.3232 Y7.7518
G01 X34.3216 Y7.7648
G01 X34.3232 Y7.7778
G01 X34.3237 Y7.7902
G01 X34.3232 Y7.8026
G01 X34.3216 Y7.8156
G01 X34.3232 Y7.8286
G01 X34.3237 Y7.8410
G01 X34.3232 Y7.8534
G01 X34.3216 Y7.8664
G01 X34.3232 Y7.8794
G01 X34.3237 Y7.8918
G01 X34.3232 Y7.9042
G01 X34.3216 Y7.9172
G01 X34.3232 Y7.9302
G01 X34.3237 Y7.9426
G01 X34.3232 Y7.9550
G01 X34.3216 Y7.9680
G01 X34.3232 Y7.9810
G01 X34.3237 Y7.9934
G01 X34.3232 Y8.0058
G01 X34.3216 Y8.0188
G01 X34.3232 Y8.0318
G01 X34.3237 Y8.0442
G01 X34.3232 Y8.0566
G01 X34.3216 Y8.0696
G01 X34.3232 Y8.0826
G01 X34.3237 Y8.0950
G01 X34.3232 Y8.1074
G01 X34.3216 Y8.1204
G01 X34.3232 Y8.1334
G01 X34.3237 Y8.1458
G01 X34.3232 Y8.1582
G01 X34.3216 Y8.1712
G01 X34.3232 Y8.1842
G01 X34.3237 Y8.1966
G01 X34.3232 Y8.2090
G01 X34.3216 Y8.2220
G01 X34.3232 Y8.2350
G01 X34.3237 Y8.2474
G01 X34.3232 Y8.2598
G01 X34.3216 Y8.2728
G01 X34.3232 Y8.2858
G01 X34.3237 Y8.2982
G01 X34.3232 Y8.3106
G01 X34.3216 Y8.3236
G01 X34.3232 Y8.3366
G01 X34.3237 Y8.3490
G01 X34.3232 Y8.3614
G01 X34.3216 Y8.3744
G01 X34.3229 Y8.3843
G01 X34.3236 Y8.3967
G01 X34.3232 Y8.4122
G01 X34.3216 Y8.4252
G01 X34.3229 Y8.4351
G01 X34.3236 Y8.4475
G01 X34.3232 Y8.4630
G01 X34.3216 Y8.4760
G01 X34.3229 Y8.4859
G01 X34.3235 Y8.4957
G01 X34.9815 Y8.4958
G01 X34.9939 Y8.4965
G01 X35.0031 Y8.4977
G01 X35.0123 Y8.4994
G01 X35.0243 Y8.5025
G01 X35.0360 Y8.5066
G01 X35.0446 Y8.5103
G01 X35.0556 Y8.5159
G01 X35.0662 Y8.5224
G01 X35.0787 Y8.5316
G01 X35.0923 Y8.5442
G01 X35.1025 Y8.5559
G01 X35.1081 Y8.5634
G01 X35.1131 Y8.5712
G01 X35.1178 Y8.5793
G01 X35.1219 Y8.5876
G01 X35.1256 Y8.5962
G01 X35.1287 Y8.6050
G01 X35.1334 Y8.6230
G01 X35.1357 Y8.6383
G01 X35.1364 Y8.6569
G01 X35.1357 Y8.6693
G01 X35.1344 Y8.6792
G01 X35.1360 Y8.6922
G01 X35.1364 Y8.7077
G01 X35.1357 Y8.7201
G01 X35.1344 Y8.7300
G01 X35.1360 Y8.7430
G01 X35.1365 Y8.7554
G01 X35.1360 Y8.7678
G01 X35.1344 Y8.7808
G01 X35.1360 Y8.7938
G01 X35.1365 Y8.8062
G01 X35.1360 Y8.8186
G01 X35.1344 Y8.8316
G01 X35.1360 Y8.8446
G01 X35.1365 Y8.8570
G01 X35.1360 Y8.8694
G01 X35.1344 Y8.8824
G01 X35.1360 Y8.8954
G01 X35.1365 Y8.9078
G01 X35.1360 Y8.9202
G01 X35.1344 Y8.9332
G01 X35.1362 Y8.9493
G01 X35.1363 Y8.9648
G01 X35.1357 Y8.9741
G01 X35.1345 Y8.9833
G01 X35.1328 Y8.9925
G01 X35.1305 Y9.0015
G01 X35.1244 Y9.0191
G01 X35.1163 Y9.0358
G01 X35.1115 Y9.0438
G01 X35.1063 Y9.0515
G01 X35.1006 Y9.0589
G01 X35.0923 Y9.0682
G01 X35.0787 Y9.0808
G01 X35.0688 Y9.0883
G01 X35.0610 Y9.0933
G01 X35.0529 Y9.0980
G01 X35.0417 Y9.1034
G01 X35.0243 Y9.1099
G01 X35.0123 Y9.1130
G01 X35.0031 Y9.1147
G01 X34.9939 Y9.1159
G01 X34.9815 Y9.1166
G01 X32.8956 Y9.1167
G01 X32.8832 Y9.1162
G01 X32.8709 Y9.1147
G01 X32.8617 Y9.1130
G01 X32.8497 Y9.1099
G01 X32.8380 Y9.1058
G01 X32.8294 Y9.1021
G01 X32.8211 Y9.0980
G01 X32.8104 Y9.0917
G01 X32.8027 Y9.0865
G01 X32.7930 Y9.0788
G01 X32.7838 Y9.0704
G01 X32.7775 Y9.0636
G01 X32.7715 Y9.0565
G01 X32.7642 Y9.0464
G01 X32.7577 Y9.0358
G01 X32.7521 Y9.0248
G01 X32.7484 Y9.0162
G01 X32.7443 Y9.0045
G01 X32.7412 Y8.9925
G01 X32.7395 Y8.9833
G01 X32.7383 Y8.9741
G01 X32.7376 Y8.9617
G01 X32.7380 Y8.9462
G01 X32.7396 Y8.9332
G01 X32.7383 Y8.9233
G01 X32.7376 Y8.9109
G01 X32.7380 Y8.8954
G01 X32.7396 Y8.8824
G01 X32.7380 Y8.8694
G01 X32.7376 Y8.8539
G01 X32.7383 Y8.8415
G01 X32.7396 Y8.8316
G01 X32.7380 Y8.8186
G01 X32.7375 Y8.8062
G01 X32.7380 Y8.7938
G01 X32.7396 Y8.7808
G01 X32.7380 Y8.7678
G01 X32.7375 Y8.7554
G01 X32.7380 Y8.7430
G01 X32.7396 Y8.7300
G01 X32.7380 Y8.7170
G01 X32.7375 Y8.7046
G01 X32.7380 Y8.6922
G01 X32.7396 Y8.6792
G00 Z3.0000
G00 X30.9707 Y8.4957
G01 F60.00
G01 Z-0.2848
G01 F120.00
G01 X30.9701 Y8.4859
G01 X30.9688 Y8.4760
G01 X30.9704 Y8.4630
G01 X30.9709 Y8.4506
G01 X30.9704 Y8.4382
G01 X30.9688 Y8.4252
G01 X30.9704 Y8.4122
G01 X30.9709 Y8.3998
G01 X30.9704 Y8.3874
G01 X30.9688 Y8.3744
G01 X30.9704 Y8.3614
G01 X30.9709 Y8.3490
G01 X30.9704 Y8.3366
G01 X30.9688 Y8.3236
G01 X30.9704 Y8.3106
G01 X30.9709 Y8.2982
G01 X30.9704 Y8.2858
G01 X30.9688 Y8.2728
G01 X30.9704 Y8.2598
G01 X30.9709 Y8.2474
G01 X30.9704 Y8.2350
G01 X30.9688 Y8.2220
G01 X30.9704 Y8.2090
G01 X30.9709 Y8.1966
G01 X30.9704 Y8.1842
G01 X30.9688 Y8.1712
G01 X30.9704 Y8.1582
G01 X30.9709 Y8.1458
G01 X30.9704 Y8.1334
G01 X30.9688 Y8.1204
G01 X30.9704 Y8.1074
G01 X30.9709 Y8.0950
G01 X30.9704 Y8.0826
G01 X30.9688 Y8.0696
G01 X30.9704 Y8.0566
G01 X30.9709 Y8.0442
G01 X30.9704 Y8.0318
G01 X30.9688 Y8.0188
G01 X30.9704 Y8.0058
G01 X30.9709 Y7.9934
G01 X30.9704 Y7.9810
G01 X30.9688 Y7.9680
G01 X30.9704 Y7.9550
G01 X30.9709 Y7.9426
G01 X30.9704 Y7.9302
G01 X30.9688 Y7.9172
G01 X30.9704 Y7.9042
G01 X30.9709 Y7.8918
G01 X30.9704 Y7.8794
G01 X30.9688 Y7.8664
G01 X30.9704 Y7.8534
G01 X30.9709 Y7.8410
G01 X30.9704 Y7.8286
G01 X30.9688 Y7.8156
G01 X30.9704 Y7.8026
G01 X30.9709 Y7.7902
G01 X30.9704 Y7.7778
G01 X30.9688 Y7.7648
G01 X30.9704 Y7.7518
G01 X30.9709 Y7.7394
G01 X30.9704 Y7.7270
G01 X30.9688 Y7.7140
G01 X30.9704 Y7.7010
G01 X30.9709 Y7.6886
G01 X30.9704 Y7.6762
G01 X30.9688 Y7.6632
G01 X30.9704 Y7.6502
G01 X30.9709 Y7.6378
G01 X30.9704 Y7.6254
G01 X30.9688 Y7.6124
G01 X30.9704 Y7.5994
G01 X30.9709 Y7.5870
G01 X30.9704 Y7.5746
G01 X30.9688 Y7.5616
G01 X30.9704 Y7.5486
G01 X30.9709 Y7.5362
G01 X30.9704 Y7.5238
G01 X30.9688 Y7.5108
G01 X30.9704 Y7.4978
G01 X30.9709 Y7.4854
G01 X30.9704 Y7.4730
G01 X30.9688 Y7.4600
G01 X30.9704 Y7.4470
G01 X30.9709 Y7.4346
G01 X30.9704 Y7.4222
G01 X30.9688 Y7.4092
G01 X30.9704 Y7.3962
G01 X30.9709 Y7.3838
G01 X30.9704 Y7.3714
G01 X30.9688 Y7.3584
G01 X30.9704 Y7.3454
G01 X30.9709 Y7.3330
G01 X30.9704 Y7.3206
G01 X30.9688 Y7.3076
G01 X30.9704 Y7.2946
G01 X30.9709 Y7.2822
G01 X30.9704 Y7.2698
G01 X30.9688 Y7.2568
G01 X30.9704 Y7.2438
G01 X30.9709 Y7.2314
G01 X30.9704 Y7.2190
G01 X30.9688 Y7.2060
G01 X30.9704 Y7.1930
G01 X30.9709 Y7.1806
G01 X30.9704 Y7.1682
G01 X30.9688 Y7.1552
G01 X30.9704 Y7.1422
G01 X30.9709 Y7.1298
G01 X30.9704 Y7.1174
G01 X30.9688 Y7.1044
G01 X30.9704 Y7.0914
G01 X30.9709 Y7.0790
G01 X30.9704 Y7.0666
G01 X30.9688 Y7.0536
G01 X30.9704 Y7.0406
G01 X30.9709 Y7.0282
G01 X30.9704 Y7.0158
G01 X30.9688 Y7.0028
G01 X30.9704 Y6.9898
G01 X30.9709 Y6.9774
G01 X30.9704 Y6.9650
G01 X30.9688 Y6.9520
G01 X30.9704 Y6.9390
G01 X30.9709 Y6.9266
G01 X30.9704 Y6.9142
G01 X30.9688 Y6.9012
G01 X30.9704 Y6.8882
G01 X30.9709 Y6.8758
G01 X30.9704 Y6.8634
G01 X30.9688 Y6.8504
G01 X30.9704 Y6.8374
G01 X30.9709 Y6.8250
G01 X30.9704 Y6.8126
G01 X30.9688 Y6.7996
G01 X30.9701 Y6.7897
G01 X30.9708 Y6.7773
G01 X30.9704 Y6.7618
G01 X30.9688 Y6.7488
G01 X30.9701 Y6.7389
G01 X30.9708 Y6.7265
G01 X30.9704 Y6.7110
G01 X30.9688 Y6.6980
G01 X30.9701 Y6.6881
G01 X30.9707 Y6.6783
G01 X31.3571 Y6.6783
G01 X31.3636 Y6.6849
G01 X31.3706 Y6.6912
G01 X31.3828 Y6.7007
G01 X31.3987 Y6.7104
G01 X31.4127 Y6.7170
G01 X31.4244 Y6.7213
G01 X31.4333 Y6.7239
G01 X31.4424 Y6.7260
G01 X31.4546 Y6.7280
G01 X31.4701 Y6.7290
G01 X31.5095 Y6.7291
G01 X31.5183 Y6.7378
G01 X31.5302 Y6.7478
G01 X31.5404 Y6.7549
G01 X31.5538 Y6.7626
G01 X31.5651 Y6.7678
G01 X31.5797 Y6.7731
G01 X31.5948 Y6.7768
G01 X31.6105 Y6.7791
G01 X31.6176 Y6.7865
G01 X31.6293 Y6.7967
G01 X31.6420 Y6.8057
G01 X31.6554 Y6.8134
G01 X31.6667 Y6.8186
G01 X31.6813 Y6.8239
G01 X31.6964 Y6.8276
G01 X31.7121 Y6.8299
G01 X31.7192 Y6.8373
G01 X31.7285 Y6.8456
G01 X31.7384 Y6.8531
G01 X31.7454 Y6.8576
G01 X31.7499 Y6.8646
G01 X31.7555 Y6.8721
G01 X31.7657 Y6.8838
G01 X31.7793 Y6.8964
G01 X31.7892 Y6.9039
G01 X31.7962 Y6.9084
G01 X31.8007 Y6.9154
G01 X31.8063 Y6.9229
G01 X31.8165 Y6.9346
G01 X31.8301 Y6.9472
G01 X31.8400 Y6.9547
G01 X31.8470 Y6.9592
G01 X31.8515 Y6.9662
G01 X31.8571 Y6.9737
G01 X31.8673 Y6.9854
G01 X31.8809 Y6.9980
G01 X31.8908 Y7.0055
G01 X31.8978 Y7.0100
G01 X31.9023 Y7.0170
G01 X31.9098 Y7.0269
G01 X31.9181 Y7.0362
G01 X31.9255 Y7.0433
G01 X31.9272 Y7.0560
G01 X31.9291 Y7.0651
G01 X31.9325 Y7.0770
G01 X31.9368 Y7.0887
G01 X31.9434 Y7.1027
G01 X31.9531 Y7.1186
G01 X31.9626 Y7.1308
G01 X31.9689 Y7.1378
G01 X31.9763 Y7.1449
G01 X31.9786 Y7.1606
G01 X31.9823 Y7.1757
G01 X31.9876 Y7.1903
G01 X31.9928 Y7.2016
G01 X32.0005 Y7.2150
G01 X32.0095 Y7.2277
G01 X32.0197 Y7.2394
G01 X32.0271 Y7.2465
G01 X32.0284 Y7.2568
G01 X32.0271 Y7.2667
G01 X32.0264 Y7.2791
G01 X32.0266 Y7.2915
G01 X32.0274 Y7.3008
G01 X32.0294 Y7.3130
G01 X32.0315 Y7.3221
G01 X32.0341 Y7.3310
G01 X32.0384 Y7.3427
G01 X32.0450 Y7.3567
G01 X32.0547 Y7.3726
G01 X32.0642 Y7.3848
G01 X32.0705 Y7.3918
G01 X32.0779 Y7.3989
G01 X32.0792 Y7.4092
G01 X32.0776 Y7.4222
G01 X32.0771 Y7.4346
G01 X32.0776 Y7.4470
G01 X32.0792 Y7.4600
G01 X32.0776 Y7.4730
G01 X32.0771 Y7.4854
G01 X32.0776 Y7.4978
G01 X32.0792 Y7.5108
G01 X32.0776 Y7.5238
G01 X32.0771 Y7.5362
G01 X32.0776 Y7.5486
G01 X32.0792 Y7.5616
G01 X32.0776 Y7.5746
G01 X32.0771 Y7.5870
G01 X32.0776 Y7.5994
G01 X32.0792 Y7.6124
G01 X32.0776 Y7.6254
G01 X32.0771 Y7.6378
G01 X32.0776 Y7.6502
G01 X32.0792 Y7.6632
G01 X32.0776 Y7.6762
G01 X32.0771 Y7.6886
G01 X32.0776 Y7.7010
G01 X32.0792 Y7.7140
G01 X32.0776 Y7.7270
G01 X32.0771 Y7.7394
G01 X32.0776 Y7.7518
G01 X32.0792 Y7.7648
G01 X32.0779 Y7.7747
G01 X32.0772 Y7.7871
G01 X32.0776 Y7.8026
G01 X32.0792 Y7.8156
G01 X32.0779 Y7.8259
G01 X32.0705 Y7.8330
G01 X32.0642 Y7.8400
G01 X32.0547 Y7.8522
G01 X32.0450 Y7.8681
G01 X32.0384 Y7.8821
G01 X32.0341 Y7.8938
G01 X32.0315 Y7.9027
G01 X32.0294 Y7.9118
G01 X32.0274 Y7.9240
G01 X32.0266 Y7.9333
G01 X32.0264 Y7.9457
G01 X32.0271 Y7.9581
G01 X32.0284 Y7.9680
G01 X32.0271 Y7.9783
G01 X32.0197 Y7.9854
G01 X32.0095 Y7.9971
G01 X32.0022 Y8.0072
G01 X31.9957 Y8.0178
G01 X31.9876 Y8.0345
G01 X31.9823 Y8.0491
G01 X31.9786 Y8.0642
G01 X31.9763 Y8.0799
G01 X31.9689 Y8.0870
G01 X31.9587 Y8.0987
G01 X31.9497 Y8.1114
G01 X31.9420 Y8.1248
G01 X31.9368 Y8.1361
G01 X31.9315 Y8.1507
G01 X31.9278 Y8.1658
G01 X31.9255 Y8.1815
G01 X31.9181 Y8.1886
G01 X31.9098 Y8.1979
G01 X31.9023 Y8.2078
G01 X31.8978 Y8.2148
G01 X31.8908 Y8.2193
G01 X31.8833 Y8.2249
G01 X31.8716 Y8.2351
G01 X31.8590 Y8.2487
G01 X31.8515 Y8.2586
G01 X31.8470 Y8.2656
G01 X31.8400 Y8.2701
G01 X31.8325 Y8.2757
G01 X31.8208 Y8.2859
G01 X31.8082 Y8.2995
G01 X31.8007 Y8.3094
G01 X31.7962 Y8.3164
G01 X31.7892 Y8.3209
G01 X31.7793 Y8.3284
G01 X31.7700 Y8.3367
G01 X31.7629 Y8.3441
G01 X31.7472 Y8.3464
G01 X31.7321 Y8.3501
G01 X31.7175 Y8.3554
G01 X31.7062 Y8.3606
G01 X31.6928 Y8.3683
G01 X31.6801 Y8.3773
G01 X31.6684 Y8.3875
G01 X31.6613 Y8.3949
G01 X31.6456 Y8.3972
G01 X31.6305 Y8.4009
G01 X31.6159 Y8.4062
G01 X31.6046 Y8.4114
G01 X31.5912 Y8.4191
G01 X31.5810 Y8.4262
G01 X31.5691 Y8.4362
G01 X31.5603 Y8.4449
G01 X31.4701 Y8.4450
G01 X31.4546 Y8.4460
G01 X31.4454 Y8.4474
G01 X31.4363 Y8.4493
G01 X31.4244 Y8.4527
G01 X31.4127 Y8.4570
G01 X31.4014 Y8.4622
G01 X31.3933 Y8.4667
G01 X31.3828 Y8.4733
G01 X31.3729 Y8.4808
G01 X31.3636 Y8.4891
G01 X31.3571 Y8.4957
G01 X30.9707 Y8.4957
G00 Z3.0000
G00 X30.1996 Y6.2408
G01 F60.00
G01 Z-0.2848
G01 F120.00
G01 X30.1978 Y6.2247
G01 X30.1977 Y6.2092
G01 X30.1991 Y6.1938
G01 X30.2019 Y6.1785
G01 X30.2063 Y6.1636
G01 X30.2121 Y6.1492
G01 X30.2162 Y6.1409
G01 X30.2209 Y6.1328
G01 X30.2296 Y6.1200
G01 X30.2354 Y6.1128
G01 X30.2417 Y6.1058
G01 X30.2530 Y6.0952
G01 X30.2652 Y6.0857
G01 X30.2784 Y6.0775
G01 X30.2923 Y6.0706
G01 X30.3068 Y6.0651
G01 X30.3217 Y6.0610
G01 X30.3370 Y6.0584
G01 X30.3556 Y6.0573
G01 X31.5240 Y6.0573
G01 X31.5364 Y6.0578
G01 X31.5456 Y6.0589
G01 X31.5579 Y6.0610
G01 X31.5728 Y6.0651
G01 X31.5845 Y6.0694
G01 X31.5985 Y6.0760
G01 X31.6118 Y6.0840
G01 X31.6219 Y6.0913
G01 X31.6313 Y6.0994
G01 X31.6401 Y6.1081
G01 X31.7303 Y6.1082
G01 X31.7427 Y6.1089
G01 X31.7580 Y6.1112
G01 X31.7701 Y6.1141
G01 X31.7819 Y6.1179
G01 X31.7934 Y6.1227
G01 X31.8044 Y6.1283
G01 X31.8150 Y6.1348
G01 X31.8251 Y6.1421
G01 X31.8345 Y6.1502
G01 X31.8433 Y6.1589
G01 X31.8827 Y6.1590
G01 X31.8951 Y6.1597
G01 X31.9135 Y6.1626
G01 X31.9255 Y6.1657
G01 X31.9343 Y6.1687
G01 X31.9429 Y6.1722
G01 X31.9514 Y6.1762
G01 X31.9674 Y6.1856
G01 X31.9822 Y6.1968
G01 X31.9892 Y6.2031
G01 X31.9963 Y6.2105
G01 X32.0120 Y6.2128
G01 X32.0271 Y6.2165
G01 X32.0417 Y6.2218
G01 X32.0584 Y6.2299
G01 X32.0690 Y6.2364
G01 X32.0791 Y6.2437
G01 X32.0908 Y6.2539
G01 X32.0979 Y6.2613
G01 X32.1136 Y6.2636
G01 X32.1287 Y6.2673
G01 X32.1433 Y6.2726
G01 X32.1573 Y6.2792
G01 X32.1680 Y6.2855
G01 X32.1757 Y6.2907
G01 X32.1831 Y6.2964
G01 X32.1924 Y6.3047
G01 X32.2050 Y6.3183
G01 X32.2125 Y6.3282
G01 X32.2170 Y6.3352
G01 X32.2240 Y6.3397
G01 X32.2315 Y6.3453
G01 X32.2432 Y6.3555
G01 X32.2558 Y6.3691
G01 X32.2633 Y6.3790
G01 X32.2678 Y6.3860
G01 X32.2748 Y6.3905
G01 X32.2847 Y6.3980
G01 X32.2940 Y6.4063
G01 X32.3011 Y6.4137
G01 X32.3138 Y6.4154
G01 X32.3229 Y6.4173
G01 X32.3348 Y6.4207
G01 X32.3465 Y6.4250
G01 X32.3578 Y6.4302
G01 X32.3686 Y6.4363
G01 X32.3764 Y6.4413
G01 X32.3863 Y6.4488
G01 X32.3978 Y6.4592
G01 X32.4062 Y6.4684
G01 X32.4139 Y6.4781
G01 X32.4202 Y6.4876
G01 X32.4272 Y6.4921
G01 X32.4371 Y6.4996
G01 X32.4507 Y6.5122
G01 X32.4609 Y6.5239
G01 X32.4665 Y6.5314
G01 X32.4710 Y6.5384
G01 X32.4780 Y6.5429
G01 X32.4879 Y6.5504
G01 X32.4972 Y6.5587
G01 X32.5036 Y6.5653
G01 X32.5117 Y6.5747
G01 X32.5190 Y6.5848
G01 X32.5270 Y6.5981
G01 X32.5324 Y6.6093
G01 X32.5369 Y6.6208
G01 X32.5405 Y6.6327
G01 X32.5432 Y6.6448
G01 X32.5449 Y6.6575
G01 X32.5523 Y6.6646
G01 X32.5606 Y6.6739
G01 X32.5681 Y6.6838
G01 X32.5726 Y6.6908
G01 X32.5796 Y6.6953
G01 X32.5895 Y6.7028
G01 X32.5988 Y6.7111
G01 X32.6052 Y6.7177
G01 X32.6114 Y6.7247
G01 X32.6171 Y6.7321
G01 X32.6223 Y6.7398
G01 X32.6271 Y6.7478
G01 X32.6352 Y6.7645
G01 X32.6405 Y6.7791
G01 X32.6442 Y6.7942
G01 X32.6465 Y6.8099
G01 X32.6539 Y6.8170
G01 X32.6641 Y6.8287
G01 X32.6714 Y6.8388
G01 X32.6794 Y6.8521
G01 X32.6860 Y6.8661
G01 X32.6913 Y6.8807
G01 X32.6950 Y6.8958
G01 X32.6973 Y6.9115
G01 X32.7047 Y6.9186
G01 X32.7149 Y6.9303
G01 X32.7222 Y6.9404
G01 X32.7302 Y6.9537
G01 X32.7368 Y6.9677
G01 X32.7421 Y6.9823
G01 X32.7458 Y6.9974
G01 X32.7481 Y7.0131
G01 X32.7555 Y7.0202
G01 X32.7638 Y7.0295
G01 X32.7713 Y7.0394
G01 X32.7763 Y7.0472
G01 X32.7824 Y7.0580
G01 X32.7876 Y7.0693
G01 X32.7919 Y7.0810
G01 X32.7945 Y7.0899
G01 X32.7966 Y7.0990
G01 X32.7981 Y7.1082
G01 X32.7992 Y7.1174
G01 X32.7996 Y7.1267
G01 X32.7992 Y7.1422
G01 X32.7976 Y7.1552
G01 X32.7989 Y7.1651
G01 X32.7996 Y7.1775
G01 X32.7992 Y7.1930
G01 X32.7976 Y7.2060
G01 X32.7989 Y7.2163
G01 X32.8063 Y7.2234
G01 X32.8165 Y7.2351
G01 X32.8255 Y7.2478
G01 X32.8332 Y7.2612
G01 X32.8396 Y7.2754
G01 X32.8445 Y7.2901
G01 X32.8480 Y7.3052
G01 X32.8500 Y7.3206
G01 X32.8504 Y7.3299
G01 X32.8503 Y7.3392
G01 X32.8497 Y7.3485
G01 X32.8484 Y7.3584
G01 X32.8500 Y7.3714
G01 X32.8504 Y7.3869
G01 X32.8497 Y7.3993
G01 X32.8484 Y7.4092
G01 X32.8500 Y7.4222
G01 X32.8505 Y7.4346
G01 X32.8500 Y7.4470
G01 X32.8484 Y7.4600
G01 X32.8500 Y7.4730
G01 X32.8505 Y7.4854
G01 X32.8500 Y7.4978
G01 X32.8484 Y7.5108
G01 X32.8500 Y7.5238
G01 X32.8505 Y7.5362
G01 X32.8500 Y7.5486
G01 X32.8484 Y7.5616
G01 X32.8500 Y7.5746
G01 X32.8505 Y7.5870
G01 X32.8500 Y7.5994
G01 X32.8484 Y7.6124
G01 X32.8500 Y7.6254
G01 X32.8505 Y7.6378
G01 X32.8500 Y7.6502
G01 X32.8484 Y7.6632
G01 X32.8500 Y7.6762
G01 X32.8505 Y7.6886
G01 X32.8500 Y7.7010
G01 X32.8484 Y7.7140
G01 X32.8500 Y7.7270
G01 X32.8505 Y7.7394
G01 X32.8500 Y7.7518
G01 X32.8484 Y7.7648
G01 X32.8500 Y7.7778
G01 X32.8505 Y7.7902
G01 X32.8500 Y7.8026
G01 X32.8484 Y7.8156
G01 X32.8500 Y7.8286
G01 X32.8505 Y7.8410
G01 X32.8500 Y7.8534
G01 X32.8484 Y7.8664
G01 X32.8500 Y7.8794
G01 X32.8505 Y7.8918
G01 X32.8500 Y7.9042
G01 X32.8484 Y7.9172
G01 X32.8500 Y7.9302
G01 X32.8505 Y7.9426
G01 X32.8497 Y7.9581
G01 X32.8474 Y7.9734
G01 X32.8437 Y7.9885
G01 X32.8372 Y8.0059
G01 X32.8303 Y8.0198
G01 X32.8221 Y8.0330
G01 X32.8126 Y8.0452
G01 X32.8063 Y8.0522
G01 X32.7989 Y8.0593
G01 X32.7976 Y8.0696
G01 X32.7992 Y8.0826
G01 X32.7996 Y8.0981
G01 X32.7989 Y8.1105
G01 X32.7976 Y8.1204
G01 X32.7992 Y8.1334
G01 X32.7996 Y8.1489
G01 X32.7989 Y8.1613
G01 X32.7966 Y8.1766
G01 X32.7937 Y8.1887
G01 X32.7899 Y8.2005
G01 X32.7851 Y8.2120
G01 X32.7795 Y8.2230
G01 X32.7730 Y8.2336
G01 X32.7657 Y8.2437
G01 X32.7555 Y8.2554
G01 X32.7481 Y8.2625
G01 X32.7468 Y8.2728
G01 X32.7481 Y8.2827
G01 X32.7488 Y8.2951
G01 X32.7486 Y8.3075
G01 X32.7478 Y8.3168
G01 X32.7458 Y8.3290
G01 X32.7429 Y8.3411
G01 X32.7401 Y8.3500
G01 X32.7356 Y8.3615
G01 X32.7287 Y8.3754
G01 X32.7205 Y8.3886
G01 X32.7110 Y8.4008
G01 X32.7047 Y8.4078
G01 X32.6973 Y8.4149
G01 X32.6961 Y8.4245
G01 X32.6944 Y8.4337
G01 X32.6921 Y8.4427
G01 X32.6893 Y8.4516
G01 X32.6860 Y8.4603
G01 X32.6808 Y8.4716
G01 X32.6714 Y8.4876
G01 X32.6622 Y8.5001
G01 X32.6496 Y8.5137
G01 X32.6379 Y8.5239
G01 X32.6304 Y8.5295
G01 X32.6234 Y8.5340
G01 X32.6189 Y8.5410
G01 X32.6133 Y8.5485
G01 X32.6010 Y8.5624
G01 X32.5871 Y8.5747
G01 X32.5796 Y8.5803
G01 X32.5726 Y8.5848
G01 X32.5681 Y8.5918
G01 X32.5606 Y8.6017
G01 X32.5523 Y8.6110
G01 X32.5449 Y8.6181
G01 X32.5426 Y8.6338
G01 X32.5389 Y8.6489
G01 X32.5336 Y8.6635
G01 X32.5284 Y8.6748
G01 X32.5207 Y8.6882
G01 X32.5136 Y8.6984
G01 X32.5057 Y8.7080
G01 X32.4949 Y8.7190
G01 X32.4855 Y8.7271
G01 X32.4754 Y8.7344
G01 X32.4621 Y8.7424
G01 X32.4509 Y8.7478
G01 X32.4394 Y8.7523
G01 X32.4275 Y8.7559
G01 X32.4154 Y8.7586
G01 X32.4027 Y8.7603
G01 X32.3956 Y8.7677
G01 X32.3863 Y8.7760
G01 X32.3764 Y8.7835
G01 X32.3694 Y8.7880
G01 X32.3649 Y8.7950
G01 X32.3593 Y8.8025
G01 X32.3470 Y8.8164
G01 X32.3331 Y8.8287
G01 X32.3256 Y8.8343
G01 X32.3186 Y8.8388
G01 X32.3141 Y8.8458
G01 X32.3085 Y8.8533
G01 X32.2962 Y8.8672
G01 X32.2847 Y8.8776
G01 X32.2696 Y8.8885
G01 X32.2616 Y8.8933
G01 X32.2534 Y8.8976
G01 X32.2449 Y8.9014
G01 X32.2362 Y8.9047
G01 X32.2273 Y8.9075
G01 X32.2183 Y8.9098
G01 X32.2091 Y8.9115
G01 X32.1995 Y8.9127
